; HEADER_BLOCK_START
; generated by OrcaSlicer 1.9.0 on 2024-01-26 at 21:40:53
; total layer number: 126
; filament_density: 1.24
; filament_diameter: 1.75
; max_z_height: 22.65
; HEADER_BLOCK_END

; THUMBNAIL_BLOCK_START

;
; THUMBNAIL_BLOCK_END

; external perimeters extrusion width = 0.40mm
; perimeters extrusion width = 0.45mm
; infill extrusion width = 0.45mm
; solid infill extrusion width = 0.40mm
; top infill extrusion width = 0.40mm
; support material extrusion width = 0.40mm
; first layer extrusion width = 0.48mm

; EXECUTABLE_BLOCK_START
EXCLUDE_OBJECT_DEFINE NAME=Bed_strain_relief.stl_id_0_copy_0 CENTER=110,110 POLYGON=[[93.4999,128.573],[93.5011,128.505],[93.5023,128.477],[93.5046,128.437],[93.5095,128.377],[93.5104,128.369],[98.5095,82.7308],[98.5185,82.6545],[98.5212,82.6354],[98.5333,82.5629],[98.5383,82.5366],[98.5427,82.5155],[98.5441,82.5088],[98.575,82.3839],[98.5765,82.3785],[98.586,82.3462],[98.6147,82.2589],[98.6173,82.2516],[98.6403,82.1906],[98.6521,82.1615],[98.6603,82.142],[98.6687,82.1227],[98.714,82.0265],[98.7213,82.0122],[98.7233,82.0082],[98.7361,81.984],[98.7749,81.9147],[98.7806,81.9051],[98.8259,81.8324],[98.837,81.8157],[98.8449,81.8039],[98.8504,81.7958],[98.922,81.6979],[98.9272,81.6912],[98.9472,81.6662],[98.9539,81.658],[98.9978,81.6064],[99.007,81.5959],[99.0789,81.5195],[99.0857,81.5126],[99.0925,81.5058],[99.169,81.4339],[99.1794,81.4247],[99.2311,81.3808],[99.2393,81.3741],[99.2643,81.3541],[99.271,81.3489],[99.3689,81.2774],[99.377,81.2718],[99.3888,81.2639],[99.4055,81.2528],[99.4782,81.2075],[99.4878,81.2018],[99.5571,81.163],[99.5813,81.1502],[99.5852,81.1482],[99.5996,81.1409],[99.6957,81.0956],[99.715,81.0873],[99.7345,81.0791],[99.7637,81.0672],[99.8247,81.0442],[99.832,81.0416],[99.9193,81.0129],[99.9516,81.0035],[99.957,81.0019],[100.082,80.971],[100.089,80.9696],[100.11,80.9652],[100.136,80.9602],[100.209,80.9482],[100.228,80.9454],[100.304,80.9364],[100.354,80.9322],[100.363,80.9315],[100.5,80.9268],[124.5,80.9268],[124.646,80.9322],[124.696,80.9364],[124.791,80.9482],[124.864,80.9602],[124.89,80.9652],[124.918,80.971],[125.043,81.0019],[125.08,81.0129],[125.175,81.0442],[125.236,81.0672],[125.265,81.0791],[125.304,81.0956],[125.415,81.1482],[125.418,81.1502],[125.443,81.163],[125.522,81.2075],[125.594,81.2528],[125.611,81.2639],[125.631,81.2774],[125.736,81.3541],[125.761,81.3741],[125.769,81.3808],[125.831,81.4339],[125.914,81.5126],[125.921,81.5195],[126.002,81.6064],[126.046,81.658],[126.053,81.6662],[126.078,81.6979],[126.155,81.8039],[126.163,81.8157],[126.174,81.8324],[126.225,81.9147],[126.264,81.984],[126.276,82.0082],[126.286,82.0265],[126.339,82.142],[126.348,82.1615],[126.359,82.1906],[126.385,82.2589],[126.414,82.3462],[126.423,82.3785],[126.457,82.5155],[126.461,82.5366],[126.467,82.5629],[126.481,82.6545],[126.49,82.7308],[126.495,82.7904],[126.5,82.9268],[126.5,122.634],[126.5,124.131],[126.5,124.172],[126.499,124.223],[126.499,124.287],[126.497,124.363],[126.497,124.386],[126.495,124.452],[126.494,124.505],[126.492,124.554],[126.49,124.612],[126.488,124.675],[126.485,124.743],[126.482,124.818],[126.477,124.899],[126.475,124.933],[126.472,124.988],[126.471,125.006],[126.468,125.055],[126.466,125.086],[126.462,125.145],[126.458,125.194],[126.448,125.317],[126.445,125.36],[126.436,125.457],[126.432,125.497],[126.423,125.595],[126.42,125.62],[126.417,125.644],[126.412,125.693],[126.41,125.715],[126.402,125.786],[126.398,125.821],[126.396,125.836],[126.39,125.883],[126.383,125.943],[126.378,125.979],[126.366,126.074],[126.364,126.091],[126.359,126.121],[126.353,126.169],[126.351,126.179],[126.347,126.211],[126.339,126.264],[126.336,126.286],[126.332,126.311],[126.325,126.359],[126.314,126.426],[126.298,126.526],[126.28,126.634],[126.275,126.658],[126.26,126.745],[126.242,126.842],[126.205,127.035],[126.201,127.055],[126.194,127.087],[126.164,127.228],[126.157,127.263],[126.126,127.403],[126.109,127.473],[126.1,127.514],[126.085,127.577],[126.006,127.889],[125.997,127.924],[125.994,127.937],[125.945,128.114],[125.892,128.301],[125.875,128.358],[125.834,128.492],[125.775,128.68],[125.765,128.711],[125.744,128.774],[125.718,128.852],[125.659,129.024],[125.627,129.116],[125.601,129.187],[125.598,129.196],[125.554,129.317],[125.535,129.366],[125.477,129.518],[125.446,129.595],[125.403,129.704],[125.334,129.872],[125.316,129.915],[125.28,129.999],[125.263,130.039],[125.144,130.306],[125.12,130.358],[125.101,130.398],[125.045,130.517],[124.969,130.674],[124.96,130.694],[124.912,130.791],[124.887,130.84],[124.802,131.005],[124.765,131.075],[124.715,131.169],[124.71,131.179],[124.664,131.263],[124.626,131.332],[124.56,131.451],[124.54,131.487],[124.498,131.56],[124.451,131.641],[124.36,131.794],[124.344,131.821],[124.274,131.935],[124.268,131.946],[124.118,132.184],[124.079,132.245],[124.04,132.304],[123.981,132.393],[123.881,132.542],[123.795,132.666],[123.786,132.679],[123.687,132.817],[123.634,132.892],[123.588,132.955],[123.54,133.02],[123.507,133.063],[123.486,133.091],[123.377,133.234],[123.274,133.367],[123.272,133.369],[123.111,133.57],[123.052,133.642],[122.999,133.705],[122.937,133.778],[122.835,133.897],[122.821,133.913],[122.713,134.036],[122.703,134.047],[122.584,134.18],[122.55,134.217],[122.463,134.311],[122.419,134.358],[122.34,134.441],[122.256,134.528],[122.215,134.57],[122.106,134.681],[122.089,134.697],[121.953,134.831],[121.85,134.93],[121.801,134.976],[121.729,135.045],[121.641,135.125],[121.606,135.158],[121.48,135.271],[121.352,135.384],[121.322,135.41],[121.223,135.495],[121.149,135.557],[121.093,135.604],[120.994,135.686],[120.821,135.825],[120.811,135.833],[120.683,135.933],[120.659,135.953],[120.544,136.04],[120.488,136.082],[120.465,136.1],[120.397,136.15],[120.316,136.209],[120.248,136.258],[120.111,136.355],[120.098,136.364],[119.966,136.456],[119.947,136.469],[119.803,136.565],[119.75,136.601],[119.658,136.66],[119.609,136.692],[119.512,136.754],[119.381,136.836],[119.365,136.846],[119.245,136.919],[119.053,137.033],[119.006,137.06],[118.895,137.123],[118.875,137.135],[118.736,137.212],[118.688,137.239],[118.625,137.273],[118.586,137.294],[118.499,137.34],[118.434,137.374],[118.282,137.453],[118.238,137.475],[118.128,137.529],[118.117,137.535],[117.968,137.607],[117.845,137.665],[117.807,137.683],[117.731,137.718],[117.481,137.829],[117.446,137.844],[117.338,137.89],[117.301,137.906],[117.12,137.98],[117.043,138.011],[116.941,138.051],[116.938,138.053],[116.755,138.122],[116.741,138.128],[116.635,138.167],[116.591,138.183],[116.54,138.201],[116.425,138.241],[116.259,138.298],[116.222,138.31],[116.135,138.339],[116.093,138.353],[115.909,138.411],[115.806,138.442],[115.726,138.466],[115.538,138.519],[115.386,138.561],[115.351,138.57],[115.313,138.581],[114.98,138.664],[114.962,138.668],[114.897,138.683],[114.794,138.707],[114.688,138.73],[114.607,138.748],[114.536,138.763],[114.478,138.775],[114.42,138.786],[114.231,138.822],[114.107,138.845],[114.057,138.854],[114.043,138.856],[113.854,138.887],[113.676,138.915],[113.665,138.916],[113.634,138.921],[113.475,138.943],[113.286,138.967],[113.243,138.972],[113.21,138.975],[113.096,138.988],[112.892,139.008],[112.808,139.016],[112.783,139.018],[112.689,139.026],[112.57,139.035],[112.485,139.041],[112.373,139.048],[112.356,139.049],[112.281,139.053],[112.086,139.062],[111.937,139.067],[111.928,139.067],[111.89,139.068],[111.695,139.072],[111.5,139.073],[95.4999,139.073],[95.3635,139.069],[95.3039,139.064],[95.2641,139.059],[95.2276,139.055],[95.1097,139.035],[95.0886,139.03],[95.0264,139.016],[94.9516,138.997],[94.9193,138.987],[94.832,138.958],[94.7922,138.944],[94.7345,138.921],[94.715,138.913],[94.5996,138.859],[94.567,138.842],[94.5571,138.837],[94.4878,138.798],[94.3888,138.736],[94.377,138.728],[94.3561,138.714],[94.271,138.651],[94.2311,138.619],[94.1794,138.575],[94.1639,138.562],[94.0925,138.494],[94.0857,138.487],[94.007,138.404],[93.9942,138.39],[93.961,138.351],[93.9523,138.341],[93.9482,138.336],[93.9401,138.326],[93.9347,138.319],[93.918,138.298],[93.8981,138.271],[93.8752,138.24],[93.86,138.218],[93.8495,138.203],[93.8349,138.181],[93.8146,138.15],[93.8079,138.14],[93.7794,138.093],[93.7499,138.042],[93.7361,138.016],[93.72,137.986],[93.6942,137.933],[93.69,137.924],[93.6687,137.877],[93.6604,137.858],[93.6521,137.839],[93.6419,137.813],[93.6317,137.787],[93.6173,137.748],[93.6047,137.712],[93.595,137.683],[93.586,137.654],[93.575,137.616],[93.5574,137.548],[93.5441,137.491],[93.5383,137.463],[93.5316,137.428],[93.5212,137.365],[93.5119,137.292],[93.5095,137.269],[93.5052,137.219],[93.5025,137.174],[93.5012,137.146],[93.4999,137.073],[93.4999,128.573]]
M73 P0 R61
;TYPE:Custom
START_PRINT NOZZLE_TEMP=210  BED_TEMP=60 

G90
G21
M83 ; use relative distances for extrusion
; filament start gcode
M106 S0
;LAYER_CHANGE
;Z:0.25
;HEIGHT:0.25
;BEFORE_LAYER_CHANGE
;0.25
G92 E0

G1 E-.4 F1800
;AFTER_LAYER_CHANGE
;0.25
;_SET_FAN_SPEED_CHANGING_LAYER
SET_VELOCITY_LIMIT ACCEL=500 ACCEL_TO_DECEL=250
SET_VELOCITY_LIMIT SQUARE_CORNER_VELOCITY=8
; printing object Bed strain relief.stl id:0 copy 0
EXCLUDE_OBJECT_START NAME=Bed_strain_relief.stl_id_0_copy_0
G1 Z.4 F21000
G1 X129.081 Y97.653
G1 Z.4
G1 Z.25
G1 E.4 F1800
;TYPE:Support
;WIDTH:0.48
G1 X121.652 Y97.653 E.32264
G1 X121.194 Y96.884 E.03886
G1 X120.54 Y95.855 E.05295
G1 X119.49 Y94.337 E.08017
G1 X119.49 Y89.082 E.22821
G1 X115.145 Y89.082 E.18869
G1 X114.389 Y88.066 E.05499
G1 X113.776 Y87.169 E.04717
G1 X113.776 Y86.225 E.04102
G1 X113.18 Y86.225 E.02585
G1 X112.85 Y85.665 E.02824
G1 X112.289 Y84.642 E.05066
G1 X111.782 Y83.627 E.04927
G1 X110.931 Y81.722 E.09062
G1 X110.712 Y81.403 E.01677
G1 X110.48 Y81.155 E.01477
G1 X110.206 Y80.935 E.01526
G1 X109.906 Y80.759 E.01508
G1 X109.606 Y80.635 E.01409
G1 X109.197 Y80.536 E.01827
G1 X108.653 Y80.509 E.02367
G1 X108.062 Y80.509 E.02568
G1 X108.062 Y76.634 E.16831
G1 X129.081 Y76.634 E.91282
G1 X129.081 Y97.589 E.91004
G1 X121.872 Y97.269 F21000
G1 F1800
G1 X120.862 Y95.645 E.08306
G1 X119.874 Y94.212 E.07562
G1 X119.874 Y88.698 E.23945
G1 X115.333 Y88.698 E.19717
G1 X114.701 Y87.844 E.04616
G1 X114.159 Y87.053 E.04164
G1 X114.159 Y85.841 E.05263
G1 X113.398 Y85.841 E.03305
G1 X112.905 Y84.979 E.04315
G1 X112.365 Y83.948 E.05054
G1 X111.888 Y82.942 E.04833
G1 X111.421 Y81.852 E.05151
G1 X111.269 Y81.539 E.0151
G1 X111.004 Y81.153 E.02033
G1 X110.733 Y80.866 E.01715
G1 X110.415 Y80.613 E.01766
G1 X110.066 Y80.41 E.01753
G1 X109.739 Y80.275 E.01535
G1 X109.243 Y80.155 E.02215
G1 X108.445 Y80.126 E.03468
G1 X108.445 Y77.017 E.13498
G1 X128.697 Y77.017 E.87949
G1 X128.697 Y97.269 E.87949
G1 X121.872 Y97.269 E.29639
G1 X122.142 Y96.796 F21000
G1 F1800
G1 X121.259 Y95.387 E.0722
G1 X120.347 Y94.061 E.06989
G1 X120.347 Y88.224 E.25345
G1 X115.569 Y88.224 E.2075
G1 X115.088 Y87.569 E.03532
G1 X114.633 Y86.909 E.0348
G1 X114.633 Y85.367 E.06695
G1 X113.669 Y85.367 E.04185
G1 X113.32 Y84.751 E.03078
G1 X112.789 Y83.736 E.04973
G1 X112.32 Y82.748 E.04749
G1 X111.855 Y81.662 E.05131
G1 X111.686 Y81.314 E.0168
G1 X111.428 Y80.925 E.02028
G1 X111.046 Y80.51 E.02452
G1 X110.758 Y80.275 E.01609
G1 X110.359 Y80.027 E.02044
G1 X109.797 Y79.796 E.02638
G1 X109.412 Y79.702 E.0172
G1 X108.919 Y79.653 E.02152
G1 X108.919 Y77.491 E.09391
G1 X128.223 Y77.491 E.83835
G1 X128.223 Y96.796 E.83835
G1 X122.142 Y96.796 E.26412
G1 X122.409 Y96.322 F21000
G1 F1800
G1 X121.648 Y95.116 E.06191
G1 X120.821 Y93.909 E.06355
G1 X120.821 Y87.751 E.26745
G1 X115.805 Y87.751 E.21785
G1 X115.107 Y86.765 E.05244
G1 X115.107 Y84.894 E.08127
G1 X113.943 Y84.894 E.05053
G1 X113.468 Y84.025 E.043
G1 X112.985 Y83.056 E.04704
G1 X112.29 Y81.472 E.07509
G1 X112.103 Y81.089 E.0185
G1 X111.724 Y80.537 E.0291
G1 X111.358 Y80.153 E.02302
G1 X111.045 Y79.898 E.01757
G1 X110.587 Y79.612 E.02343
G1 X110.067 Y79.386 E.02462
G1 X109.393 Y79.21 E.03027
G1 X109.393 Y77.965 E.05409
G1 X127.75 Y77.965 E.7972
G1 X127.75 Y96.322 E.7972
G1 X122.409 Y96.322 E.23193
G1 X122.675 Y95.848 F21000
G1 F1800
G1 X122.043 Y94.855 E.05112
G1 X121.295 Y93.758 E.05767
G1 X121.295 Y87.277 E.28145
G1 X116.046 Y87.277 E.22793
G1 X115.581 Y86.62 E.03498
G1 X115.581 Y84.42 E.09553
G1 X114.221 Y84.42 E.05906
M73 P0 R60
G1 X113.888 Y83.805 E.03035
G1 X113.412 Y82.852 E.04625
G1 X112.724 Y81.283 E.07444
G1 X112.521 Y80.864 E.0202
G1 X112.19 Y80.361 E.02615
G1 X111.795 Y79.915 E.02587
G1 X111.671 Y79.797 E.00744
G1 X111.189 Y79.42 E.02655
G1 X110.657 Y79.117 E.0266
G1 X110.231 Y78.941 E.02001
G1 X109.866 Y78.838 E.01647
G1 X109.866 Y78.439 E.01733
G1 X127.276 Y78.439 E.75606
G1 X127.276 Y95.848 E.75606
G1 X122.675 Y95.848 E.19982
G1 X122.938 Y95.374 F21000
G1 F1800
G1 X122.438 Y94.593 E.04027
G1 X121.768 Y93.606 E.0518
G1 X121.768 Y86.803 E.29545
G1 X116.286 Y86.803 E.23809
G1 X116.054 Y86.471 E.0176
G1 X116.054 Y83.946 E.10964
G1 X114.501 Y83.946 E.06746
G1 X113.84 Y82.649 E.06321
G1 X113.127 Y81.026 E.07699
G1 X112.834 Y80.462 E.02761
G1 X112.571 Y80.079 E.02018
G1 X112.133 Y79.581 E.02879
G1 X111.336 Y78.912 E.04519
G1 X126.802 Y78.912 E.67168
G1 X126.802 Y95.374 E.71491
G1 X122.938 Y95.374 E.16783
G1 X123.201 Y94.901 F21000
G1 F1800
G1 X122.242 Y93.459 E.07518
G1 X122.242 Y86.329 E.30962
G1 X116.528 Y86.329 E.24815
G1 X116.528 Y83.472 E.12408
G1 X114.782 Y83.472 E.07583
G1 X114.268 Y82.446 E.04985
G1 X113.592 Y80.903 E.07315
G1 X113.355 Y80.414 E.0236
G1 X112.952 Y79.797 E.03203
G1 X112.624 Y79.386 E.02281
G1 X126.329 Y79.386 E.59515
G1 X126.329 Y94.901 E.67377
G1 X123.201 Y94.901 E.13584
G1 X123.459 Y94.427 F21000
G1 F1800
G1 X122.716 Y93.312 E.05819
G1 X122.716 Y85.856 E.3238
G1 X117.002 Y85.856 E.24815
G1 X117.002 Y82.999 E.12408
G1 X115.072 Y82.999 E.08381
G1 X114.481 Y81.778 E.05889
G1 X113.986 Y80.624 E.05454
G1 X113.772 Y80.189 E.02104
G1 X113.579 Y79.86 E.01659
G1 X125.855 Y79.86 E.53311
G1 X125.855 Y94.427 E.63262
G1 X123.459 Y94.427 E.10406
G1 X123.717 Y93.953 F21000
G1 F1800
G1 X123.19 Y93.164 E.0412
G1 X123.19 Y85.382 E.33797
G1 X117.475 Y85.382 E.24815
G1 X117.475 Y82.525 E.12408
G1 X115.361 Y82.525 E.09185
G1 X114.913 Y81.584 E.04523
G1 X114.38 Y80.333 E.05905
G1 X125.381 Y80.333 E.47776
G1 X125.381 Y93.953 E.59148
G1 X123.717 Y93.953 E.07229
G1 X123.973 Y93.48 F21000
G1 F1800
G1 X123.663 Y93.017 E.02418
G1 X123.663 Y84.908 E.35213
G1 X117.949 Y84.908 E.24815
G1 X117.949 Y82.051 E.12408
G1 X115.657 Y82.051 E.09955
G1 X115.092 Y80.807 E.05933
G1 X124.907 Y80.807 E.42625
G1 X124.907 Y93.48 E.55033
G1 X123.973 Y93.48 E.04059
G1 X124.434 Y84.435 F21000
G1 F1800
G1 X118.423 Y84.435 E.26103
G1 X118.423 Y81.281 E.13696
G1 X124.434 Y81.281 E.26103
G1 X124.434 Y84.435 E.13696
G1 X123.96 Y83.961 F21000
G1 F1800
G1 X118.897 Y83.961 E.21989
G1 X118.897 Y81.755 E.09581
G1 X123.96 Y81.755 E.21989
G1 X123.96 Y83.961 E.09581
G1 X123.486 Y83.487 F21000
G1 F1800
G1 X119.37 Y83.487 E.17874
G1 X119.37 Y82.228 E.05467
G1 X123.486 Y82.228 E.17874
G1 X123.486 Y83.487 E.05467
G1 E-.28
;WIPE_START
G1 X123.486 Y82.487 E-.12
;WIPE_END
G1 Z.65 F21000
G1 X113.728 Y89.249 Z.65
G1 X113.362 Y89.515
G1 Z.25
G1 E.4 F1800
;TYPE:Inner wall
;WIDTH:0.479999
G1 X113.38 Y89.541 E.00138
G1 X114.124 Y90.505 E.05289
G1 X114.902 Y91.437 E.05272
G1 X116.457 Y93.192 E.10185
G1 X117.169 Y94.061 E.04875
G1 X118.178 Y95.394 E.07264
G1 X119.135 Y96.78 E.07312
G1 X119.76 Y97.766 E.0507
G1 X120.327 Y98.723 E.0483
G1 X120.865 Y99.696 E.04828
G1 X121.376 Y100.691 E.04859
G1 X122.115 Y102.276 E.07598
G1 X122.543 Y103.296 E.04804
G1 X122.954 Y104.364 E.04969
G1 X123.323 Y105.417 E.04845
G1 X123.817 Y107.014 E.07257
G1 X124.117 Y108.134 E.05035
G1 X124.373 Y109.223 E.04858
G1 X124.601 Y110.35 E.04995
G1 X124.791 Y111.458 E.04884
G1 X125.011 Y113.107 E.07223
G1 X125.122 Y114.269 E.05066
G1 X125.191 Y115.371 E.04797
G1 X125.232 Y117.124 E.07616
G1 X125.234 Y124.365 E.31443
G1 X125.184 Y125.251 E.03853
G1 X125.046 Y126.34 E.04767
G1 X124.821 Y127.417 E.04779
G1 X124.523 Y128.437 E.04618
G1 X124.345 Y128.934 E.02291
G1 X123.941 Y129.893 E.04518
G1 X123.715 Y130.353 E.02225
