; HEADER_BLOCK_START
; generated by OrcaSlicer 1.9.0 on 2024-01-20 at 23:02:44
; total layer number: 10
; filament_density: 1.24
; filament_diameter: 1.75
; max_z_height: 2.00
; HEADER_BLOCK_END

; THUMBNAIL_BLOCK_START

;
; THUMBNAIL_BLOCK_END

; external perimeters extrusion width = 0.40mm
; perimeters extrusion width = 0.45mm
; infill extrusion width = 0.45mm
; solid infill extrusion width = 0.40mm
; top infill extrusion width = 0.40mm
; first layer extrusion width = 0.50mm

; EXECUTABLE_BLOCK_START
EXCLUDE_OBJECT_DEFINE NAME=bed_level_test_print.stl_id_0_copy_0 CENTER=110,110 POLYGON=[[35,35],[185,35],[185,185],[35,185],[35,35]]
M73 P0 R6
;TYPE:Custom
G90 ; use absolute coordinates
M83 ; extruder relative mode
M140 S60 ; set final bed temp
M104 S150 ; set temporary nozzle temp to prevent oozing during homing
G4 S10 ; allow partial nozzle warmup
G28 ;home 
G29 ;mesh leveling
G1 Z50 F240
G1 X2 Y10 F3000
M104 S220 ; set final nozzle temp
M190 S60 ; wait for bed temp to stabilize
M109 S220 ; wait for nozzle temp to stabilize
M73 P3 R6
G1 Z0.28 F240
G92 E0
G1 Y140 E10 F1500 ; prime the nozzle
M73 P6 R6
G1 X2.3 F5000
G92 E0
;G1 Y10 E10 F1200 ; prime the nozzle
;G92 E0
G90
G21
M83 ; use relative distances for extrusion
; filament start gcode
M106 S0
;LAYER_CHANGE
;Z:0.2
;HEIGHT:0.2
;BEFORE_LAYER_CHANGE
;0.2
G92 E0

M73 P7 R6
G1 E-.8 F1800
;AFTER_LAYER_CHANGE
;0.2
;_SET_FAN_SPEED_CHANGING_LAYER
SET_VELOCITY_LIMIT ACCEL=500 ACCEL_TO_DECEL=250
; printing object bed_level_test_print.stl id:0 copy 0
EXCLUDE_OBJECT_START NAME=bed_level_test_print.stl_id_0_copy_0
G1 Z.4 F21000
G1 X184.73 Y35.384
G1 Z.4
G1 Z.2
G1 E.8 F1800
;TYPE:Outer wall
;WIDTH:0.53921
G1 F3000
G1 X184.75 Y35.479 E.00391
;WIDTH:0.499998
G1 X184.75 Y184.521 E5.55126
;WIDTH:0.53921
G1 X184.73 Y184.616 E.00391
;WIDTH:0.578422
M73 P8 R6
G1 X184.711 Y184.711 E.00422
G1 X184.616 Y184.73 E.00422
;WIDTH:0.539211
G1 X184.521 Y184.75 E.00391
;WIDTH:0.5
G1 X35.479 Y184.75 E5.55129
;WIDTH:0.53921
G1 X35.384 Y184.73 E.00391
;WIDTH:0.57842
M73 P9 R6
G1 X35.289 Y184.711 E.00422
G1 X35.27 Y184.616 E.00422
;WIDTH:0.53921
G1 X35.25 Y184.521 E.00391
;WIDTH:0.5
G1 X35.25 Y35.479 E5.55129
;WIDTH:0.53921
G1 X35.27 Y35.384 E.00391
;WIDTH:0.57842
G1 X35.289 Y35.289 E.00422
G1 X35.384 Y35.27 E.00422
;WIDTH:0.53921
G1 X35.479 Y35.25 E.00391
;WIDTH:0.5
G1 X184.521 Y35.25 E5.55129
;WIDTH:0.539211
G1 X184.616 Y35.27 E.00391
;WIDTH:0.578422
M73 P10 R6
G1 X184.711 Y35.289 E.00422
G1 X184.722 Y35.345 E.00247
G1 E-.56 F1800
;WIPE_START
G1 F3000
G1 X184.75 Y35.479 E-.0328
G1 X184.75 Y36.342 E-.2072
;WIPE_END
G1 Z.6 F21000
G1 X174.616 Y174.73 Z.6
G1 Z.2
M73 P11 R6
G1 E.8 F1800
;WIDTH:0.539223
G1 F3000
G1 X174.521 Y174.75 E.00391
;WIDTH:0.500016
G1 X45.479 Y174.75 E4.80653
;WIDTH:0.539223
G1 X45.384 Y174.73 E.00391
;WIDTH:0.57843
G1 X45.289 Y174.711 E.00422
G1 X45.27 Y174.616 E.00422
;WIDTH:0.539215
G1 X45.25 Y174.521 E.00391
;WIDTH:0.5
G1 X45.25 Y45.479 E4.80636
;WIDTH:0.53921
G1 X45.27 Y45.384 E.00391
;WIDTH:0.57842
M73 P12 R6
G1 X45.289 Y45.289 E.00422
G1 X45.384 Y45.27 E.00422
;WIDTH:0.53921
G1 X45.479 Y45.25 E.00391
;WIDTH:0.5
G1 X174.521 Y45.25 E4.80636
;WIDTH:0.539211
G1 X174.616 Y45.27 E.00391
;WIDTH:0.578422
M73 P12 R5
G1 X174.711 Y45.289 E.00422
G1 X174.73 Y45.384 E.00422
;WIDTH:0.53921
G1 X174.75 Y45.479 E.00391
;WIDTH:0.499998
G1 X174.75 Y174.521 E4.80634
;WIDTH:0.539214
G1 X174.73 Y174.616 E.00391
;WIDTH:0.57843
M73 P13 R5
G1 X174.711 Y174.711 E.00422
G1 X174.655 Y174.722 E.00247
G1 E-.56 F1800
;WIPE_START
G1 F3000
G1 X174.521 Y174.75 E-.0328
G1 X173.658 Y174.75 E-.2072
;WIPE_END
G1 Z.6 F21000
G1 X55.479 Y164.75 Z.6
G1 Z.2
G1 E.8 F1800
;WIDTH:0.53921
G1 F3000
G1 X55.384 Y164.73 E.00391
;WIDTH:0.57842
G1 X55.289 Y164.711 E.00422
G1 X55.27 Y164.616 E.00422
;WIDTH:0.53921
G1 X55.25 Y164.521 E.00391
;WIDTH:0.5
G1 X55.25 Y55.479 E4.06144
;WIDTH:0.53921
G1 X55.27 Y55.384 E.00391
;WIDTH:0.57842
M73 P14 R5
G1 X55.289 Y55.289 E.00422
G1 X55.384 Y55.27 E.00422
;WIDTH:0.53921
G1 X55.479 Y55.25 E.00391
;WIDTH:0.5
G1 X164.521 Y55.25 E4.06144
;WIDTH:0.539211
G1 X164.616 Y55.27 E.00391
;WIDTH:0.578422
G1 X164.711 Y55.289 E.00422
G1 X164.73 Y55.384 E.00422
;WIDTH:0.53921
G1 X164.75 Y55.479 E.00391
;WIDTH:0.499998
G1 X164.75 Y164.521 E4.06142
;WIDTH:0.53921
G1 X164.73 Y164.616 E.00391
;WIDTH:0.578422
M73 P15 R5
G1 X164.711 Y164.711 E.00422
G1 X164.616 Y164.73 E.00422
;WIDTH:0.539211
G1 X164.521 Y164.75 E.00391
;WIDTH:0.5
G1 X55.519 Y164.75 E4.05995
G1 E-.56 F1800
;WIPE_START
M73 P16 R5
G1 F3000
G1 X55.384 Y164.73 E-.03266
G1 X55.289 Y164.711 E-.0232
G1 X55.27 Y164.616 E-.0232
G1 X55.25 Y164.521 E-.0232
G1 X55.25 Y163.948 E-.13774
;WIPE_END
G1 Z.6 F21000
G1 X154.616 Y154.73 Z.6
G1 Z.2
G1 E.8 F1800
;WIDTH:0.539219
G1 F3000
G1 X154.521 Y154.75 E.00391
;WIDTH:0.500008
G1 X65.479 Y154.75 E3.31657
;WIDTH:0.539217
G1 X65.384 Y154.73 E.00391
;WIDTH:0.578426
G1 X65.289 Y154.711 E.00422
G1 X65.27 Y154.616 E.00422
;WIDTH:0.539213
G1 X65.25 Y154.521 E.00391
;WIDTH:0.5
G1 X65.25 Y65.479 E3.31651
;WIDTH:0.53921
G1 X65.27 Y65.384 E.00391
;WIDTH:0.57842
M73 P17 R5
G1 X65.289 Y65.289 E.00422
G1 X65.384 Y65.27 E.00422
;WIDTH:0.53921
G1 X65.479 Y65.25 E.00391
;WIDTH:0.5
G1 X154.521 Y65.25 E3.31651
;WIDTH:0.539213
G1 X154.616 Y65.27 E.00391
;WIDTH:0.578426
G1 X154.711 Y65.289 E.00422
G1 X154.73 Y65.384 E.00422
;WIDTH:0.539216
G1 X154.75 Y65.479 E.00391
;WIDTH:0.500006
G1 X154.75 Y154.521 E3.31656
;WIDTH:0.539218
G1 X154.73 Y154.616 E.00391
;WIDTH:0.57843
M73 P18 R5
G1 X154.711 Y154.711 E.00422
G1 X154.655 Y154.722 E.00247
G1 E-.56 F1800
;WIPE_START
G1 F3000
G1 X154.521 Y154.75 E-.0328
G1 X153.658 Y154.75 E-.2072
;WIPE_END
G1 Z.6 F21000
G1 X144.75 Y144.521 Z.6
G1 Z.2
G1 E.8 F1800
;WIDTH:0.539201
G1 F3000
G1 X144.73 Y144.616 E.00391
;WIDTH:0.578412
G1 X144.711 Y144.711 E.00422
G1 X144.616 Y144.73 E.00422
;WIDTH:0.539202
G1 X144.521 Y144.75 E.00391
;WIDTH:0.499992
G1 X75.479 Y144.75 E2.57154
;WIDTH:0.539201
G1 X75.384 Y144.73 E.00391
;WIDTH:0.57841
G1 X75.289 Y144.711 E.00422
G1 X75.27 Y144.616 E.00422
;WIDTH:0.539201
G1 X75.25 Y144.521 E.00391
;WIDTH:0.499992
G1 X75.25 Y75.479 E2.57154
;WIDTH:0.539204
G1 X75.27 Y75.384 E.00391
;WIDTH:0.578416
G1 X75.289 Y75.289 E.00422
G1 X75.384 Y75.27 E.00422
;WIDTH:0.539208
G1 X75.479 Y75.25 E.00391
;WIDTH:0.5
G1 X144.521 Y75.25 E2.57159
;WIDTH:0.539208
G1 X144.616 Y75.27 E.00391
;WIDTH:0.578416
M73 P19 R5
G1 X144.711 Y75.289 E.00422
G1 X144.73 Y75.384 E.00422
;WIDTH:0.539203
G1 X144.75 Y75.479 E.00391
;WIDTH:0.49999
G1 X144.75 Y144.481 E2.57004
G1 E-.56 F1800
;WIPE_START
G1 F3000
G1 X144.73 Y144.616 E-.03266
G1 X144.711 Y144.711 E-.0232
G1 X144.616 Y144.73 E-.0232
G1 X144.521 Y144.75 E-.0232
G1 X143.948 Y144.75 E-.13774
;WIPE_END
G1 Z.6 F21000
G1 X134.521 Y134.75 Z.6
G1 Z.2
G1 E.8 F1800
;WIDTH:0.5
G1 F3000
G1 X85.479 Y134.75 E1.82666
;WIDTH:0.53921
G1 X85.384 Y134.73 E.00391
;WIDTH:0.57842
M73 P20 R5
G1 X85.289 Y134.711 E.00422
G1 X85.27 Y134.616 E.00422
;WIDTH:0.53921
G1 X85.25 Y134.521 E.00391
;WIDTH:0.5
G1 X85.25 Y85.479 E1.82666
;WIDTH:0.539208
G1 X85.27 Y85.384 E.00391
;WIDTH:0.578416
G1 X85.289 Y85.289 E.00422
G1 X85.384 Y85.27 E.00422
;WIDTH:0.539206
G1 X85.479 Y85.25 E.00391
;WIDTH:0.499996
G1 X134.521 Y85.25 E1.82665
;WIDTH:0.539208
G1 X134.616 Y85.27 E.00391
;WIDTH:0.57842
G1 X134.711 Y85.289 E.00422
G1 X134.73 Y85.384 E.00422
;WIDTH:0.539209
G1 X134.75 Y85.479 E.00391
;WIDTH:0.499998
G1 X134.75 Y134.521 E1.82666
;WIDTH:0.53921
G1 X134.73 Y134.616 E.00391
;WIDTH:0.578422
G1 X134.711 Y134.711 E.00422
G1 X134.616 Y134.73 E.00422
;WIDTH:0.539211
G1 X134.561 Y134.742 E.00229
G1 E-.56 F1800
;WIPE_START
G1 F3000
G1 X133.561 Y134.742 E-.24
;WIPE_END
G1 Z.6 F21000
G1 X124.521 Y124.75 Z.6
G1 Z.2
G1 E.8 F1800
;WIDTH:0.5
G1 F3000
G1 X95.479 Y124.75 E1.08174
;WIDTH:0.53921
G1 X95.384 Y124.73 E.00391
;WIDTH:0.57842
M73 P21 R5
G1 X95.289 Y124.711 E.00422
G1 X95.27 Y124.616 E.00422
;WIDTH:0.53921
G1 X95.25 Y124.521 E.00391
;WIDTH:0.5
G1 X95.25 Y95.479 E1.08174
;WIDTH:0.53921
G1 X95.27 Y95.384 E.00391
;WIDTH:0.57842
G1 X95.289 Y95.289 E.00422
G1 X95.384 Y95.27 E.00422
;WIDTH:0.53921
G1 X95.479 Y95.25 E.00391
;WIDTH:0.5
G1 X124.521 Y95.25 E1.08174
;WIDTH:0.539211
G1 X124.616 Y95.27 E.00391
;WIDTH:0.578422
G1 X124.711 Y95.289 E.00422
G1 X124.73 Y95.384 E.00422
;WIDTH:0.53921
G1 X124.75 Y95.479 E.00391
;WIDTH:0.499998
G1 X124.75 Y124.521 E1.08173
;WIDTH:0.53921
G1 X124.73 Y124.616 E.00391
;WIDTH:0.578422
G1 X124.711 Y124.711 E.00422
G1 X124.616 Y124.73 E.00422
;WIDTH:0.539211
G1 X124.561 Y124.742 E.00229
; stop printing object bed_level_test_print.stl id:0 copy 0
M106 S255
;LAYER_CHANGE
;Z:0.4
;HEIGHT:0.2
;BEFORE_LAYER_CHANGE
;0.4
G92 E0

G1 E-.56 F1800
;WIPE_START
G1 F3000
G1 X123.561 Y124.742 E-.24
;WIPE_END
EXCLUDE_OBJECT_END NAME=bed_level_test_print.stl_id_0_copy_0
;AFTER_LAYER_CHANGE
;0.4
;_SET_FAN_SPEED_CHANGING_LAYER
M140 S60 ; set bed temperature
; printing object bed_level_test_print.stl id:0 copy 0
EXCLUDE_OBJECT_START NAME=bed_level_test_print.stl_id_0_copy_0
G1 Z.6 F21000
G1 X184.73 Y35.384 Z.6
G1 Z.4
G1 E.8 F1800
;WIDTH:0.53921
G1 F7200
G1 X184.75 Y35.479 E.00391
;WIDTH:0.499998
G1 X184.75 Y184.521 E5.55126
;WIDTH:0.53921
G1 X184.73 Y184.616 E.00391
;WIDTH:0.578422
M73 P22 R5
G1 F6722.664
G1 X184.711 Y184.711 E.00422
G1 X184.616 Y184.73 E.00422
;WIDTH:0.539211
G1 F7200
G1 X184.521 Y184.75 E.00391
;WIDTH:0.5
G1 X35.479 Y184.75 E5.55129
;WIDTH:0.53921
G1 X35.384 Y184.73 E.00391
;WIDTH:0.57842
G1 F6722.689
G1 X35.289 Y184.711 E.00422
G1 X35.27 Y184.616 E.00422
;WIDTH:0.53921
G1 F7200
G1 X35.25 Y184.521 E.00391
;WIDTH:0.5
G1 X35.25 Y35.479 E5.55129
;WIDTH:0.53921
G1 X35.27 Y35.384 E.00391
;WIDTH:0.57842
G1 F6722.689
G1 X35.289 Y35.289 E.00422
G1 X35.384 Y35.27 E.00422
;WIDTH:0.53921
G1 F7200
G1 X35.479 Y35.25 E.00391
;WIDTH:0.5
G1 X184.521 Y35.25 E5.55129
;WIDTH:0.539211
G1 X184.616 Y35.27 E.00391
;WIDTH:0.578422
M73 P23 R5
G1 F6722.664
G1 X184.711 Y35.289 E.00422
G1 X184.722 Y35.345 E.00247
G1 E-.56 F1800
;WIPE_START
G1 F6722.664
G1 X184.75 Y35.479 E-.0328
G1 X184.75 Y36.342 E-.2072
;WIPE_END
G1 Z.8 F21000
G1 X174.616 Y174.73 Z.8
G1 Z.4
G1 E.8 F1800
;WIDTH:0.539223
G1 F7200
G1 X174.521 Y174.75 E.00391
;WIDTH:0.500016
G1 X45.479 Y174.75 E4.80653
;WIDTH:0.539223
G1 X45.384 Y174.73 E.00391
;WIDTH:0.57843
G1 F6722.564
G1 X45.289 Y174.711 E.00422
G1 X45.27 Y174.616 E.00422
;WIDTH:0.539215
G1 F7200
G1 X45.25 Y174.521 E.00391
;WIDTH:0.5
G1 X45.25 Y45.479 E4.80636
;WIDTH:0.53921
G1 X45.27 Y45.384 E.00391
;WIDTH:0.57842
M73 P24 R5
G1 F6722.689
G1 X45.289 Y45.289 E.00422
G1 X45.384 Y45.27 E.00422
;WIDTH:0.53921
G1 F7200
G1 X45.479 Y45.25 E.00391
;WIDTH:0.5
G1 X174.521 Y45.25 E4.80636
;WIDTH:0.539211
G1 X174.616 Y45.27 E.00391
;WIDTH:0.578422
G1 F6722.664
G1 X174.711 Y45.289 E.00422
G1 X174.73 Y45.384 E.00422
;WIDTH:0.53921
G1 F7200
G1 X174.75 Y45.479 E.00391
;WIDTH:0.499998
G1 X174.75 Y174.521 E4.80634
;WIDTH:0.539214
G1 X174.73 Y174.616 E.00391
;WIDTH:0.57843
G1 F6722.564
G1 X174.711 Y174.711 E.00422
G1 X174.655 Y174.722 E.00247
G1 E-.56 F1800
;WIPE_START
G1 F6722.564
G1 X174.521 Y174.75 E-.0328
G1 X173.658 Y174.75 E-.2072
;WIPE_END
G1 Z.8 F21000
G1 X55.479 Y164.75 Z.8
G1 Z.4
M73 P25 R5
G1 E.8 F1800
;WIDTH:0.53921
G1 F7200
G1 X55.384 Y164.73 E.00391
;WIDTH:0.57842
G1 F6722.689
G1 X55.289 Y164.711 E.00422
G1 X55.27 Y164.616 E.00422
;WIDTH:0.53921
G1 F7200
G1 X55.25 Y164.521 E.00391
;WIDTH:0.5
G1 X55.25 Y55.479 E4.06144
;WIDTH:0.53921
G1 X55.27 Y55.384 E.00391
;WIDTH:0.57842
G1 F6722.689
G1 X55.289 Y55.289 E.00422
G1 X55.384 Y55.27 E.00422
;WIDTH:0.53921
G1 F7200
G1 X55.479 Y55.25 E.00391
;WIDTH:0.5
G1 X164.521 Y55.25 E4.06144
;WIDTH:0.539211
G1 X164.616 Y55.27 E.00391
;WIDTH:0.578422
G1 F6722.664
G1 X164.711 Y55.289 E.00422
G1 X164.73 Y55.384 E.00422
;WIDTH:0.53921
G1 F7200
G1 X164.75 Y55.479 E.00391
;WIDTH:0.499998
G1 X164.75 Y164.521 E4.06142
;WIDTH:0.53921
G1 X164.73 Y164.616 E.00391
;WIDTH:0.578422
M73 P26 R5
G1 F6722.664
G1 X164.711 Y164.711 E.00422
G1 X164.616 Y164.73 E.00422
;WIDTH:0.539211
G1 F7200
G1 X164.521 Y164.75 E.00391
;WIDTH:0.5
G1 X55.519 Y164.75 E4.05995
G1 E-.56 F1800
;WIPE_START
G1 F7200
G1 X55.384 Y164.73 E-.03266
G1 X55.289 Y164.711 E-.0232
G1 X55.27 Y164.616 E-.0232
G1 X55.25 Y164.521 E-.0232
G1 X55.25 Y163.948 E-.13774
;WIPE_END
G1 Z.8 F21000
G1 X154.616 Y154.73 Z.8
G1 Z.4
G1 E.8 F1800
;WIDTH:0.539219
G1 F7200
G1 X154.521 Y154.75 E.00391
;WIDTH:0.500008
G1 X65.479 Y154.75 E3.31657
;WIDTH:0.539217
G1 X65.384 Y154.73 E.00391
;WIDTH:0.578426
G1 F6722.614
G1 X65.289 Y154.711 E.00422
G1 X65.27 Y154.616 E.00422
;WIDTH:0.539213
G1 F7200
G1 X65.25 Y154.521 E.00391
;WIDTH:0.5
G1 X65.25 Y65.479 E3.31651
;WIDTH:0.53921
G1 X65.27 Y65.384 E.00391
;WIDTH:0.57842
M73 P27 R5
G1 F6722.689
G1 X65.289 Y65.289 E.00422
G1 X65.384 Y65.27 E.00422
;WIDTH:0.53921
G1 F7200
G1 X65.479 Y65.25 E.00391
;WIDTH:0.5
G1 X154.521 Y65.25 E3.31651
;WIDTH:0.539213
G1 X154.616 Y65.27 E.00391
;WIDTH:0.578426
M73 P27 R4
G1 F6722.614
G1 X154.711 Y65.289 E.00422
G1 X154.73 Y65.384 E.00422
;WIDTH:0.539216
G1 F7200
G1 X154.75 Y65.479 E.00391
;WIDTH:0.500006
G1 X154.75 Y154.521 E3.31656
;WIDTH:0.539218
G1 X154.73 Y154.616 E.00391
;WIDTH:0.57843
G1 F6722.564
G1 X154.711 Y154.711 E.00422
G1 X154.655 Y154.722 E.00247
G1 E-.56 F1800
;WIPE_START
G1 F6722.564
G1 X154.521 Y154.75 E-.0328
G1 X153.658 Y154.75 E-.2072
;WIPE_END
G1 Z.8 F21000
G1 X144.75 Y144.521 Z.8
G1 Z.4
G1 E.8 F1800
;WIDTH:0.539201
G1 F7200
G1 X144.73 Y144.616 E.00391
;WIDTH:0.578412
G1 F6722.789
G1 X144.711 Y144.711 E.00422
G1 X144.616 Y144.73 E.00422
;WIDTH:0.539202
G1 F7200
G1 X144.521 Y144.75 E.00391
;WIDTH:0.499992
G1 X75.479 Y144.75 E2.57154
;WIDTH:0.539201
G1 X75.384 Y144.73 E.00391
;WIDTH:0.57841
G1 F6722.815
G1 X75.289 Y144.711 E.00422
G1 X75.27 Y144.616 E.00422
;WIDTH:0.539201
G1 F7200
G1 X75.25 Y144.521 E.00391
;WIDTH:0.499992
G1 X75.25 Y75.479 E2.57154
;WIDTH:0.539204
G1 X75.27 Y75.384 E.00391
;WIDTH:0.578416
M73 P28 R4
G1 F6722.739
G1 X75.289 Y75.289 E.00422
G1 X75.384 Y75.27 E.00422
;WIDTH:0.539208
G1 F7200
G1 X75.479 Y75.25 E.00391
;WIDTH:0.5
G1 X144.521 Y75.25 E2.57159
;WIDTH:0.539208
G1 X144.616 Y75.27 E.00391
;WIDTH:0.578416
G1 F6722.739
G1 X144.711 Y75.289 E.00422
G1 X144.73 Y75.384 E.00422
;WIDTH:0.539203
G1 F7200
G1 X144.75 Y75.479 E.00391
;WIDTH:0.49999
G1 X144.75 Y144.481 E2.57004
G1 E-.56 F1800
;WIPE_START
G1 F7200
G1 X144.73 Y144.616 E-.03266
G1 X144.711 Y144.711 E-.0232
G1 X144.616 Y144.73 E-.0232
G1 X144.521 Y144.75 E-.0232
G1 X143.948 Y144.75 E-.13774
;WIPE_END
G1 Z.8 F21000
G1 X134.521 Y134.75 Z.8
G1 Z.4
G1 E.8 F1800
;WIDTH:0.5
G1 F7200
G1 X85.479 Y134.75 E1.82666
;WIDTH:0.53921
G1 X85.384 Y134.73 E.00391
;WIDTH:0.57842
G1 F6722.689
G1 X85.289 Y134.711 E.00422
G1 X85.27 Y134.616 E.00422
;WIDTH:0.53921
G1 F7200
G1 X85.25 Y134.521 E.00391
;WIDTH:0.5
G1 X85.25 Y85.479 E1.82666
;WIDTH:0.539208
G1 X85.27 Y85.384 E.00391
;WIDTH:0.578416
G1 F6722.739
G1 X85.289 Y85.289 E.00422
G1 X85.384 Y85.27 E.00422
;WIDTH:0.539206
G1 F7200
G1 X85.479 Y85.25 E.00391
;WIDTH:0.499996
G1 X134.521 Y85.25 E1.82665
;WIDTH:0.539208
G1 X134.616 Y85.27 E.00391
;WIDTH:0.57842
M73 P29 R4
G1 F6722.689
G1 X134.711 Y85.289 E.00422
G1 X134.73 Y85.384 E.00422
;WIDTH:0.539209
G1 F7200
G1 X134.75 Y85.479 E.00391
;WIDTH:0.499998
G1 X134.75 Y134.521 E1.82666
;WIDTH:0.53921
G1 X134.73 Y134.616 E.00391
;WIDTH:0.578422
G1 F6722.664
G1 X134.711 Y134.711 E.00422
G1 X134.616 Y134.73 E.00422
;WIDTH:0.539211
G1 F7200
G1 X134.561 Y134.742 E.00229
G1 E-.56 F1800
;WIPE_START
G1 F7200
G1 X133.561 Y134.742 E-.24
;WIPE_END
G1 Z.8 F21000
G1 X124.521 Y124.75 Z.8
G1 Z.4
G1 E.8 F1800
;WIDTH:0.5
G1 F7200
G1 X95.479 Y124.75 E1.08174
;WIDTH:0.53921
G1 X95.384 Y124.73 E.00391
;WIDTH:0.57842
G1 F6722.689
G1 X95.289 Y124.711 E.00422
G1 X95.27 Y124.616 E.00422
;WIDTH:0.53921
G1 F7200
G1 X95.25 Y124.521 E.00391
;WIDTH:0.5
G1 X95.25 Y95.479 E1.08174
;WIDTH:0.53921
G1 X95.27 Y95.384 E.00391
;WIDTH:0.57842
G1 F6722.689
G1 X95.289 Y95.289 E.00422
G1 X95.384 Y95.27 E.00422
;WIDTH:0.53921
G1 F7200
G1 X95.479 Y95.25 E.00391
;WIDTH:0.5
G1 X124.521 Y95.25 E1.08174
