; HEADER_BLOCK_START
; generated by OrcaSlicer 1.9.1 on 2024-02-23 at 20:27:11
; total layer number: 208
; filament_density: 1.24
; filament_diameter: 1.75
; max_z_height: 32.40
; HEADER_BLOCK_END

; THUMBNAIL_BLOCK_START

;
; THUMBNAIL_BLOCK_END

; external perimeters extrusion width = 0.40mm
; perimeters extrusion width = 0.45mm
; infill extrusion width = 0.45mm
; solid infill extrusion width = 0.40mm
; top infill extrusion width = 0.40mm
; support material extrusion width = 0.40mm
; first layer extrusion width = 0.50mm

; external perimeters extrusion width = 0.40mm
; perimeters extrusion width = 0.45mm
; infill extrusion width = 0.45mm
; solid infill extrusion width = 0.40mm
; top infill extrusion width = 0.40mm
; support material extrusion width = 0.40mm
; first layer extrusion width = 0.50mm

; EXECUTABLE_BLOCK_START
EXCLUDE_OBJECT_DEFINE NAME=Cover_front.stl_id_0_copy_0 CENTER=127.448,110 POLYGON=[[111.248,98.3],[111.257,97.9981],[111.285,97.6973],[111.33,97.3987],[111.393,97.1034],[111.475,96.8125],[111.573,96.527],[111.689,96.2479],[111.821,95.9764],[111.969,95.7133],[112.133,95.4597],[112.312,95.2164],[112.506,94.9844],[112.713,94.7645],[112.933,94.5574],[113.165,94.3641],[113.408,94.1851],[113.661,94.0211],[113.925,93.8727],[114.196,93.7405],[114.475,93.6249],[114.761,93.5264],[115.052,93.4453],[115.347,93.3819],[115.645,93.3365],[115.946,93.3091],[116.248,93.3],[138.648,93.3],[138.95,93.3091],[139.251,93.3365],[139.549,93.3819],[139.845,93.4453],[140.136,93.5264],[140.421,93.6249],[140.7,93.7405],[140.972,93.8727],[141.235,94.0211],[141.488,94.1851],[141.732,94.3641],[141.964,94.5574],[142.184,94.7645],[142.391,94.9844],[142.584,95.2164],[142.763,95.4597],[142.927,95.7133],[143.075,95.9764],[143.208,96.2479],[143.323,96.527],[143.422,96.8125],[143.503,97.1034],[143.566,97.3987],[143.612,97.6973],[143.639,97.9981],[143.648,98.3],[143.648,121.7],[143.639,122.002],[143.612,122.303],[143.566,122.601],[143.503,122.897],[143.422,123.188],[143.323,123.473],[143.208,123.752],[143.075,124.024],[142.927,124.287],[142.763,124.54],[142.584,124.784],[142.391,125.016],[142.184,125.236],[141.964,125.443],[141.732,125.636],[141.488,125.815],[141.235,125.979],[140.972,126.127],[140.7,126.259],[140.421,126.375],[140.136,126.474],[139.845,126.555],[139.549,126.618],[139.251,126.664],[138.95,126.691],[138.648,126.7],[116.248,126.7],[115.946,126.691],[115.645,126.664],[115.347,126.618],[115.052,126.555],[114.761,126.474],[114.475,126.375],[114.196,126.259],[113.925,126.127],[113.661,125.979],[113.408,125.815],[113.165,125.636],[112.933,125.443],[112.713,125.236],[112.506,125.016],[112.312,124.784],[112.133,124.54],[111.969,124.287],[111.821,124.024],[111.689,123.752],[111.573,123.473],[111.475,123.188],[111.393,122.897],[111.33,122.601],[111.285,122.303],[111.257,122.002],[111.248,121.7],[111.248,98.3]]
EXCLUDE_OBJECT_DEFINE NAME=Mount.stl_id_1_copy_0 CENTER=92.8,110 POLYGON=[[76.3518,101.3],[76.3536,100.758],[76.368,100.674],[76.3962,100.594],[76.4376,100.52],[76.4909,100.454],[76.5545,100.398],[76.6267,100.354],[76.7054,100.322],[99.0113,93.4111],[99.0253,93.4068],[99.1919,93.3627],[99.2083,93.359],[99.3756,93.3279],[99.3945,93.3251],[99.5613,93.307],[99.5827,93.3055],[99.7482,93.3],[106.998,93.3],[107.057,93.3039],[107.083,93.3088],[107.108,93.3156],[107.13,93.3244],[107.151,93.3352],[107.169,93.3479],[107.186,93.3625],[107.2,93.3791],[109.061,95.917],[109.095,95.968],[109.124,96.0172],[109.149,96.0661],[109.175,96.1242],[109.192,96.1697],[109.213,96.2364],[109.223,96.2775],[109.237,96.3524],[109.242,96.388],[109.244,96.416],[109.248,96.4704],[109.248,96.5],[109.248,123.5],[109.248,123.53],[109.244,123.584],[109.242,123.612],[109.241,123.618],[109.237,123.648],[109.223,123.723],[109.22,123.735],[109.213,123.764],[109.192,123.83],[109.186,123.848],[109.175,123.876],[109.149,123.934],[109.138,123.957],[109.124,123.983],[109.095,124.032],[109.078,124.059],[109.061,124.083],[107.2,126.621],[107.186,126.637],[107.169,126.652],[107.151,126.665],[107.13,126.676],[107.108,126.684],[107.083,126.691],[107.057,126.696],[106.998,126.7],[99.7482,126.7],[99.5827,126.695],[99.5613,126.693],[99.3945,126.675],[99.3756,126.672],[99.2083,126.641],[99.1919,126.637],[99.0253,126.593],[99.0113,126.589],[76.7054,119.678],[76.6267,119.647],[76.5545,119.602],[76.4909,119.546],[76.4376,119.48],[76.3962,119.406],[76.368,119.326],[76.3536,119.243],[76.3518,118.7],[76.3518,101.3]]
M73 P0 R104
;TYPE:Custom
START_PRINT NOZZLE_TEMP=210  BED_TEMP=60 

G90
G21
M83 ; use relative distances for extrusion
; filament start gcode
M106 S0
;LAYER_CHANGE
;Z:0.2
;HEIGHT:0.2
;BEFORE_LAYER_CHANGE
;0.2
G92 E0

G1 E-.4 F1800
;AFTER_LAYER_CHANGE
;0.2
;_SET_FAN_SPEED_CHANGING_LAYER
SET_VELOCITY_LIMIT ACCEL=500 ACCEL_TO_DECEL=250
; printing object Cover_front.stl id:0 copy 0
EXCLUDE_OBJECT_START NAME=Cover_front.stl_id_0_copy_0
G1 X141.047 Y97.947 F21000
G1 Z.4
G1 Z.2
G1 E.4 F1800
;TYPE:Inner wall
;WIDTH:0.499999
G1 F3000
G1 X141.102 Y98.339 E.01472
G1 X141.102 Y121.7 E.87012
G1 X141.022 Y122.255 E.02089
G1 X140.863 Y122.717 E.01818
G1 X140.64 Y123.105 E.01671
G1 X140.35 Y123.445 E.01661
G1 X139.961 Y123.767 E.01883
G1 X139.459 Y124.006 E.02072
G1 X139.132 Y124.084 E.01251
G1 X138.611 Y124.154 E.01957
G1 X116.209 Y124.151 E.83438
G1 X115.621 Y124.056 E.0222
G1 X115.178 Y123.89 E.01763
G1 X114.735 Y123.625 E.01922
G1 X114.342 Y123.231 E.02072
G1 X114.044 Y122.767 E.02056
G1 X113.86 Y122.245 E.02061
G1 X113.794 Y121.683 E.02107
G1 X113.794 Y118.079 E.13422
;WIDTH:0.542915
G1 X113.816 Y117.808 E.01109
;WIDTH:0.58583
G1 X113.837 Y117.537 E.01204
;WIDTH:0.628745
G1 X113.859 Y117.265 E.013
G1 X113.841 Y116.501 E.03651
;WIDTH:0.593505
G1 X113.841 Y103.499 E.58332
;WIDTH:0.595415
G1 X113.842 Y103.393 E.00476
;WIDTH:0.630606
G1 X113.86 Y102.738 E.03141
G1 X113.838 Y102.513 E.01082
;WIDTH:0.587071
G1 X113.816 Y102.288 E.01002
;WIDTH:0.543535
G1 X113.794 Y102.063 E.00922
;WIDTH:0.499999
G1 X113.794 Y98.3 E.14015
G1 X113.867 Y97.773 E.01981
G1 X114.024 Y97.303 E.01845
G1 X114.246 Y96.91 E.01683
G1 X114.536 Y96.565 E.0168
G1 X114.935 Y96.233 E.01933
G1 X115.454 Y95.986 E.0214
G1 X116.098 Y95.854 E.02446
G1 X138.594 Y95.846 E.83791
G1 X139.097 Y95.894 E.01882
G1 X139.532 Y96.017 E.01686
G1 X139.937 Y96.219 E.01683
G1 X140.297 Y96.491 E.01682
G1 X140.602 Y96.825 E.01682
G1 X140.839 Y97.209 E.01683
G1 X141.003 Y97.63 E.01682
G1 X141.042 Y97.908 E.01044
G1 X141.504 Y97.862 F21000
G1 F3000
G1 X141.559 Y98.339 E.01785
G1 X141.559 Y121.581 E.8657
G1 X141.543 Y121.902 E.01198
G1 X141.455 Y122.408 E.01911
G1 X141.276 Y122.913 E.01995
G1 X141.006 Y123.378 E.02005
G1 X140.669 Y123.773 E.01934
G1 X140.193 Y124.163 E.02292
G1 X139.611 Y124.44 E.02399
G1 X138.988 Y124.588 E.02385
G1 X138.626 Y124.611 E.01354
G1 X116.598 Y124.609 E.82044
G1 X115.948 Y124.583 E.02422
G1 X115.439 Y124.479 E.01938
G1 X114.947 Y124.286 E.01967
G1 X114.438 Y123.976 E.02219
G1 X113.984 Y123.519 E.02399
G1 X113.638 Y122.981 E.02382
G1 X113.41 Y122.335 E.02553
G1 X113.337 Y121.71 E.02343
G1 X113.337 Y98.389 E.86859
G1 X113.374 Y97.862 E.01968
G1 X113.506 Y97.334 E.02029
G1 X113.731 Y96.847 E.01998
G1 X114.041 Y96.409 E.01998
G1 X114.561 Y95.938 E.02614
G1 X115.076 Y95.659 E.02182
G1 X115.538 Y95.49 E.01831
G1 X116.069 Y95.397 E.0201
G1 X138.47 Y95.389 E.83435
G1 X138.916 Y95.417 E.01664
G1 X139.44 Y95.516 E.01986
G1 X139.939 Y95.709 E.0199
G1 X140.393 Y95.99 E.0199
G1 X140.787 Y96.35 E.01988
G1 X141.109 Y96.776 E.0199
G1 X141.347 Y97.254 E.0199
G1 X141.494 Y97.77 E.01998
G1 X141.5 Y97.823 E.00196
G1 X141.968 Y97.82 F21000
;TYPE:Outer wall
G1 F3000
G1 X142.016 Y98.339 E.01941
G1 X142.016 Y121.589 E.86599
G1 X141.975 Y122.214 E.02332
G1 X141.823 Y122.818 E.02323
G1 X141.563 Y123.383 E.02314
G1 X141.204 Y123.89 E.02314
G1 X140.894 Y124.191 E.01612
G1 X140.425 Y124.559 E.02219
G1 X139.764 Y124.874 E.02726
G1 X139.056 Y125.041 E.0271
G1 X138.64 Y125.068 E.01552
G1 X116.161 Y125.066 E.83727
G1 X115.631 Y125.009 E.01984
G1 X115.032 Y124.839 E.02319
G1 X114.645 Y124.646 E.01613
G1 X114.142 Y124.326 E.02218
G1 X113.626 Y123.807 E.02726
G1 X113.399 Y123.454 E.01563
G1 X113.14 Y122.976 E.02025
G1 X112.961 Y122.424 E.02161
G1 X112.88 Y121.736 E.0258
G1 X112.88 Y98.389 E.86958
G1 X112.921 Y97.786 E.02251
G1 X113.073 Y97.182 E.02323
G1 X113.333 Y96.617 E.02314
G1 X113.692 Y96.11 E.02314
G1 X114.003 Y95.809 E.01612
G1 X114.471 Y95.441 E.02219
G1 X115.136 Y95.125 E.0274
G1 X115.418 Y95.048 E.0109
G1 X116.041 Y94.94 E.02355
G1 X138.637 Y94.932 E.84161
G1 X139.266 Y94.991 E.02355
G1 X139.864 Y95.161 E.02315
G1 X140.42 Y95.438 E.02314
G1 X140.916 Y95.813 E.02313
G1 X141.334 Y96.271 E.02313
G1 X141.661 Y96.8 E.02314
G1 X141.886 Y97.379 E.02313
G1 X141.961 Y97.78 E.01522
G1 E-.28 F1800
;WIPE_START
G1 F3000
G1 X142.016 Y98.339 E-.0673
G1 X142.016 Y98.778 E-.0527
;WIPE_END
G1 X134.768 Y101.169 Z.6 F21000
G1 X133.645 Y101.539 Z.6
G1 Z.2
G1 E.4 F1800
;TYPE:Inner wall
G1 F3000
G1 X133.716 Y101.637 E.0045
G1 X133.926 Y102.091 E.01863
G1 X134.106 Y102.733 E.02482
G1 X134.186 Y103.499 E.0287
G1 X134.186 Y116.501 E.48426
G1 X134.094 Y117.341 E.03149
G1 X133.929 Y117.918 E.02236
G1 X133.706 Y118.371 E.01879
G1 X133.524 Y118.642 E.01217
G1 X133.188 Y119.017 E.01874
G1 X132.935 Y119.228 E.01227
G1 X132.254 Y119.604 E.02898
G1 X131.753 Y119.761 E.01954
G1 X130.813 Y119.874 E.03526
G1 X117.811 Y119.874 E.48426
G1 X117.138 Y119.811 E.02519
G1 X116.484 Y119.645 E.02513
G1 X115.931 Y119.392 E.02266
G1 X115.347 Y118.93 E.02773
G1 X115.125 Y118.674 E.01262
G1 X114.831 Y118.209 E.02049
;WIDTH:0.534124
G1 X114.676 Y117.837 E.01613
;WIDTH:0.568249
G1 X114.521 Y117.465 E.01725
;WIDTH:0.598497
G1 X114.482 Y117.35 E.00548
;WIDTH:0.628745
G1 X114.443 Y117.235 E.00578
G1 X114.396 Y116.622 E.02937
;WIDTH:0.597328
G1 X114.392 Y116.501 E.00549
;WIDTH:0.593505
G1 X114.392 Y103.499 E.58332
;WIDTH:0.630606
G1 X114.438 Y102.81 E.0331
G1 X114.515 Y102.597 E.01082
;WIDTH:0.587071
G1 X114.591 Y102.384 E.01002
;WIDTH:0.543535
G1 X114.667 Y102.171 E.00922
;WIDTH:0.499999
G1 X114.921 Y101.618 E.02266
G1 X115.324 Y101.092 E.02471
G1 X115.928 Y100.614 E.02869
G1 X116.604 Y100.315 E.02752
G1 X116.921 Y100.229 E.01224
G1 X117.812 Y100.126 E.03341
G1 X130.813 Y100.126 E.48425
G1 X131.653 Y100.218 E.03148
G1 X132.442 Y100.479 E.03095
G1 X133.128 Y100.923 E.03042
G1 X133.371 Y101.16 E.01264
G1 X133.622 Y101.507 E.01595
G1 X133.309 Y101.867 F21000
G1 F3000
G1 X133.486 Y102.215 E.01453
G1 X133.666 Y102.856 E.02482
G1 X133.729 Y103.499 E.02406
G1 X133.729 Y116.501 E.48426
G1 X133.641 Y117.287 E.02948
G1 X133.494 Y117.776 E.01899
G1 X133.184 Y118.337 E.02389
G1 X132.848 Y118.711 E.01874
G1 X132.271 Y119.098 E.02587
G1 X131.617 Y119.325 E.02579
G1 X130.813 Y119.417 E.03012
G1 X117.812 Y119.417 E.48426
G1 X117.25 Y119.367 E.021
G1 X116.596 Y119.202 E.02513
G1 X116.142 Y118.987 E.0187
G1 X115.644 Y118.583 E.02388
G1 X115.217 Y117.964 E.028
G1 X114.99 Y117.318 E.02553
G1 X114.896 Y116.501 E.03064
G1 X114.896 Y103.499 E.48425
G1 X114.945 Y102.938 E.021
G1 X115.11 Y102.283 E.02513
G1 X115.326 Y101.83 E.0187
G1 X115.676 Y101.383 E.02115
G1 X116.193 Y100.986 E.02427
G1 X116.768 Y100.741 E.02329
G1 X116.977 Y100.682 E.00809
G1 X117.727 Y100.588 E.02812
G1 X130.813 Y100.583 E.48741
G1 X131.599 Y100.672 E.02947
G1 X132.281 Y100.907 E.02686
G1 X132.861 Y101.295 E.02599
G1 X133.256 Y101.764 E.02284
G1 X133.29 Y101.832 E.00283
G1 X132.911 Y102.071 F21000
;TYPE:Outer wall
G1 F3000
G1 X133.046 Y102.338 E.01115
G1 X133.226 Y102.98 E.02482
G1 X133.272 Y103.499 E.01943
G1 X133.272 Y116.501 E.48426
G1 X133.187 Y117.233 E.02747
G1 X133.045 Y117.67 E.01709
G1 X132.844 Y118.031 E.01542
G1 X132.508 Y118.406 E.01874
G1 X132.032 Y118.709 E.02099
G1 X131.48 Y118.889 E.02163
G1 X130.813 Y118.96 E.02499
G1 X117.812 Y118.96 E.48425
G1 X117.362 Y118.924 E.0168
G1 X116.708 Y118.759 E.02513
G1 X116.311 Y118.552 E.01666
G1 X115.897 Y118.185 E.02062
G1 X115.603 Y117.72 E.02049
G1 X115.426 Y117.181 E.02113
G1 X115.354 Y116.524 E.02462
G1 X115.353 Y103.499 E.48512
G1 X115.388 Y103.049 E.0168
G1 X115.553 Y102.395 E.02513
G1 X115.757 Y102.002 E.01651
G1 X116.072 Y101.634 E.01803
G1 X116.508 Y101.332 E.01976
G1 X116.984 Y101.148 E.01898
G1 X117.783 Y101.042 E.03005
G1 X130.813 Y101.04 E.4853
G1 X131.545 Y101.126 E.02746
G1 X132.12 Y101.335 E.02277
G1 X132.594 Y101.666 E.02156
G1 X132.887 Y102.039 E.01765
G1 E-.28 F1800
;WIPE_START
G1 F3000
G1 X133.046 Y102.338 E-.04065
G1 X133.225 Y102.975 E-.07935
;WIPE_END
G1 X139.749 Y99.014 Z.6 F21000
G1 X140.956 Y98.282 Z.6
G1 Z.2
G1 E.4 F1800
;TYPE:Bottom surface
;WIDTH:0.500123
G1 F6300
G1 X138.893 Y96.219 E.1087
G1 X138.691 Y96.2 E.00757
G1 X138.227 Y96.2 E.01726
G1 X140.75 Y98.723 E.13294
G1 X140.751 Y99.37 E.0241
G1 X137.581 Y96.2 E.16702
G1 X136.934 Y96.199 E.02409
G1 X140.751 Y100.016 E.20111
G1 X140.751 Y100.663 E.0241
G1 X136.287 Y96.199 E.23519
G1 X135.641 Y96.199 E.02409
G1 X140.751 Y101.31 E.26928
G1 X140.752 Y101.957 E.0241
G1 X134.994 Y96.199 E.30336
G1 X134.347 Y96.199 E.02409
G1 X140.752 Y102.604 E.33745
G1 X140.752 Y103.251 E.0241
G1 X133.701 Y96.199 E.37153
G1 X133.054 Y96.199 E.02409
G1 X140.752 Y103.897 E.40562
G1 X140.753 Y104.544 E.0241
G1 X132.407 Y96.199 E.4397
G1 X131.761 Y96.199 E.02409
G1 X140.753 Y105.191 E.47379
G1 X140.753 Y105.838 E.0241
G1 X131.114 Y96.199 E.50787
G1 X130.467 Y96.199 E.02409
G1 X140.753 Y106.485 E.54195
G1 X140.754 Y107.132 E.0241
G1 X129.821 Y96.199 E.57604
G1 X129.174 Y96.198 E.02409
G1 X140.754 Y107.778 E.61012
G1 X140.754 Y108.425 E.0241
G1 X134.211 Y101.882 E.34477
G1 X134.016 Y101.471 E.01692
G1 X133.894 Y101.282 E.00837
G1 X133.502 Y100.791 E.02344
G1 X132.9 Y100.338 E.02805
G1 X132.57 Y100.161 E.01397
G1 X132.442 Y100.113 E.00508
G1 X128.527 Y96.198 E.20626
G1 X127.881 Y96.198 E.02409
G1 X131.544 Y99.861 E.193
G1 X130.819 Y99.783 E.02715
G1 X127.234 Y96.198 E.18889
G1 X126.587 Y96.198 E.02409
G1 X130.172 Y99.783 E.18889
G1 X129.526 Y99.783 E.02409
G1 X125.941 Y96.198 E.1889
G1 X125.294 Y96.198 E.02409
G1 X128.879 Y99.783 E.1889
G1 X128.233 Y99.783 E.02409
G1 X124.647 Y96.198 E.18891
G1 X124.001 Y96.198 E.02409
G1 X127.586 Y99.783 E.18891
G1 X126.94 Y99.783 E.02409
G1 X123.354 Y96.198 E.18892
G1 X122.707 Y96.198 E.02409
G1 X126.293 Y99.783 E.18892
G1 X125.646 Y99.783 E.02409
G1 X122.061 Y96.198 E.18892
G1 X121.414 Y96.197 E.02409
G1 X125 Y99.783 E.18893
G1 X124.353 Y99.783 E.02409
G1 X120.767 Y96.197 E.18893
G1 X120.121 Y96.197 E.02409
G1 X123.707 Y99.783 E.18894
G1 X123.06 Y99.783 E.02409
G1 X119.474 Y96.197 E.18894
G1 X118.827 Y96.197 E.02409
G1 X122.413 Y99.783 E.18895
G1 X121.767 Y99.783 E.02409
G1 X118.181 Y96.197 E.18895
G1 X117.534 Y96.197 E.02409
G1 X121.12 Y99.783 E.18895
G1 X120.474 Y99.783 E.02409
G1 X116.887 Y96.197 E.18896
G1 X116.241 Y96.197 E.02409
G1 X119.827 Y99.783 E.18896
G1 X119.181 Y99.783 E.02409
G1 X115.678 Y96.28 E.18456
G1 X115.574 Y96.309 E.00402
G1 X115.225 Y96.474 E.01438
G1 X118.534 Y99.783 E.17434
G1 X117.887 Y99.783 E.02409
G1 X114.846 Y96.742 E.16024
G1 X114.651 Y96.931 E.01014
G1 X114.542 Y97.085 E.007
G1 X117.299 Y99.842 E.14528
G1 X116.729 Y99.918 E.02143
G1 X114.311 Y97.5 E.12744
G1 X114.264 Y97.601 E.00416
G1 X114.164 Y98 E.01532
G1 X116.249 Y100.085 E.10984
G1 X116.048 Y100.162 E.00802
G1 X115.809 Y100.291 E.01013
G1 X114.137 Y98.619 E.08807
G1 X114.137 Y99.266 E.02409
G1 X115.424 Y100.552 E.06778
G1 X115.079 Y100.854 E.01707
G1 X114.137 Y99.913 E.04961
G1 X114.137 Y100.559 E.02409
G1 X114.784 Y101.206 E.0341
G1 X114.539 Y101.608 E.01753
G1 X114.137 Y101.206 E.02119
G1 X114.137 Y101.852 E.02409
G1 X114.5 Y102.215 E.0191
G1 E-.28 F1800
;WIPE_START
G1 F6300
G1 X114.137 Y101.852 E-.06153
G1 X114.137 Y101.365 E-.05847
;WIPE_END
G1 X121.757 Y101.797 Z.6 F21000
G1 X134.184 Y102.502 Z.6
G1 Z.2
G1 E.4 F1800
G1 F6300
G1 X140.754 Y109.072 E.34619
G1 X140.755 Y109.719 E.0241
G1 X134.529 Y103.493 E.32802
G1 X134.529 Y104.139 E.02408
G1 X140.755 Y110.366 E.32805
G1 X140.755 Y111.012 E.0241
G1 X134.528 Y104.786 E.32809
G1 X134.528 Y105.432 E.02407
G1 X140.755 Y111.659 E.32812
