; HEADER_BLOCK_START
; generated by OrcaSlicer 1.9.0 on 2024-01-23 at 17:12:51
; total layer number: 100
; filament_density: 1.24
; filament_diameter: 1.75
; max_z_height: 20.00
; HEADER_BLOCK_END

; THUMBNAIL_BLOCK_START

;
; THUMBNAIL_BLOCK_END

; external perimeters extrusion width = 0.40mm
; perimeters extrusion width = 0.45mm
; infill extrusion width = 0.45mm
; solid infill extrusion width = 0.40mm
; top infill extrusion width = 0.40mm
; first layer extrusion width = 0.50mm

; EXECUTABLE_BLOCK_START
EXCLUDE_OBJECT_DEFINE NAME=cube.stl_id_0_copy_0 CENTER=110,110 POLYGON=[[100,100],[120,100],[120,120],[100,120],[100,100]]
M73 P0 R27
;TYPE:Custom
START_PRINT NOZZLE_TEMP=210  BED_TEMP=60 

G90
G21
M83 ; use relative distances for extrusion
; filament start gcode
M106 S0
;LAYER_CHANGE
;Z:0.2
;HEIGHT:0.2
;BEFORE_LAYER_CHANGE
;0.2
G92 E0

G1 E-.6 F1800
;AFTER_LAYER_CHANGE
;0.2
;_SET_FAN_SPEED_CHANGING_LAYER
SET_VELOCITY_LIMIT ACCEL=500 ACCEL_TO_DECEL=250
SET_VELOCITY_LIMIT SQUARE_CORNER_VELOCITY=8
; printing object cube.stl id:0 copy 0
EXCLUDE_OBJECT_START NAME=cube.stl_id_0_copy_0
G1 Z.4 F21000
G1 X118.836 Y118.836
G1 Z.4
G1 Z.2
G1 E.6 F1800
;TYPE:Inner wall
;WIDTH:0.499999
G1 F3000
G1 X101.164 Y118.836 E.80596
G1 X101.164 Y101.164 E.80596
G1 X118.836 Y101.164 E.80596
G1 X118.836 Y110 E.40298
G1 X118.836 Y118.796 E.40116
G1 X119.293 Y119.293 F21000
G1 F3000
G1 X100.707 Y119.293 E.84765
G1 X100.707 Y100.707 E.84765
G1 X119.293 Y100.707 E.84765
G1 X119.293 Y110 E.42383
G1 X119.293 Y119.253 E.422
G1 X119.75 Y119.75 F21000
;TYPE:Outer wall
G1 F3000
G1 X100.25 Y119.75 E.88935
G1 X100.25 Y100.25 E.88935
G1 X119.75 Y100.25 E.88935
G1 X119.75 Y110 E.44467
G1 X119.75 Y119.71 E.44285
G1 E-.42 F1800
;WIPE_START
G1 F3000
G1 X118.75 Y119.712 E-.18
;WIPE_END
G1 Z.6 F21000
G1 X118.699 Y102.243 Z.6
G1 Z.2
G1 E.6 F1800
;TYPE:Bottom surface
;WIDTH:0.50836
G1 F6300
G1 X117.963 Y101.507 E.04834
G1 X117.304 Y101.507 E.03057
G1 X118.493 Y102.696 E.07806
G1 X118.493 Y103.354 E.03057
G1 X116.646 Y101.507 E.1213
G1 X115.988 Y101.507 E.03057
G1 X118.493 Y104.012 E.16453
G1 X118.493 Y104.67 E.03057
G1 X115.33 Y101.507 E.20776
G1 X114.672 Y101.507 E.03057
G1 X118.493 Y105.328 E.25099
G1 X118.493 Y105.987 E.03057
G1 X114.013 Y101.507 E.29422
G1 X113.355 Y101.507 E.03057
G1 X118.493 Y106.645 E.33745
G1 X118.493 Y107.303 E.03057
G1 X112.697 Y101.507 E.38069
G1 X112.039 Y101.507 E.03057
G1 X118.493 Y107.961 E.42392
G1 X118.493 Y108.62 E.03057
G1 X111.38 Y101.507 E.46715
G1 X110.722 Y101.507 E.03057
G1 X118.493 Y109.278 E.51038
G1 X118.493 Y109.936 E.03057
G1 X110.064 Y101.507 E.55361
G1 X109.406 Y101.507 E.03057
G1 X118.493 Y110.594 E.59684
G1 X118.493 Y111.253 E.03057
G1 X108.747 Y101.507 E.64008
G1 X108.089 Y101.507 E.03057
G1 X118.493 Y111.911 E.68331
G1 X118.493 Y112.569 E.03057
G1 X107.431 Y101.507 E.72654
G1 X106.773 Y101.507 E.03057
G1 X118.493 Y113.227 E.76977
G1 X118.493 Y113.885 E.03057
G1 X106.115 Y101.507 E.813
G1 X105.456 Y101.507 E.03057
G1 X118.493 Y114.544 E.85623
G1 X118.493 Y115.202 E.03057
G1 X104.798 Y101.507 E.89947
G1 X104.14 Y101.507 E.03057
G1 X118.493 Y115.86 E.9427
G1 X118.493 Y116.518 E.03057
G1 X103.482 Y101.507 E.98593
G1 X102.823 Y101.507 E.03057
G1 X118.493 Y117.177 E1.02916
G1 X118.493 Y117.835 E.03057
G1 X102.165 Y101.507 E1.07239
G1 X101.507 Y101.507 E.03057
G1 X118.493 Y118.493 E1.11562
G1 X117.835 Y118.493 E.03057
G1 X101.507 Y102.165 E1.07239
G1 X101.507 Y102.823 E.03057
G1 X117.177 Y118.493 E1.02915
G1 X116.518 Y118.493 E.03057
G1 X101.507 Y103.482 E.98592
M73 P1 R27
G1 X101.507 Y104.14 E.03057
G1 X115.86 Y118.493 E.94269
G1 X115.202 Y118.493 E.03057
G1 X101.507 Y104.798 E.89946
G1 X101.507 Y105.456 E.03057
G1 X114.544 Y118.493 E.85623
G1 X113.885 Y118.493 E.03057
G1 X101.507 Y106.115 E.813
G1 X101.507 Y106.773 E.03057
G1 X113.227 Y118.493 E.76976
G1 X112.569 Y118.493 E.03057
G1 X101.507 Y107.431 E.72653
M73 P1 R26
G1 X101.507 Y108.089 E.03057
G1 X111.911 Y118.493 E.6833
G1 X111.252 Y118.493 E.03057
G1 X101.507 Y108.748 E.64007
G1 X101.507 Y109.406 E.03057
G1 X110.594 Y118.493 E.59684
G1 X109.936 Y118.493 E.03057
G1 X101.507 Y110.064 E.5536
G1 X101.507 Y110.722 E.03057
G1 X109.278 Y118.493 E.51037
G1 X108.62 Y118.493 E.03057
G1 X101.507 Y111.38 E.46714
G1 X101.507 Y112.039 E.03057
G1 X107.961 Y118.493 E.42391
G1 X107.303 Y118.493 E.03057
G1 X101.507 Y112.697 E.38068
G1 X101.507 Y113.355 E.03057
G1 X106.645 Y118.493 E.33745
G1 X105.987 Y118.493 E.03057
G1 X101.507 Y114.013 E.29421
G1 X101.507 Y114.672 E.03057
G1 X105.328 Y118.493 E.25098
G1 X104.67 Y118.493 E.03057
G1 X101.507 Y115.33 E.20775
G1 X101.507 Y115.988 E.03057
G1 X104.012 Y118.493 E.16452
G1 X103.354 Y118.493 E.03057
G1 X101.507 Y116.646 E.12129
G1 X101.507 Y117.305 E.03057
G1 X102.695 Y118.493 E.07806
G1 X102.037 Y118.493 E.03057
G1 X101.301 Y117.757 E.04833
; stop printing object cube.stl id:0 copy 0
M106 S255
;LAYER_CHANGE
;Z:0.4
;HEIGHT:0.2
;BEFORE_LAYER_CHANGE
;0.4
G92 E0

G1 E-.42 F1800
;WIPE_START
G1 F6300
G1 X102.008 Y118.464 E-.18
;WIPE_END
EXCLUDE_OBJECT_END NAME=cube.stl_id_0_copy_0
;AFTER_LAYER_CHANGE
;0.4
;_SET_FAN_SPEED_CHANGING_LAYER
SET_VELOCITY_LIMIT SQUARE_CORNER_VELOCITY=1
M140 S60 ; set bed temperature
; printing object cube.stl id:0 copy 0
SET_VELOCITY_LIMIT SQUARE_CORNER_VELOCITY=8
EXCLUDE_OBJECT_START NAME=cube.stl_id_0_copy_0
G1 Z.6 F21000
G1 X119.011 Y119.011 Z.6
G1 Z.4
G1 E.6 F1800
SET_VELOCITY_LIMIT SQUARE_CORNER_VELOCITY=1
;TYPE:Inner wall
;WIDTH:0.449999
G1 F7200
G1 X100.989 Y119.011 E.73201
G1 X100.989 Y100.989 E.73201
G1 X119.011 Y100.989 E.73201
G1 X119.011 Y110 E.36601
G1 X119.011 Y118.971 E.36438
SET_VELOCITY_LIMIT SQUARE_CORNER_VELOCITY=8
G1 X119.418 Y119.418 F21000
SET_VELOCITY_LIMIT SQUARE_CORNER_VELOCITY=1
G1 F7200
G1 X100.582 Y119.418 E.76508
G1 X100.582 Y100.582 E.76508
G1 X119.418 Y100.582 E.76508
G1 X119.418 Y110 E.38254
G1 X119.418 Y119.378 E.38092
SET_VELOCITY_LIMIT SQUARE_CORNER_VELOCITY=8
G1 X119.8 Y119.8 F21000
SET_VELOCITY_LIMIT SQUARE_CORNER_VELOCITY=1
;TYPE:Outer wall
;WIDTH:0.399999
G1 F7200
G1 X100.2 Y119.8 E.69834
G1 X100.2 Y100.2 E.69834
G1 X119.8 Y100.2 E.69834
G1 X119.8 Y110 E.34917
G1 X119.8 Y119.76 E.34774
SET_VELOCITY_LIMIT SQUARE_CORNER_VELOCITY=8
G1 E-.42 F1800
;WIPE_START
G1 F7200
G1 X118.8 Y119.762 E-.18
;WIPE_END
G1 Z.8 F21000
G1 X118.168 Y118.891 Z.8
G1 Z.4
G1 E.6 F1800
;TYPE:Internal solid infill
;WIDTH:0.400873
G1 F10057.186
G1 X118.731 Y118.328 E.02844
G1 X118.731 Y117.822 E.01808
G1 X117.822 Y118.731 E.04589
G1 X117.316 Y118.731 E.01808
G1 X118.731 Y117.316 E.07146
G1 X118.731 Y116.81 E.01808
G1 X116.81 Y118.731 E.09703
G1 X116.303 Y118.731 E.01808
G1 X118.731 Y116.303 E.1226
G1 X118.731 Y115.797 E.01808
G1 X115.797 Y118.731 E.14817
G1 X115.291 Y118.731 E.01808
G1 X118.731 Y115.291 E.17374
G1 X118.731 Y114.785 E.01808
G1 X114.785 Y118.731 E.19931
G1 X114.278 Y118.731 E.01808
G1 X118.731 Y114.278 E.22488
G1 X118.731 Y113.772 E.01808
G1 X113.772 Y118.731 E.25045
G1 X113.266 Y118.731 E.01808
G1 X118.731 Y113.266 E.27602
G1 X118.731 Y112.76 E.01808
G1 X112.76 Y118.731 E.30159
G1 X112.254 Y118.731 E.01808
G1 X118.731 Y112.254 E.32716
G1 X118.731 Y111.747 E.01808
G1 X111.747 Y118.731 E.35273
G1 X111.241 Y118.731 E.01808
G1 X118.731 Y111.241 E.3783
G1 X118.731 Y110.735 E.01808
G1 X110.735 Y118.731 E.40387
G1 X110.229 Y118.731 E.01808
G1 X118.731 Y110.229 E.42944
G1 X118.731 Y109.722 E.01808
G1 X109.722 Y118.731 E.45501
G1 X109.216 Y118.731 E.01808
G1 X118.731 Y109.216 E.48058
M73 P2 R26
G1 X118.731 Y108.71 E.01808
G1 X108.71 Y118.731 E.50615
G1 X108.204 Y118.731 E.01808
G1 X118.731 Y108.204 E.53172
G1 X118.731 Y107.698 E.01808
G1 X107.698 Y118.731 E.55729
G1 X107.191 Y118.731 E.01808
G1 X118.731 Y107.191 E.58286
G1 X118.731 Y106.685 E.01808
G1 X106.685 Y118.731 E.60843
G1 X106.179 Y118.731 E.01808
G1 X118.731 Y106.179 E.634
G1 X118.731 Y105.673 E.01808
G1 X105.673 Y118.731 E.65957
G1 X105.166 Y118.731 E.01808
G1 X118.731 Y105.166 E.68514
G1 X118.731 Y104.66 E.01808
G1 X104.66 Y118.731 E.71071
G1 X104.154 Y118.731 E.01808
G1 X118.731 Y104.154 E.73628
G1 X118.731 Y103.648 E.01808
G1 X103.648 Y118.731 E.76185
G1 X103.142 Y118.731 E.01808
G1 X118.731 Y103.142 E.78742
G1 X118.731 Y102.635 E.01808
G1 X102.635 Y118.731 E.81299
G1 X102.129 Y118.731 E.01808
G1 X118.731 Y102.129 E.83856
G1 X118.731 Y101.623 E.01808
G1 X101.623 Y118.731 E.86413
G1 X101.269 Y118.731 E.01262
G1 X101.269 Y118.578 E.00546
G1 X118.578 Y101.269 E.87426
G1 X118.072 Y101.269 E.01808
G1 X101.269 Y118.072 E.84869
G1 X101.269 Y117.565 E.01808
G1 X117.565 Y101.269 E.82312
G1 X117.059 Y101.269 E.01808
G1 X101.269 Y117.059 E.79755
G1 X101.269 Y116.553 E.01808
G1 X116.553 Y101.269 E.77198
G1 X116.047 Y101.269 E.01808
G1 X101.269 Y116.047 E.74641
G1 X101.269 Y115.54 E.01808
G1 X115.54 Y101.269 E.72084
G1 X115.034 Y101.269 E.01808
G1 X101.269 Y115.034 E.69527
G1 X101.269 Y114.528 E.01808
G1 X114.528 Y101.269 E.6697
G1 X114.022 Y101.269 E.01808
G1 X101.269 Y114.022 E.64413
G1 X101.269 Y113.516 E.01808
G1 X113.516 Y101.269 E.61856
G1 X113.009 Y101.269 E.01808
G1 X101.269 Y113.009 E.59299
G1 X101.269 Y112.503 E.01808
G1 X112.503 Y101.269 E.56742
G1 X111.997 Y101.269 E.01808
G1 X101.269 Y111.997 E.54185
G1 X101.269 Y111.491 E.01808
G1 X111.491 Y101.269 E.51628
G1 X110.984 Y101.269 E.01808
G1 X101.269 Y110.984 E.49071
G1 X101.269 Y110.478 E.01808
G1 X110.478 Y101.269 E.46514
G1 X109.972 Y101.269 E.01808
G1 X101.269 Y109.972 E.43957
G1 X101.269 Y109.466 E.01808
G1 X109.466 Y101.269 E.414
G1 X108.96 Y101.269 E.01808
G1 X101.269 Y108.96 E.38843
G1 X101.269 Y108.453 E.01808
G1 X108.453 Y101.269 E.36286
G1 X107.947 Y101.269 E.01808
G1 X101.269 Y107.947 E.33729
G1 X101.269 Y107.441 E.01808
G1 X107.441 Y101.269 E.31172
G1 X106.935 Y101.269 E.01808
G1 X101.269 Y106.935 E.28615
G1 X101.269 Y106.428 E.01808
G1 X106.428 Y101.269 E.26058
G1 X105.922 Y101.269 E.01808
G1 X101.269 Y105.922 E.23501
G1 X101.269 Y105.416 E.01808
G1 X105.416 Y101.269 E.20944
G1 X104.91 Y101.269 E.01808
G1 X101.269 Y104.91 E.18387
G1 X101.269 Y104.404 E.01808
G1 X104.404 Y101.269 E.1583
G1 X103.897 Y101.269 E.01808
G1 X101.269 Y103.897 E.13273
G1 X101.269 Y103.391 E.01808
G1 X103.391 Y101.269 E.10716
G1 X102.885 Y101.269 E.01808
G1 X101.269 Y102.885 E.08159
M73 P3 R26
G1 X101.269 Y102.379 E.01808
G1 X102.379 Y101.269 E.05602
G1 X101.872 Y101.269 E.01808
G1 X101.109 Y102.033 E.03857
G1 X101.376 Y101.318 F21000
;WIDTH:0.38292
G1 F10588.235
G1 X101.312 Y101.355 E.0025
G1 X101.377 Y101.39 E.0025
; stop printing object cube.stl id:0 copy 0
;LAYER_CHANGE
;Z:0.6
;HEIGHT:0.2
;BEFORE_LAYER_CHANGE
;0.6
G92 E0

G1 E-.57496 F1800
;WIPE_START
G1 F10588.235
G1 X101.312 Y101.355 E-.01252
G1 X101.376 Y101.318 E-.01251
;WIPE_END
EXCLUDE_OBJECT_END NAME=cube.stl_id_0_copy_0
;AFTER_LAYER_CHANGE
;0.6
;_SET_FAN_SPEED_CHANGING_LAYER
; printing object cube.stl id:0 copy 0
EXCLUDE_OBJECT_START NAME=cube.stl_id_0_copy_0
G1 Z.8 F21000
G1 X119.011 Y119.011 Z.8
G1 Z.6
G1 E.6 F1800
SET_VELOCITY_LIMIT SQUARE_CORNER_VELOCITY=1
;TYPE:Inner wall
;WIDTH:0.449999
G1 F7200
G1 X100.989 Y119.011 E.73201
G1 X100.989 Y100.989 E.73201
G1 X119.011 Y100.989 E.73201
G1 X119.011 Y110 E.36601
G1 X119.011 Y118.971 E.36438
SET_VELOCITY_LIMIT SQUARE_CORNER_VELOCITY=8
G1 X119.418 Y119.418 F21000
SET_VELOCITY_LIMIT SQUARE_CORNER_VELOCITY=1
G1 F7200
G1 X100.582 Y119.418 E.76508
G1 X100.582 Y100.582 E.76508
G1 X119.418 Y100.582 E.76508
G1 X119.418 Y110 E.38254
G1 X119.418 Y119.378 E.38092
SET_VELOCITY_LIMIT SQUARE_CORNER_VELOCITY=8
G1 X119.8 Y119.8 F21000
SET_VELOCITY_LIMIT SQUARE_CORNER_VELOCITY=1
;TYPE:Outer wall
;WIDTH:0.399999
G1 F7200
G1 X100.2 Y119.8 E.69834
G1 X100.2 Y100.2 E.69834
G1 X119.8 Y100.2 E.69834
G1 X119.8 Y110 E.34917
G1 X119.8 Y119.76 E.34774
SET_VELOCITY_LIMIT SQUARE_CORNER_VELOCITY=8
G1 E-.42 F1800
;WIPE_START
G1 F7200
G1 X118.8 Y119.762 E-.18
;WIPE_END
G1 Z1 F21000
G1 X118.891 Y101.832 Z1
G1 Z.6
G1 E.6 F1800
;TYPE:Internal solid infill
;WIDTH:0.400873
G1 F10057.186
G1 X118.328 Y101.269 E.02844
G1 X117.822 Y101.269 E.01808
G1 X118.731 Y102.178 E.04589
G1 X118.731 Y102.684 E.01808
G1 X117.316 Y101.269 E.07146
G1 X116.81 Y101.269 E.01808
G1 X118.731 Y103.19 E.09703
G1 X118.731 Y103.697 E.01808
G1 X116.303 Y101.269 E.1226
G1 X115.797 Y101.269 E.01808
G1 X118.731 Y104.203 E.14817
G1 X118.731 Y104.709 E.01808
G1 X115.291 Y101.269 E.17374
G1 X114.785 Y101.269 E.01808
G1 X118.731 Y105.215 E.19931
G1 X118.731 Y105.722 E.01808
G1 X114.278 Y101.269 E.22488
G1 X113.772 Y101.269 E.01808
G1 X118.731 Y106.228 E.25045
G1 X118.731 Y106.734 E.01808
G1 X113.266 Y101.269 E.27602
G1 X112.76 Y101.269 E.01808
G1 X118.731 Y107.24 E.30159
G1 X118.731 Y107.746 E.01808
G1 X112.254 Y101.269 E.32716
G1 X111.747 Y101.269 E.01808
G1 X118.731 Y108.253 E.35273
G1 X118.731 Y108.759 E.01808
G1 X111.241 Y101.269 E.3783
G1 X110.735 Y101.269 E.01808
G1 X118.731 Y109.265 E.40387
G1 X118.731 Y109.771 E.01808
G1 X110.229 Y101.269 E.42944
G1 X109.722 Y101.269 E.01808
G1 X118.731 Y110.278 E.45501
G1 X118.731 Y110.784 E.01808
G1 X109.216 Y101.269 E.48058
G1 X108.71 Y101.269 E.01808
G1 X118.731 Y111.29 E.50615
G1 X118.731 Y111.796 E.01808
G1 X108.204 Y101.269 E.53172
G1 X107.698 Y101.269 E.01808
G1 X118.731 Y112.302 E.55729
G1 X118.731 Y112.809 E.01808
G1 X107.191 Y101.269 E.58286
G1 X106.685 Y101.269 E.01808
G1 X118.731 Y113.315 E.60843
G1 X118.731 Y113.821 E.01808
G1 X106.179 Y101.269 E.634
G1 X105.673 Y101.269 E.01808
G1 X118.731 Y114.327 E.65957
G1 X118.731 Y114.834 E.01808
G1 X105.166 Y101.269 E.68514
G1 X104.66 Y101.269 E.01808
G1 X118.731 Y115.34 E.71071
G1 X118.731 Y115.846 E.01808
G1 X104.154 Y101.269 E.73628
G1 X103.648 Y101.269 E.01808
G1 X118.731 Y116.352 E.76185
G1 X118.731 Y116.858 E.01808
G1 X103.142 Y101.269 E.78742
G1 X102.635 Y101.269 E.01808
G1 X118.731 Y117.365 E.81299
G1 X118.731 Y117.871 E.01808
G1 X102.129 Y101.269 E.83856
G1 X101.623 Y101.269 E.01808
G1 X118.731 Y118.377 E.86413
M73 P4 R26
G1 X118.731 Y118.731 E.01262
G1 X118.578 Y118.731 E.00546
G1 X101.269 Y101.422 E.87426
G1 X101.269 Y101.928 E.01808
G1 X118.072 Y118.731 E.84869
G1 X117.565 Y118.731 E.01808
G1 X101.269 Y102.435 E.82312
G1 X101.269 Y102.941 E.01808
G1 X117.059 Y118.731 E.79755
G1 X116.553 Y118.731 E.01808
G1 X101.269 Y103.447 E.77198
G1 X101.269 Y103.953 E.01808
G1 X116.047 Y118.731 E.74641
G1 X115.54 Y118.731 E.01808
G1 X101.269 Y104.46 E.72084
G1 X101.269 Y104.966 E.01808
G1 X115.034 Y118.731 E.69527
G1 X114.528 Y118.731 E.01808
G1 X101.269 Y105.472 E.6697
G1 X101.269 Y105.978 E.01808
G1 X114.022 Y118.731 E.64413
G1 X113.516 Y118.731 E.01808
G1 X101.269 Y106.484 E.61856
G1 X101.269 Y106.991 E.01808
G1 X113.009 Y118.731 E.59299
G1 X112.503 Y118.731 E.01808
G1 X101.269 Y107.497 E.56742
G1 X101.269 Y108.003 E.01808
G1 X111.997 Y118.731 E.54185
G1 X111.491 Y118.731 E.01808
G1 X101.269 Y108.509 E.51628
G1 X101.269 Y109.016 E.01808
G1 X110.984 Y118.731 E.49071
G1 X110.478 Y118.731 E.01808
G1 X101.269 Y109.522 E.46514
G1 X101.269 Y110.028 E.01808
G1 X109.972 Y118.731 E.43957
G1 X109.466 Y118.731 E.01808
G1 X101.269 Y110.534 E.414
G1 X101.269 Y111.04 E.01808
G1 X108.96 Y118.731 E.38843
G1 X108.453 Y118.731 E.01808
G1 X101.269 Y111.547 E.36286
G1 X101.269 Y112.053 E.01808
G1 X107.947 Y118.731 E.33729
G1 X107.441 Y118.731 E.01808
G1 X101.269 Y112.559 E.31172
G1 X101.269 Y113.065 E.01808
G1 X106.935 Y118.731 E.28615
G1 X106.428 Y118.731 E.01808
G1 X101.269 Y113.572 E.26058
G1 X101.269 Y114.078 E.01808
G1 X105.922 Y118.731 E.23501
G1 X105.416 Y118.731 E.01808
G1 X101.269 Y114.584 E.20944
G1 X101.269 Y115.09 E.01808
G1 X104.91 Y118.731 E.18387
G1 X104.404 Y118.731 E.01808
G1 X101.269 Y115.596 E.1583
G1 X101.269 Y116.103 E.01808
G1 X103.897 Y118.731 E.13273
G1 X103.391 Y118.731 E.01808
G1 X101.269 Y116.609 E.10716
G1 X101.269 Y117.115 E.01808
G1 X102.885 Y118.731 E.08159
G1 X102.379 Y118.731 E.01808
G1 X101.269 Y117.621 E.05602
G1 X101.269 Y118.128 E.01808
G1 X102.033 Y118.891 E.03857
G1 X101.376 Y118.608 F21000
;WIDTH:0.38292
G1 F10588.235
G1 X101.312 Y118.645 E.0025
G1 X101.377 Y118.68 E.0025
; stop printing object cube.stl id:0 copy 0
