; HEADER_BLOCK_START
; generated by OrcaSlicer 1.9.0 on 2024-01-23 at 17:21:57
; total layer number: 4
; filament_density: 1.24
; filament_diameter: 1.75
; max_z_height: 0.85
; HEADER_BLOCK_END

; THUMBNAIL_BLOCK_START

;
; THUMBNAIL_BLOCK_END

; external perimeters extrusion width = 0.40mm
; perimeters extrusion width = 0.45mm
; infill extrusion width = 0.45mm
; solid infill extrusion width = 0.40mm
; top infill extrusion width = 0.40mm
; first layer extrusion width = 0.56mm

; EXECUTABLE_BLOCK_START
EXCLUDE_OBJECT_DEFINE NAME=Orca-PA-Calibration-Test CENTER=0,0 POLYGON=[[5,5],[215,5],[215,215],[5,215],[5,5]]
M73 P0 R8
;TYPE:Custom
START_PRINT NOZZLE_TEMP=210  BED_TEMP=60 

G90
G21
M83 ; use relative distances for extrusion
; filament start gcode
M106 S0
;LAYER_CHANGE
;Z:0.25
;HEIGHT:0.25
;BEFORE_LAYER_CHANGE
;0.25
G92 E0

G1 E-.6 F1800
;AFTER_LAYER_CHANGE
;0.25
;_SET_FAN_SPEED_CHANGING_LAYER
SET_VELOCITY_LIMIT ACCEL=500 ACCEL_TO_DECEL=250
SET_VELOCITY_LIMIT SQUARE_CORNER_VELOCITY=8
;CUSTOM_GCODE
; start pressure advance pattern for layer
G1 E-.6 ; retract
G1 X60.461 Y84.507 F21000 ; Move to start XY position
G1 E.6 F1800 ;  ; unretract
G1 Z.25 F21000 ; Move to start Z position
SET_PRESSURE_ADVANCE ADVANCE=0; Override pressure advance value
G1 E-.6 F1800 ; retract
G1 X60.461 Y84.507 F21000 ; Move to box start
G1 E.6 F1800 ;  ; unretract

G1 X60.461 Y126.933 E2.67943 ; Draw perimeter (up)

G1 X144.539 Y126.933 E5.30996 ; Draw perimeter (right)

M73 P1 R8
G1 X144.539 Y84.507 E2.67943 ; Draw perimeter (down)

G1 X60.461 Y84.507 E5.30996 ; Draw perimeter (left)
G1 E-.6 ; retract
G1 X60.967 Y85.013 F21000 ; Step inwards to print next perimeter
G1 E.6 F1800 ;  ; unretract

G1 X60.967 Y126.427 E2.61547 ; Draw perimeter (up)

M73 P2 R8
G1 X144.033 Y126.427 E5.24601 ; Draw perimeter (right)

G1 X144.033 Y85.013 E2.61547 ; Draw perimeter (down)

G1 X60.967 Y85.013 E5.24601 ; Draw perimeter (left)
M73 P3 R8
G1 E-.6 ; retract
G1 X61.473 Y85.519 F21000 ; Step inwards to print next perimeter
G1 E.6 F1800 ;  ; unretract

G1 X61.473 Y125.921 E2.55151 ; Draw perimeter (up)

G1 X143.527 Y125.921 E5.18205 ; Draw perimeter (right)

M73 P4 R8
G1 X143.527 Y85.519 E2.55151 ; Draw perimeter (down)

G1 X61.473 Y85.519 E5.18205 ; Draw perimeter (left)
G1 E-.6 ; retract
G1 X60.461 Y127.44 F21000 ; Move to box start
M73 P5 R8
G1 E.6 F1800 ;  ; unretract

G1 X60.461 Y140.946 E.85299 ; Draw perimeter (up)

G1 X124.73 Y140.946 E4.05894 ; Draw perimeter (right)

G1 X124.73 Y127.44 E.85299 ; Draw perimeter (down)

G1 X60.461 Y127.44 E4.05894 ; Draw perimeter (left)
M73 P6 R8
G1 E-.6 ; retract
G1 X60.967 Y127.946 F21000 ; Step inwards to print next perimeter
G1 E.6 F1800 ;  ; unretract

G1 X60.967 Y140.44 E.78903 ; Draw perimeter (up)

G1 X124.224 Y140.44 E3.99498 ; Draw perimeter (right)

G1 X124.224 Y127.946 E.78903 ; Draw perimeter (down)

G1 X60.967 Y127.946 E3.99498 ; Draw perimeter (left)
M73 P7 R8
G1 E-.6 ; retract
G1 X61.473 Y128.452 F21000 ; Step inwards to print next perimeter
G1 E.6 F1800 ;  ; unretract

G1 X61.473 Y139.933 E.72508 ; Draw perimeter (up)

G1 X123.718 Y139.933 E3.93103 ; Draw perimeter (right)

G1 X123.718 Y128.452 E.72508 ; Draw perimeter (down)

G1 X61.473 Y128.452 E3.93103 ; Draw perimeter (left)
M73 P8 R8
G1 E-.6 ; retract
G1 X61.847 Y128.826 F21000 ; Move to fill start
G1 E.6 F1800 ;  ; unretract
G1 E-.6 ; retract
G1 X62.563 Y128.826 F21000 ; Fill: Step right
G1 E.6 F1800 ;  ; unretract

G1 X61.847 Y129.542 E.06396 ; Fill: Print up/left
G1 E-.6 ; retract
G1 X61.847 Y130.258 F21000 ; Fill: Step up
G1 E.6 F1800 ;  ; unretract

G1 X63.279 Y128.826 E.12791 ; Fill: Print down/right
G1 E-.6 ; retract
G1 X63.995 Y128.826 F21000 ; Fill: Step right
G1 E.6 F1800 ;  ; unretract

G1 X61.847 Y130.974 E.19187 ; Fill: Print up/left
G1 E-.6 ; retract
G1 X61.847 Y131.69 F21000 ; Fill: Step up
G1 E.6 F1800 ;  ; unretract

G1 X64.711 Y128.826 E.25583 ; Fill: Print down/right
G1 E-.6 ; retract
G1 X65.427 Y128.826 F21000 ; Fill: Step right
G1 E.6 F1800 ;  ; unretract

G1 X61.847 Y132.406 E.31978 ; Fill: Print up/left
G1 E-.6 ; retract
G1 X61.847 Y133.122 F21000 ; Fill: Step up
G1 E.6 F1800 ;  ; unretract

G1 X66.143 Y128.826 E.38374 ; Fill: Print down/right
G1 E-.6 ; retract
G1 X66.859 Y128.826 F21000 ; Fill: Step right
G1 E.6 F1800 ;  ; unretract

G1 X61.847 Y133.838 E.4477 ; Fill: Print up/left
G1 E-.6 ; retract
G1 X61.847 Y134.554 F21000 ; Fill: Step up
G1 E.6 F1800 ;  ; unretract

G1 X67.575 Y128.826 E.51165 ; Fill: Print down/right
G1 E-.6 ; retract
G1 X68.291 Y128.826 F21000 ; Fill: Step right
G1 E.6 F1800 ;  ; unretract

G1 X61.847 Y135.27 E.57561 ; Fill: Print up/left
G1 E-.6 ; retract
G1 X61.847 Y135.986 F21000 ; Fill: Step up
G1 E.6 F1800 ;  ; unretract

G1 X69.008 Y128.826 E.63957 ; Fill: Print down/right
G1 E-.6 ; retract
G1 X69.724 Y128.826 F21000 ; Fill: Step right
G1 E.6 F1800 ;  ; unretract

G1 X61.847 Y136.703 E.70352 ; Fill: Print up/left
G1 E-.6 ; retract
G1 X61.847 Y137.419 F21000 ; Fill: Step up
G1 E.6 F1800 ;  ; unretract

G1 X70.44 Y128.826 E.76748 ; Fill: Print down/right
G1 E-.6 ; retract
G1 X71.156 Y128.826 F21000 ; Fill: Step right
G1 E.6 F1800 ;  ; unretract

G1 X61.847 Y138.135 E.83144 ; Fill: Print up/left
M73 P9 R8
G1 E-.6 ; retract
G1 X61.847 Y138.851 F21000 ; Fill: Step up
G1 E.6 F1800 ;  ; unretract

G1 X71.872 Y128.826 E.89539 ; Fill: Print down/right
G1 E-.6 ; retract
G1 X72.588 Y128.826 F21000 ; Fill: Step right
G1 E.6 F1800 ;  ; unretract

G1 X61.854 Y139.56 E.95872 ; Fill: Print up/left
G1 E-.6 ; retract
G1 X62.57 Y139.56 F21000 ; Fill: Step right
G1 E.6 F1800 ;  ; unretract

G1 X73.304 Y128.826 E.95872 ; Fill: Print down/right
G1 E-.6 ; retract
G1 X74.02 Y128.826 F21000 ; Fill: Step right
G1 E.6 F1800 ;  ; unretract

G1 X63.286 Y139.56 E.95872 ; Fill: Print up/left
G1 E-.6 ; retract
G1 X64.002 Y139.56 F21000 ; Fill: Step right
G1 E.6 F1800 ;  ; unretract

G1 X74.736 Y128.826 E.95872 ; Fill: Print down/right
G1 E-.6 ; retract
G1 X75.452 Y128.826 F21000 ; Fill: Step right
G1 E.6 F1800 ;  ; unretract

G1 X64.718 Y139.56 E.95872 ; Fill: Print up/left
G1 E-.6 ; retract
G1 X65.434 Y139.56 F21000 ; Fill: Step right
G1 E.6 F1800 ;  ; unretract

G1 X76.168 Y128.826 E.95872 ; Fill: Print down/right
G1 E-.6 ; retract
G1 X76.885 Y128.826 F21000 ; Fill: Step right
G1 E.6 F1800 ;  ; unretract

G1 X66.15 Y139.56 E.95872 ; Fill: Print up/left
M73 P10 R8
G1 E-.6 ; retract
G1 X66.866 Y139.56 F21000 ; Fill: Step right
G1 E.6 F1800 ;  ; unretract

G1 X77.601 Y128.826 E.95872 ; Fill: Print down/right
G1 E-.6 ; retract
G1 X78.317 Y128.826 F21000 ; Fill: Step right
G1 E.6 F1800 ;  ; unretract

G1 X67.582 Y139.56 E.95872 ; Fill: Print up/left
G1 E-.6 ; retract
G1 X68.298 Y139.56 F21000 ; Fill: Step right
G1 E.6 F1800 ;  ; unretract

G1 X79.033 Y128.826 E.95872 ; Fill: Print down/right
M73 P10 R7
G1 E-.6 ; retract
G1 X79.749 Y128.826 F21000 ; Fill: Step right
G1 E.6 F1800 ;  ; unretract

G1 X69.015 Y139.56 E.95872 ; Fill: Print up/left
G1 E-.6 ; retract
G1 X69.731 Y139.56 F21000 ; Fill: Step right
G1 E.6 F1800 ;  ; unretract

G1 X80.465 Y128.826 E.95872 ; Fill: Print down/right
G1 E-.6 ; retract
G1 X81.181 Y128.826 F21000 ; Fill: Step right
G1 E.6 F1800 ;  ; unretract

G1 X70.447 Y139.56 E.95872 ; Fill: Print up/left
G1 E-.6 ; retract
G1 X71.163 Y139.56 F21000 ; Fill: Step right
G1 E.6 F1800 ;  ; unretract

G1 X81.897 Y128.826 E.95872 ; Fill: Print down/right
G1 E-.6 ; retract
G1 X82.613 Y128.826 F21000 ; Fill: Step right
G1 E.6 F1800 ;  ; unretract

G1 X71.879 Y139.56 E.95872 ; Fill: Print up/left
M73 P11 R7
G1 E-.6 ; retract
G1 X72.595 Y139.56 F21000 ; Fill: Step right
G1 E.6 F1800 ;  ; unretract

G1 X83.329 Y128.826 E.95872 ; Fill: Print down/right
G1 E-.6 ; retract
G1 X84.045 Y128.826 F21000 ; Fill: Step right
G1 E.6 F1800 ;  ; unretract

G1 X73.311 Y139.56 E.95872 ; Fill: Print up/left
G1 E-.6 ; retract
G1 X74.027 Y139.56 F21000 ; Fill: Step right
G1 E.6 F1800 ;  ; unretract

G1 X84.761 Y128.826 E.95872 ; Fill: Print down/right
G1 E-.6 ; retract
G1 X85.478 Y128.826 F21000 ; Fill: Step right
G1 E.6 F1800 ;  ; unretract

G1 X74.743 Y139.56 E.95872 ; Fill: Print up/left
G1 E-.6 ; retract
G1 X75.459 Y139.56 F21000 ; Fill: Step right
G1 E.6 F1800 ;  ; unretract

G1 X86.194 Y128.826 E.95872 ; Fill: Print down/right
G1 E-.6 ; retract
G1 X86.91 Y128.826 F21000 ; Fill: Step right
G1 E.6 F1800 ;  ; unretract

G1 X76.175 Y139.56 E.95872 ; Fill: Print up/left
G1 E-.6 ; retract
G1 X76.892 Y139.56 F21000 ; Fill: Step right
G1 E.6 F1800 ;  ; unretract

G1 X87.626 Y128.826 E.95872 ; Fill: Print down/right
G1 E-.6 ; retract
G1 X88.342 Y128.826 F21000 ; Fill: Step right
G1 E.6 F1800 ;  ; unretract

M73 P12 R7
G1 X77.608 Y139.56 E.95872 ; Fill: Print up/left
G1 E-.6 ; retract
G1 X78.324 Y139.56 F21000 ; Fill: Step right
G1 E.6 F1800 ;  ; unretract

G1 X89.058 Y128.826 E.95872 ; Fill: Print down/right
G1 E-.6 ; retract
G1 X89.774 Y128.826 F21000 ; Fill: Step right
G1 E.6 F1800 ;  ; unretract

G1 X79.04 Y139.56 E.95872 ; Fill: Print up/left
G1 E-.6 ; retract
G1 X79.756 Y139.56 F21000 ; Fill: Step right
G1 E.6 F1800 ;  ; unretract

G1 X90.49 Y128.826 E.95872 ; Fill: Print down/right
G1 E-.6 ; retract
G1 X91.206 Y128.826 F21000 ; Fill: Step right
G1 E.6 F1800 ;  ; unretract

G1 X80.472 Y139.56 E.95872 ; Fill: Print up/left
G1 E-.6 ; retract
G1 X81.188 Y139.56 F21000 ; Fill: Step right
G1 E.6 F1800 ;  ; unretract

G1 X91.922 Y128.826 E.95872 ; Fill: Print down/right
G1 E-.6 ; retract
G1 X92.638 Y128.826 F21000 ; Fill: Step right
G1 E.6 F1800 ;  ; unretract

G1 X81.904 Y139.56 E.95872 ; Fill: Print up/left
G1 E-.6 ; retract
G1 X82.62 Y139.56 F21000 ; Fill: Step right
G1 E.6 F1800 ;  ; unretract

G1 X93.354 Y128.826 E.95872 ; Fill: Print down/right
G1 E-.6 ; retract
M73 P13 R7
G1 X94.071 Y128.826 F21000 ; Fill: Step right
G1 E.6 F1800 ;  ; unretract

G1 X83.336 Y139.56 E.95872 ; Fill: Print up/left
G1 E-.6 ; retract
G1 X84.052 Y139.56 F21000 ; Fill: Step right
G1 E.6 F1800 ;  ; unretract

G1 X94.787 Y128.826 E.95872 ; Fill: Print down/right
G1 E-.6 ; retract
G1 X95.503 Y128.826 F21000 ; Fill: Step right
G1 E.6 F1800 ;  ; unretract

G1 X84.768 Y139.56 E.95872 ; Fill: Print up/left
G1 E-.6 ; retract
G1 X85.485 Y139.56 F21000 ; Fill: Step right
G1 E.6 F1800 ;  ; unretract

G1 X96.219 Y128.826 E.95872 ; Fill: Print down/right
G1 E-.6 ; retract
G1 X96.935 Y128.826 F21000 ; Fill: Step right
G1 E.6 F1800 ;  ; unretract

G1 X86.201 Y139.56 E.95872 ; Fill: Print up/left
G1 E-.6 ; retract
G1 X86.917 Y139.56 F21000 ; Fill: Step right
G1 E.6 F1800 ;  ; unretract

G1 X97.651 Y128.826 E.95872 ; Fill: Print down/right
G1 E-.6 ; retract
G1 X98.367 Y128.826 F21000 ; Fill: Step right
G1 E.6 F1800 ;  ; unretract

G1 X87.633 Y139.56 E.95872 ; Fill: Print up/left
G1 E-.6 ; retract
G1 X88.349 Y139.56 F21000 ; Fill: Step right
G1 E.6 F1800 ;  ; unretract

G1 X99.083 Y128.826 E.95872 ; Fill: Print down/right
M73 P14 R7
G1 E-.6 ; retract
G1 X99.799 Y128.826 F21000 ; Fill: Step right
G1 E.6 F1800 ;  ; unretract

G1 X89.065 Y139.56 E.95872 ; Fill: Print up/left
G1 E-.6 ; retract
G1 X89.781 Y139.56 F21000 ; Fill: Step right
G1 E.6 F1800 ;  ; unretract

G1 X100.515 Y128.826 E.95872 ; Fill: Print down/right
G1 E-.6 ; retract
G1 X101.231 Y128.826 F21000 ; Fill: Step right
G1 E.6 F1800 ;  ; unretract

G1 X90.497 Y139.56 E.95872 ; Fill: Print up/left
G1 E-.6 ; retract
G1 X91.213 Y139.56 F21000 ; Fill: Step right
G1 E.6 F1800 ;  ; unretract

G1 X101.948 Y128.826 E.95872 ; Fill: Print down/right
G1 E-.6 ; retract
G1 X102.664 Y128.826 F21000 ; Fill: Step right
G1 E.6 F1800 ;  ; unretract

G1 X91.929 Y139.56 E.95872 ; Fill: Print up/left
G1 E-.6 ; retract
G1 X92.645 Y139.56 F21000 ; Fill: Step right
G1 E.6 F1800 ;  ; unretract

G1 X103.38 Y128.826 E.95872 ; Fill: Print down/right
G1 E-.6 ; retract
G1 X104.096 Y128.826 F21000 ; Fill: Step right
G1 E.6 F1800 ;  ; unretract

G1 X93.362 Y139.56 E.95872 ; Fill: Print up/left
G1 E-.6 ; retract
G1 X94.078 Y139.56 F21000 ; Fill: Step right
G1 E.6 F1800 ;  ; unretract

G1 X104.812 Y128.826 E.95872 ; Fill: Print down/right
M73 P15 R7
G1 E-.6 ; retract
G1 X105.528 Y128.826 F21000 ; Fill: Step right
G1 E.6 F1800 ;  ; unretract

G1 X94.794 Y139.56 E.95872 ; Fill: Print up/left
G1 E-.6 ; retract
G1 X95.51 Y139.56 F21000 ; Fill: Step right
G1 E.6 F1800 ;  ; unretract

G1 X106.244 Y128.826 E.95872 ; Fill: Print down/right
G1 E-.6 ; retract
G1 X106.96 Y128.826 F21000 ; Fill: Step right
G1 E.6 F1800 ;  ; unretract

G1 X96.226 Y139.56 E.95872 ; Fill: Print up/left
G1 E-.6 ; retract
G1 X96.942 Y139.56 F21000 ; Fill: Step right
G1 E.6 F1800 ;  ; unretract

G1 X107.676 Y128.826 E.95872 ; Fill: Print down/right
G1 E-.6 ; retract
G1 X108.392 Y128.826 F21000 ; Fill: Step right
G1 E.6 F1800 ;  ; unretract

G1 X97.658 Y139.56 E.95872 ; Fill: Print up/left
G1 E-.6 ; retract
G1 X98.374 Y139.56 F21000 ; Fill: Step right
G1 E.6 F1800 ;  ; unretract

G1 X109.108 Y128.826 E.95872 ; Fill: Print down/right
G1 E-.6 ; retract
G1 X109.824 Y128.826 F21000 ; Fill: Step right
G1 E.6 F1800 ;  ; unretract

G1 X99.09 Y139.56 E.95872 ; Fill: Print up/left
G1 E-.6 ; retract
G1 X99.806 Y139.56 F21000 ; Fill: Step right
G1 E.6 F1800 ;  ; unretract

G1 X110.541 Y128.826 E.95872 ; Fill: Print down/right
M73 P16 R7
G1 E-.6 ; retract
G1 X111.257 Y128.826 F21000 ; Fill: Step right
G1 E.6 F1800 ;  ; unretract

G1 X100.522 Y139.56 E.95872 ; Fill: Print up/left
G1 E-.6 ; retract
G1 X101.238 Y139.56 F21000 ; Fill: Step right
G1 E.6 F1800 ;  ; unretract

G1 X111.973 Y128.826 E.95872 ; Fill: Print down/right
G1 E-.6 ; retract
G1 X112.689 Y128.826 F21000 ; Fill: Step right
G1 E.6 F1800 ;  ; unretract

G1 X101.955 Y139.56 E.95872 ; Fill: Print up/left
G1 E-.6 ; retract
G1 X102.671 Y139.56 F21000 ; Fill: Step right
G1 E.6 F1800 ;  ; unretract

G1 X113.405 Y128.826 E.95872 ; Fill: Print down/right
G1 E-.6 ; retract
G1 X114.121 Y128.826 F21000 ; Fill: Step right
G1 E.6 F1800 ;  ; unretract

G1 X103.387 Y139.56 E.95872 ; Fill: Print up/left
G1 E-.6 ; retract
G1 X104.103 Y139.56 F21000 ; Fill: Step right
G1 E.6 F1800 ;  ; unretract

G1 X114.837 Y128.826 E.95872 ; Fill: Print down/right
G1 E-.6 ; retract
G1 X115.553 Y128.826 F21000 ; Fill: Step right
G1 E.6 F1800 ;  ; unretract

G1 X104.819 Y139.56 E.95872 ; Fill: Print up/left
G1 E-.6 ; retract
G1 X105.535 Y139.56 F21000 ; Fill: Step right
G1 E.6 F1800 ;  ; unretract

G1 X116.269 Y128.826 E.95872 ; Fill: Print down/right
M73 P17 R7
G1 E-.6 ; retract
G1 X116.985 Y128.826 F21000 ; Fill: Step right
G1 E.6 F1800 ;  ; unretract

G1 X106.251 Y139.56 E.95872 ; Fill: Print up/left
G1 E-.6 ; retract
G1 X106.967 Y139.56 F21000 ; Fill: Step right
G1 E.6 F1800 ;  ; unretract

G1 X117.701 Y128.826 E.95872 ; Fill: Print down/right
G1 E-.6 ; retract
G1 X118.418 Y128.826 F21000 ; Fill: Step right
G1 E.6 F1800 ;  ; unretract

G1 X107.683 Y139.56 E.95872 ; Fill: Print up/left
G1 E-.6 ; retract
G1 X108.399 Y139.56 F21000 ; Fill: Step right
G1 E.6 F1800 ;  ; unretract

G1 X119.134 Y128.826 E.95872 ; Fill: Print down/right
G1 E-.6 ; retract
G1 X119.85 Y128.826 F21000 ; Fill: Step right
G1 E.6 F1800 ;  ; unretract

G1 X109.115 Y139.56 E.95872 ; Fill: Print up/left
G1 E-.6 ; retract
G1 X109.831 Y139.56 F21000 ; Fill: Step right
G1 E.6 F1800 ;  ; unretract

G1 X120.566 Y128.826 E.95872 ; Fill: Print down/right
G1 E-.6 ; retract
G1 X121.282 Y128.826 F21000 ; Fill: Step right
G1 E.6 F1800 ;  ; unretract

G1 X110.548 Y139.56 E.95872 ; Fill: Print up/left
G1 E-.6 ; retract
G1 X111.264 Y139.56 F21000 ; Fill: Step right
G1 E.6 F1800 ;  ; unretract

G1 X121.998 Y128.826 E.95872 ; Fill: Print down/right
M73 P18 R7
G1 E-.6 ; retract
G1 X122.714 Y128.826 F21000 ; Fill: Step right
G1 E.6 F1800 ;  ; unretract

G1 X111.98 Y139.56 E.95872 ; Fill: Print up/left
G1 E-.6 ; retract
G1 X112.696 Y139.56 F21000 ; Fill: Step right
G1 E.6 F1800 ;  ; unretract

G1 X123.344 Y128.911 E.95107 ; Fill: Print down/right
G1 E-.6 ; retract
G1 X123.344 Y129.627 F21000 ; Fill: Step up
G1 E.6 F1800 ;  ; unretract

G1 X113.412 Y139.56 E.88712 ; Fill: Print up/left
