; HEADER_BLOCK_START
; generated by OrcaSlicer 1.9.1 on 2024-03-02 at 12:52:44
; total layer number: 3
; filament_density: 1.24
; filament_diameter: 1.75
; max_z_height: 0.60
; HEADER_BLOCK_END

; THUMBNAIL_BLOCK_START

;
; THUMBNAIL_BLOCK_END

; external perimeters extrusion width = 0.40mm
; perimeters extrusion width = 0.45mm
; infill extrusion width = 0.45mm
; solid infill extrusion width = 0.40mm
; top infill extrusion width = 0.40mm
; support material extrusion width = 0.40mm
; first layer extrusion width = 0.50mm

; EXECUTABLE_BLOCK_START
EXCLUDE_OBJECT_DEFINE NAME=first_layer.stl_id_0_copy_0 CENTER=110,110 POLYGON=[[62.6389,62.6389],[157.361,62.6389],[157.361,157.361],[62.6389,157.361],[62.6389,62.6389]]
M73 P0 R14
;TYPE:Custom
START_PRINT NOZZLE_TEMP=210  BED_TEMP=60 

G90
G21
M83 ; use relative distances for extrusion
; filament start gcode
M106 S0
;LAYER_CHANGE
;Z:0.2
;HEIGHT:0.2
;BEFORE_LAYER_CHANGE
;0.2
G92 E0

G1 E-.4 F1800
;AFTER_LAYER_CHANGE
;0.2
;_SET_FAN_SPEED_CHANGING_LAYER
SET_VELOCITY_LIMIT ACCEL=500 ACCEL_TO_DECEL=250
; printing object first_layer.stl id:0 copy 0
EXCLUDE_OBJECT_START NAME=first_layer.stl_id_0_copy_0
G1 X156.197 Y156.197 F21000
G1 Z.4
G1 Z.2
G1 E.4 F1800
;TYPE:Inner wall
;WIDTH:0.499999
G1 F3000
G1 X63.803 Y156.197 E3.44132
G1 X63.803 Y63.803 E3.44132
G1 X156.197 Y63.803 E3.44132
G1 X156.197 Y110 E1.72066
G1 X156.197 Y156.157 E1.71917
M73 P1 R14
G1 X156.654 Y156.654 F21000
G1 F3000
G1 X63.346 Y156.654 E3.47537
M73 P1 R13
G1 X63.346 Y63.346 E3.47537
G1 X156.654 Y63.346 E3.47537
G1 X156.654 Y110 E1.73768
G1 X156.654 Y156.614 E1.73619
G1 X157.111 Y157.111 F21000
;TYPE:Outer wall
M73 P2 R13
G1 F3000
G1 X62.889 Y157.111 E3.50941
G1 X62.889 Y62.889 E3.50941
G1 X157.111 Y62.889 E3.50941
G1 X157.111 Y110 E1.75471
G1 X157.111 Y157.071 E1.75322
G1 E-.28 F1800
;WIPE_START
G1 F3000
G1 X156.111 Y157.072 E-.12
;WIPE_END
G1 X156.107 Y149.439 Z.6 F21000
G1 X156.06 Y64.865 Z.6
M73 P3 R13
G1 Z.2
G1 E.4 F1800
;TYPE:Bottom surface
;WIDTH:0.500258
G1 F6300
G1 X155.341 Y64.146 E.03789
G1 X154.694 Y64.146 E.0241
G1 X155.854 Y65.306 E.06113
G1 X155.854 Y65.953 E.0241
G1 X154.047 Y64.146 E.09522
G1 X153.401 Y64.146 E.0241
G1 X155.854 Y66.599 E.12931
G1 X155.854 Y67.246 E.0241
G1 X152.754 Y64.146 E.16339
G1 X152.107 Y64.146 E.0241
G1 X155.854 Y67.893 E.19748
G1 X155.854 Y68.54 E.0241
G1 X151.46 Y64.146 E.23157
G1 X150.814 Y64.146 E.0241
G1 X155.854 Y69.186 E.26566
G1 X155.854 Y69.833 E.0241
G1 X150.167 Y64.146 E.29974
G1 X149.52 Y64.146 E.0241
G1 X155.854 Y70.48 E.33383
G1 X155.854 Y71.127 E.0241
G1 X148.873 Y64.146 E.36792
G1 X148.226 Y64.146 E.0241
G1 X155.854 Y71.774 E.40201
G1 X155.854 Y72.42 E.0241
G1 X147.58 Y64.146 E.43609
G1 X146.933 Y64.146 E.0241
G1 X155.854 Y73.067 E.47018
G1 X155.854 Y73.714 E.0241
G1 X146.286 Y64.146 E.50427
G1 X145.639 Y64.146 E.0241
G1 X155.854 Y74.361 E.53836
G1 X155.854 Y75.007 E.0241
G1 X144.993 Y64.146 E.57244
G1 X144.346 Y64.146 E.0241
G1 X155.854 Y75.654 E.60653
G1 X155.854 Y76.301 E.0241
G1 X143.699 Y64.146 E.64062
G1 X143.052 Y64.146 E.0241
G1 X155.854 Y76.948 E.67471
G1 X155.854 Y77.594 E.0241
G1 X142.406 Y64.146 E.70879
G1 X141.759 Y64.146 E.0241
G1 X155.854 Y78.241 E.74288
G1 X155.854 Y78.888 E.0241
G1 X141.112 Y64.146 E.77697
G1 X140.465 Y64.146 E.0241
G1 X155.854 Y79.535 E.81106
G1 X155.854 Y80.182 E.0241
G1 X139.818 Y64.146 E.84514
G1 X139.172 Y64.146 E.0241
G1 X155.854 Y80.828 E.87923
G1 X155.854 Y81.475 E.0241
G1 X138.525 Y64.146 E.91332
M73 P4 R13
G1 X137.878 Y64.146 E.0241
G1 X155.854 Y82.122 E.94741
G1 X155.854 Y82.769 E.0241
G1 X137.231 Y64.146 E.98149
G1 X136.585 Y64.146 E.0241
G1 X155.854 Y83.415 E1.01558
G1 X155.854 Y84.062 E.0241
G1 X135.938 Y64.146 E1.04967
G1 X135.291 Y64.146 E.0241
G1 X155.854 Y84.709 E1.08376
G1 X155.854 Y85.356 E.0241
G1 X134.644 Y64.146 E1.11784
G1 X133.997 Y64.146 E.0241
G1 X155.854 Y86.003 E1.15193
G1 X155.854 Y86.649 E.0241
G1 X133.351 Y64.146 E1.18602
G1 X132.704 Y64.146 E.0241
G1 X155.854 Y87.296 E1.22011
G1 X155.854 Y87.943 E.0241
G1 X132.057 Y64.146 E1.25419
G1 X131.41 Y64.146 E.0241
G1 X155.854 Y88.59 E1.28828
G1 X155.854 Y89.236 E.0241
G1 X130.764 Y64.146 E1.32237
G1 X130.117 Y64.146 E.0241
G1 X155.854 Y89.883 E1.35646
G1 X155.854 Y90.53 E.0241
G1 X129.47 Y64.146 E1.39054
G1 X128.823 Y64.146 E.0241
G1 X155.854 Y91.177 E1.42463
G1 X155.854 Y91.824 E.0241
G1 X128.176 Y64.146 E1.45872
M73 P5 R13
G1 X127.53 Y64.146 E.0241
G1 X155.854 Y92.47 E1.49281
G1 X155.854 Y93.117 E.0241
G1 X126.883 Y64.146 E1.52689
G1 X126.236 Y64.146 E.0241
G1 X155.854 Y93.764 E1.56098
G1 X155.854 Y94.411 E.0241
G1 X125.589 Y64.146 E1.59507
G1 X124.943 Y64.146 E.0241
G1 X155.854 Y95.057 E1.62916
G1 X155.854 Y95.704 E.0241
G1 X124.296 Y64.146 E1.66324
G1 X123.649 Y64.146 E.0241
G1 X155.854 Y96.351 E1.69733
G1 X155.854 Y96.998 E.0241
G1 X123.002 Y64.146 E1.73142
G1 X122.356 Y64.146 E.0241
G1 X155.854 Y97.644 E1.76551
G1 X155.854 Y98.291 E.0241
G1 X121.709 Y64.146 E1.79959
G1 X121.062 Y64.146 E.0241
G1 X155.854 Y98.938 E1.83368
G1 X155.854 Y99.585 E.0241
G1 X120.415 Y64.146 E1.86777
G1 X119.768 Y64.146 E.0241
G1 X155.854 Y100.232 E1.90186
M73 P6 R13
G1 X155.854 Y100.878 E.0241
G1 X119.122 Y64.146 E1.93594
G1 X118.475 Y64.146 E.0241
G1 X155.854 Y101.525 E1.97003
G1 X155.854 Y102.172 E.0241
G1 X117.828 Y64.146 E2.00412
G1 X117.181 Y64.146 E.0241
G1 X155.854 Y102.819 E2.03821
G1 X155.854 Y103.465 E.0241
G1 X116.535 Y64.146 E2.07229
G1 X115.888 Y64.146 E.0241
G1 X155.854 Y104.112 E2.10638
G1 X155.854 Y104.759 E.0241
G1 X115.241 Y64.146 E2.14047
G1 X114.594 Y64.146 E.0241
G1 X155.854 Y105.406 E2.17456
G1 X155.854 Y106.053 E.0241
G1 X113.947 Y64.146 E2.20864
G1 X113.301 Y64.146 E.0241
G1 X155.854 Y106.699 E2.24273
G1 X155.854 Y107.346 E.0241
G1 X112.654 Y64.146 E2.27682
M73 P7 R13
G1 X112.007 Y64.146 E.0241
G1 X155.854 Y107.993 E2.3109
G1 X155.854 Y108.64 E.0241
G1 X111.36 Y64.146 E2.34499
G1 X110.714 Y64.146 E.0241
G1 X155.854 Y109.286 E2.37908
G1 X155.854 Y109.933 E.0241
G1 X110.067 Y64.146 E2.41317
G1 X109.42 Y64.146 E.0241
G1 X155.854 Y110.58 E2.44725
G1 X155.854 Y111.227 E.0241
G1 X108.773 Y64.146 E2.48134
G1 X108.127 Y64.146 E.0241
G1 X155.854 Y111.873 E2.51543
G1 X155.854 Y112.52 E.0241
G1 X107.48 Y64.146 E2.54952
G1 X106.833 Y64.146 E.0241
G1 X155.854 Y113.167 E2.5836
G1 X155.854 Y113.814 E.0241
G1 X106.186 Y64.146 E2.61769
M73 P8 R13
G1 X105.539 Y64.146 E.0241
G1 X155.854 Y114.461 E2.65178
G1 X155.854 Y115.107 E.0241
G1 X104.893 Y64.146 E2.68587
G1 X104.246 Y64.146 E.0241
G1 X155.854 Y115.754 E2.71995
M73 P8 R12
G1 X155.854 Y116.401 E.0241
G1 X103.599 Y64.146 E2.75404
G1 X102.952 Y64.146 E.0241
G1 X155.854 Y117.048 E2.78813
G1 X155.854 Y117.694 E.0241
G1 X102.306 Y64.146 E2.82222
G1 X101.659 Y64.146 E.0241
G1 X155.854 Y118.341 E2.8563
G1 X155.854 Y118.988 E.0241
G1 X101.012 Y64.146 E2.89039
G1 X100.365 Y64.146 E.0241
G1 X155.854 Y119.635 E2.92448
G1 X155.854 Y120.282 E.0241
G1 X99.718 Y64.146 E2.95857
M73 P9 R12
G1 X99.072 Y64.146 E.0241
G1 X155.854 Y120.928 E2.99265
G1 X155.854 Y121.575 E.0241
G1 X98.425 Y64.146 E3.02674
G1 X97.778 Y64.146 E.0241
G1 X155.854 Y122.222 E3.06083
G1 X155.854 Y122.869 E.0241
G1 X97.131 Y64.146 E3.09492
G1 X96.485 Y64.146 E.0241
G1 X155.854 Y123.515 E3.129
G1 X155.854 Y124.162 E.0241
G1 X95.838 Y64.146 E3.16309
G1 X95.191 Y64.146 E.0241
G1 X155.854 Y124.809 E3.19718
G1 X155.854 Y125.456 E.0241
G1 X94.544 Y64.146 E3.23127
M73 P10 R12
G1 X93.897 Y64.146 E.0241
G1 X155.854 Y126.103 E3.26535
G1 X155.854 Y126.749 E.0241
G1 X93.251 Y64.146 E3.29944
G1 X92.604 Y64.146 E.0241
G1 X155.854 Y127.396 E3.33353
G1 X155.854 Y128.043 E.0241
G1 X91.957 Y64.146 E3.36762
G1 X91.31 Y64.146 E.0241
G1 X155.854 Y128.69 E3.4017
G1 X155.854 Y129.336 E.0241
G1 X90.664 Y64.146 E3.43579
G1 X90.017 Y64.146 E.0241
G1 X155.854 Y129.983 E3.46988
G1 X155.854 Y130.63 E.0241
G1 X89.37 Y64.146 E3.50397
M73 P11 R12
G1 X88.723 Y64.146 E.0241
G1 X155.854 Y131.277 E3.53805
G1 X155.854 Y131.923 E.0241
G1 X88.077 Y64.146 E3.57214
G1 X87.43 Y64.146 E.0241
G1 X155.854 Y132.57 E3.60623
G1 X155.854 Y133.217 E.0241
G1 X86.783 Y64.146 E3.64032
G1 X86.136 Y64.146 E.0241
G1 X155.854 Y133.864 E3.6744
G1 X155.854 Y134.511 E.0241
G1 X85.489 Y64.146 E3.70849
G1 X84.843 Y64.146 E.0241
G1 X155.854 Y135.157 E3.74258
M73 P12 R12
G1 X155.854 Y135.804 E.0241
G1 X84.196 Y64.146 E3.77667
G1 X83.549 Y64.146 E.0241
G1 X155.854 Y136.451 E3.81075
G1 X155.854 Y137.098 E.0241
G1 X82.902 Y64.146 E3.84484
G1 X82.256 Y64.146 E.0241
G1 X155.854 Y137.744 E3.87893
G1 X155.854 Y138.391 E.0241
G1 X81.609 Y64.146 E3.91302
G1 X80.962 Y64.146 E.0241
G1 X155.854 Y139.038 E3.9471
G1 X155.854 Y139.685 E.0241
G1 X80.315 Y64.146 E3.98119
M73 P13 R12
G1 X79.668 Y64.146 E.0241
G1 X155.854 Y140.332 E4.01528
G1 X155.854 Y140.978 E.0241
G1 X79.022 Y64.146 E4.04937
G1 X78.375 Y64.146 E.0241
G1 X155.854 Y141.625 E4.08345
G1 X155.854 Y142.272 E.0241
G1 X77.728 Y64.146 E4.11754
G1 X77.081 Y64.146 E.0241
G1 X155.854 Y142.919 E4.15163
G1 X155.854 Y143.565 E.0241
G1 X76.435 Y64.146 E4.18572
G1 X75.788 Y64.146 E.0241
G1 X155.854 Y144.212 E4.2198
M73 P14 R12
G1 X155.854 Y144.859 E.0241
G1 X75.141 Y64.146 E4.25389
G1 X74.494 Y64.146 E.0241
G1 X155.854 Y145.506 E4.28798
G1 X155.854 Y146.152 E.0241
G1 X73.848 Y64.146 E4.32207
G1 X73.201 Y64.146 E.0241
G1 X155.854 Y146.799 E4.35615
G1 X155.854 Y147.446 E.0241
G1 X72.554 Y64.146 E4.39024
G1 X71.907 Y64.146 E.0241
G1 X155.854 Y148.093 E4.42433
G1 X155.854 Y148.74 E.0241
G1 X71.26 Y64.146 E4.45841
M73 P15 R12
G1 X70.614 Y64.146 E.0241
G1 X155.854 Y149.386 E4.4925
M73 P15 R11
G1 X155.854 Y150.033 E.0241
G1 X69.967 Y64.146 E4.52659
G1 X69.32 Y64.146 E.0241
G1 X155.854 Y150.68 E4.56068
G1 X155.854 Y151.327 E.0241
G1 X68.673 Y64.146 E4.59476
G1 X68.027 Y64.146 E.0241
G1 X155.854 Y151.973 E4.62885
G1 X155.854 Y152.62 E.0241
G1 X67.38 Y64.146 E4.66294
M73 P16 R11
G1 X66.733 Y64.146 E.0241
G1 X155.854 Y153.267 E4.69703
G1 X155.854 Y153.914 E.0241
G1 X66.086 Y64.146 E4.73111
G1 X65.439 Y64.146 E.0241
G1 X155.854 Y154.561 E4.7652
G1 X155.854 Y155.207 E.0241
G1 X64.793 Y64.146 E4.79929
G1 X64.146 Y64.146 E.0241
G1 X155.854 Y155.854 E4.83338
G1 X155.207 Y155.854 E.0241
G1 X64.146 Y64.793 E4.79929
M73 P17 R11
G1 X64.146 Y65.439 E.0241
G1 X154.561 Y155.854 E4.76521
G1 X153.914 Y155.854 E.0241
G1 X64.146 Y66.086 E4.73112
G1 X64.146 Y66.733 E.0241
G1 X153.267 Y155.854 E4.69703
G1 X152.62 Y155.854 E.0241
G1 X64.146 Y67.38 E4.66294
G1 X64.146 Y68.026 E.0241
G1 X151.974 Y155.854 E4.62886
G1 X151.327 Y155.854 E.0241
G1 X64.146 Y68.673 E4.59477
M73 P18 R11
G1 X64.146 Y69.32 E.0241
G1 X150.68 Y155.854 E4.56068
G1 X150.033 Y155.854 E.0241
G1 X64.146 Y69.967 E4.52659
G1 X64.146 Y70.614 E.0241
G1 X149.386 Y155.854 E4.49251
G1 X148.74 Y155.854 E.0241
G1 X64.146 Y71.26 E4.45842
G1 X64.146 Y71.907 E.0241
G1 X148.093 Y155.854 E4.42433
G1 X147.446 Y155.854 E.0241
G1 X64.146 Y72.554 E4.39024
M73 P19 R11
G1 X64.146 Y73.201 E.0241
G1 X146.799 Y155.854 E4.35616
G1 X146.153 Y155.854 E.0241
G1 X64.146 Y73.847 E4.32207
G1 X64.146 Y74.494 E.0241
G1 X145.506 Y155.854 E4.28798
G1 X144.859 Y155.854 E.0241
G1 X64.146 Y75.141 E4.25389
G1 X64.146 Y75.788 E.0241
G1 X144.212 Y155.854 E4.21981
G1 X143.565 Y155.854 E.0241
G1 X64.146 Y76.435 E4.18572
M73 P20 R11
G1 X64.146 Y77.081 E.0241
G1 X142.919 Y155.854 E4.15163
G1 X142.272 Y155.854 E.0241
G1 X64.146 Y77.728 E4.11754
G1 X64.146 Y78.375 E.0241
G1 X141.625 Y155.854 E4.08346
G1 X140.978 Y155.854 E.0241
G1 X64.146 Y79.022 E4.04937
G1 X64.146 Y79.668 E.0241
G1 X140.332 Y155.854 E4.01528
G1 X139.685 Y155.854 E.0241
G1 X64.146 Y80.315 E3.98119
G1 X64.146 Y80.962 E.0241
G1 X139.038 Y155.854 E3.94711
M73 P21 R11
G1 X138.391 Y155.854 E.0241
G1 X64.146 Y81.609 E3.91302
G1 X64.146 Y82.255 E.0241
G1 X137.745 Y155.854 E3.87893
G1 X137.098 Y155.854 E.0241
G1 X64.146 Y82.902 E3.84484
G1 X64.146 Y83.549 E.0241
G1 X136.451 Y155.854 E3.81076
G1 X135.804 Y155.854 E.0241
G1 X64.146 Y84.196 E3.77667
G1 X64.146 Y84.843 E.0241
G1 X135.157 Y155.854 E3.74258
G1 X134.511 Y155.854 E.0241
G1 X64.146 Y85.489 E3.70849
M73 P22 R11
G1 X64.146 Y86.136 E.0241
G1 X133.864 Y155.854 E3.67441
G1 X133.217 Y155.854 E.0241
G1 X64.146 Y86.783 E3.64032
G1 X64.146 Y87.43 E.0241
G1 X132.57 Y155.854 E3.60623
M73 P22 R10
G1 X131.924 Y155.854 E.0241
G1 X64.146 Y88.076 E3.57215
G1 X64.146 Y88.723 E.0241
G1 X131.277 Y155.854 E3.53806
G1 X130.63 Y155.854 E.0241
G1 X64.146 Y89.37 E3.50397
G1 X64.146 Y90.017 E.0241
G1 X129.983 Y155.854 E3.46988
G1 X129.336 Y155.854 E.0241
G1 X64.146 Y90.664 E3.4358
M73 P23 R10
G1 X64.146 Y91.31 E.0241
G1 X128.69 Y155.854 E3.40171
G1 X128.043 Y155.854 E.0241
G1 X64.146 Y91.957 E3.36762
G1 X64.146 Y92.604 E.0241
G1 X127.396 Y155.854 E3.33353
G1 X126.749 Y155.854 E.0241
G1 X64.146 Y93.251 E3.29945
G1 X64.146 Y93.897 E.0241
G1 X126.103 Y155.854 E3.26536
G1 X125.456 Y155.854 E.0241
G1 X64.146 Y94.544 E3.23127
G1 X64.146 Y95.191 E.0241
G1 X124.809 Y155.854 E3.19718
G1 X124.162 Y155.854 E.0241
G1 X64.146 Y95.838 E3.1631
M73 P24 R10
G1 X64.146 Y96.485 E.0241
G1 X123.515 Y155.854 E3.12901
G1 X122.869 Y155.854 E.0241
G1 X64.146 Y97.131 E3.09492
G1 X64.146 Y97.778 E.0241
G1 X122.222 Y155.854 E3.06083
G1 X121.575 Y155.854 E.0241
G1 X64.146 Y98.425 E3.02675
G1 X64.146 Y99.072 E.0241
G1 X120.928 Y155.854 E2.99266
G1 X120.282 Y155.854 E.0241
G1 X64.146 Y99.718 E2.95857
G1 X64.146 Y100.365 E.0241
G1 X119.635 Y155.854 E2.92448
G1 X118.988 Y155.854 E.0241
G1 X64.146 Y101.012 E2.8904
M73 P25 R10
G1 X64.146 Y101.659 E.0241
G1 X118.341 Y155.854 E2.85631
G1 X117.695 Y155.854 E.0241
G1 X64.146 Y102.305 E2.82222
G1 X64.146 Y102.952 E.0241
G1 X117.048 Y155.854 E2.78813
G1 X116.401 Y155.854 E.0241
G1 X64.146 Y103.599 E2.75405
G1 X64.146 Y104.246 E.0241
G1 X115.754 Y155.854 E2.71996
G1 X115.107 Y155.854 E.0241
G1 X64.146 Y104.893 E2.68587
G1 X64.146 Y105.539 E.0241
G1 X114.461 Y155.854 E2.65178
G1 X113.814 Y155.854 E.0241
G1 X64.146 Y106.186 E2.6177
G1 X64.146 Y106.833 E.0241
G1 X113.167 Y155.854 E2.58361
G1 X112.52 Y155.854 E.0241
G1 X64.146 Y107.48 E2.54952
M73 P26 R10
G1 X64.146 Y108.126 E.0241
G1 X111.874 Y155.854 E2.51543
G1 X111.227 Y155.854 E.0241
G1 X64.146 Y108.773 E2.48135
G1 X64.146 Y109.42 E.0241
G1 X110.58 Y155.854 E2.44726
G1 X109.933 Y155.854 E.0241
G1 X64.146 Y110.067 E2.41317
G1 X64.146 Y110.714 E.0241
G1 X109.286 Y155.854 E2.37908
G1 X108.64 Y155.854 E.0241
G1 X64.146 Y111.36 E2.345
G1 X64.146 Y112.007 E.0241
G1 X107.993 Y155.854 E2.31091
G1 X107.346 Y155.854 E.0241
G1 X64.146 Y112.654 E2.27682
G1 X64.146 Y113.301 E.0241
G1 X106.699 Y155.854 E2.24273
G1 X106.053 Y155.854 E.0241
G1 X64.146 Y113.947 E2.20865
M73 P27 R10
G1 X64.146 Y114.594 E.0241
G1 X105.406 Y155.854 E2.17456
G1 X104.759 Y155.854 E.0241
G1 X64.146 Y115.241 E2.14047
G1 X64.146 Y115.888 E.0241
G1 X104.112 Y155.854 E2.10638
G1 X103.466 Y155.854 E.0241
G1 X64.146 Y116.534 E2.0723
G1 X64.146 Y117.181 E.0241
G1 X102.819 Y155.854 E2.03821
G1 X102.172 Y155.854 E.0241
G1 X64.146 Y117.828 E2.00412
G1 X64.146 Y118.475 E.0241
G1 X101.525 Y155.854 E1.97003
G1 X100.878 Y155.854 E.0241
G1 X64.146 Y119.122 E1.93595
G1 X64.146 Y119.768 E.0241
G1 X100.232 Y155.854 E1.90186
G1 X99.585 Y155.854 E.0241
G1 X64.146 Y120.415 E1.86777
G1 X64.146 Y121.062 E.0241
G1 X98.938 Y155.854 E1.83368
M73 P28 R10
G1 X98.291 Y155.854 E.0241
G1 X64.146 Y121.709 E1.7996
G1 X64.146 Y122.355 E.0241
G1 X97.645 Y155.854 E1.76551
G1 X96.998 Y155.854 E.0241
G1 X64.146 Y123.002 E1.73142
G1 X64.146 Y123.649 E.0241
G1 X96.351 Y155.854 E1.69733
G1 X95.704 Y155.854 E.0241
G1 X64.146 Y124.296 E1.66325
G1 X64.146 Y124.943 E.0241
G1 X95.057 Y155.854 E1.62916
G1 X94.411 Y155.854 E.0241
G1 X64.146 Y125.589 E1.59507
G1 X64.146 Y126.236 E.0241
G1 X93.764 Y155.854 E1.56098
G1 X93.117 Y155.854 E.0241
G1 X64.146 Y126.883 E1.5269
G1 X64.146 Y127.53 E.0241
G1 X92.47 Y155.854 E1.49281
G1 X91.824 Y155.854 E.0241
G1 X64.146 Y128.176 E1.45872
G1 X64.146 Y128.823 E.0241
G1 X91.177 Y155.854 E1.42464
G1 X90.53 Y155.854 E.0241
G1 X64.146 Y129.47 E1.39055
G1 X64.146 Y130.117 E.0241
G1 X89.883 Y155.854 E1.35646
M73 P29 R10
G1 X89.236 Y155.854 E.0241
