; HEADER_BLOCK_START
; generated by OrcaSlicer 1.9.0 on 2024-01-23 at 10:24:06
; total layer number: 7
; filament_density: 1.24
; filament_diameter: 1.75
; max_z_height: 1.40
; HEADER_BLOCK_END

; THUMBNAIL_BLOCK_START

;
; THUMBNAIL_BLOCK_END

; external perimeters extrusion width = 0.40mm
; perimeters extrusion width = 0.45mm
; infill extrusion width = 0.45mm
; solid infill extrusion width = 0.48mm
; top infill extrusion width = 0.48mm
; first layer extrusion width = 0.50mm

; external perimeters extrusion width = 0.40mm
; perimeters extrusion width = 0.45mm
; infill extrusion width = 0.45mm
; solid infill extrusion width = 0.48mm
; top infill extrusion width = 0.48mm
; first layer extrusion width = 0.50mm

; external perimeters extrusion width = 0.40mm
; perimeters extrusion width = 0.45mm
; infill extrusion width = 0.45mm
; solid infill extrusion width = 0.48mm
; top infill extrusion width = 0.48mm
; first layer extrusion width = 0.50mm

; external perimeters extrusion width = 0.40mm
; perimeters extrusion width = 0.45mm
; infill extrusion width = 0.45mm
; solid infill extrusion width = 0.48mm
; top infill extrusion width = 0.48mm
; first layer extrusion width = 0.50mm

; external perimeters extrusion width = 0.40mm
; perimeters extrusion width = 0.45mm
; infill extrusion width = 0.45mm
; solid infill extrusion width = 0.48mm
; top infill extrusion width = 0.48mm
; first layer extrusion width = 0.50mm

; external perimeters extrusion width = 0.40mm
; perimeters extrusion width = 0.45mm
; infill extrusion width = 0.45mm
; solid infill extrusion width = 0.48mm
; top infill extrusion width = 0.48mm
; first layer extrusion width = 0.50mm

; external perimeters extrusion width = 0.40mm
; perimeters extrusion width = 0.45mm
; infill extrusion width = 0.45mm
; solid infill extrusion width = 0.48mm
; top infill extrusion width = 0.48mm
; first layer extrusion width = 0.50mm

; external perimeters extrusion width = 0.40mm
; perimeters extrusion width = 0.45mm
; infill extrusion width = 0.45mm
; solid infill extrusion width = 0.48mm
; top infill extrusion width = 0.48mm
; first layer extrusion width = 0.50mm

; external perimeters extrusion width = 0.40mm
; perimeters extrusion width = 0.45mm
; infill extrusion width = 0.45mm
; solid infill extrusion width = 0.48mm
; top infill extrusion width = 0.48mm
; first layer extrusion width = 0.50mm

; EXECUTABLE_BLOCK_START
EXCLUDE_OBJECT_DEFINE NAME=flowrate_0_id_0_copy_0 CENTER=110,110 POLYGON=[[90,95],[130,95],[130,115],[120,125],[100,125],[90,115],[90,95]]
EXCLUDE_OBJECT_DEFINE NAME=flowrate_10_id_1_copy_0 CENTER=152,142 POLYGON=[[132,127],[172,127],[172,147],[162,157],[142,157],[132,147],[132,127]]
EXCLUDE_OBJECT_DEFINE NAME=flowrate_15_id_2_copy_0 CENTER=110,142 POLYGON=[[90,127],[130,127],[130,147],[120,157],[100,157],[90,147],[90,127]]
EXCLUDE_OBJECT_DEFINE NAME=flowrate_20_id_3_copy_0 CENTER=68,142 POLYGON=[[48,127],[88,127],[88,147],[78,157],[58,157],[48,147],[48,127]]
EXCLUDE_OBJECT_DEFINE NAME=flowrate_5_id_4_copy_0 CENTER=68,110 POLYGON=[[48,95],[88,95],[88,115],[78,125],[58,125],[48,115],[48,95]]
EXCLUDE_OBJECT_DEFINE NAME=flowrate_m10_id_5_copy_0 CENTER=152,78 POLYGON=[[132,63],[172,63],[172,83],[162,93],[142,93],[132,83],[132,63]]
EXCLUDE_OBJECT_DEFINE NAME=flowrate_m15_id_6_copy_0 CENTER=110,78 POLYGON=[[90,63],[130,63],[130,83],[120,93],[100,93],[90,83],[90,63]]
EXCLUDE_OBJECT_DEFINE NAME=flowrate_m20_id_7_copy_0 CENTER=68,78 POLYGON=[[48,63],[88,63],[88,83],[78,93],[58,93],[48,83],[48,63]]
EXCLUDE_OBJECT_DEFINE NAME=flowrate_m5_id_8_copy_0 CENTER=152,110 POLYGON=[[132,95],[172,95],[172,115],[162,125],[142,125],[132,115],[132,95]]
M73 P0 R43
;TYPE:Custom
START_PRINT NOZZLE_TEMP=210  BED_TEMP=60 

G90
G21
M83 ; use relative distances for extrusion
; filament start gcode
M106 S0
;LAYER_CHANGE
;Z:0.2
;HEIGHT:0.2
;BEFORE_LAYER_CHANGE
;0.2
G92 E0

G1 E-.8 F1800
;AFTER_LAYER_CHANGE
;0.2
;_SET_FAN_SPEED_CHANGING_LAYER
SET_VELOCITY_LIMIT ACCEL=500 ACCEL_TO_DECEL=250
SET_VELOCITY_LIMIT SQUARE_CORNER_VELOCITY=8
; printing object flowrate_m20 id:7 copy 0
EXCLUDE_OBJECT_START NAME=flowrate_m20_id_7_copy_0
G1 Z.4 F21000
G1 X59.141 Y82.835
G1 Z.4
G1 Z.2
G1 E.8 F1800
;TYPE:Inner wall
;WIDTH:0.499999
G1 F3000
G1 X59.116 Y82.65 E.00568
G1 X58.969 Y82.339 E.01046
G1 X58.707 Y82.064 E.01153
G1 X58.392 Y81.898 E.01084
G1 X58.021 Y81.836 E.01142
G1 X49.164 Y81.836 E.26931
G1 X49.164 Y64.164 E.53731
G1 X86.836 Y64.164 E1.14541
G1 X86.836 Y73 E.26865
G1 X86.836 Y81.836 E.26865
G1 X78 Y81.836 E.26865
G1 X77.789 Y81.852 E.00642
G1 X77.441 Y81.97 E.0112
G1 X77.113 Y82.233 E.01277
G1 X76.909 Y82.577 E.01218
G1 X76.836 Y82.979 E.0124
G1 X76.836 Y91.836 E.26931
G1 X59.164 Y91.836 E.53731
G1 X59.164 Y83 E.26865
G1 X59.147 Y82.875 E.00384
G1 X58.695 Y82.909 F21000
G1 F3000
G1 X58.678 Y82.782 E.0039
G1 X58.541 Y82.531 E.00869
G1 X58.303 Y82.353 E.00902
G1 X58.021 Y82.293 E.00876
G1 X48.707 Y82.293 E.2832
G1 X48.707 Y63.707 E.5651
G1 X87.293 Y63.707 E1.1732
G1 X87.293 Y73 E.28255
G1 X87.293 Y82.293 E.28255
G1 X78 Y82.293 E.28255
G1 X77.81 Y82.314 E.00582
G1 X77.528 Y82.462 E.00968
G1 X77.353 Y82.697 E.0089
G1 X77.293 Y82.979 E.00875
G1 X77.293 Y92.293 E.2832
G1 X58.707 Y92.293 E.5651
G1 X58.707 Y83 E.28255
G1 X58.7 Y82.948 E.00159
G1 X58.25 Y82.979 F21000
;TYPE:Outer wall
G1 F3000
G1 X58.184 Y82.818 E.00529
G1 X58.021 Y82.75 E.00535
G1 X48.25 Y82.75 E.2971
G1 X48.25 Y63.25 E.5929
G1 X87.75 Y63.25 E1.201
G1 X87.75 Y73 E.29645
G1 X87.75 Y82.75 E.29645
G1 X77.979 Y82.75 E.2971
G1 X77.816 Y82.818 E.00535
G1 X77.75 Y82.979 E.00529
G1 X77.75 Y92.75 E.2971
G1 X58.25 Y92.75 E.5929
G1 X58.25 Y83.019 E.29589
G1 E-.56 F1800
;WIPE_START
G1 F3000
G1 X58.184 Y82.818 E-.05078
G1 X58.021 Y82.75 E-.04219
G1 X57.409 Y82.75 E-.14703
;WIPE_END
G1 Z.6 F21000
G1 X57.409 Y82.314 Z.6
G1 X87.314 Y63.686
G1 X87.314 Y65.236
G1 X86.699 Y65.236
G1 Z.2
G1 E.8 F1800
;TYPE:Bottom surface
;WIDTH:0.504948
G1 F6300
G1 X85.97 Y64.507 E.03168
G1 X85.317 Y64.507 E.02008
G1 X86.493 Y65.683 E.05114
G1 X86.493 Y66.337 E.02008
G1 X84.663 Y64.507 E.07954
G1 X84.01 Y64.507 E.02008
G1 X86.493 Y66.99 E.10794
G1 X86.493 Y67.644 E.02008
G1 X83.356 Y64.507 E.13634
G1 X82.703 Y64.507 E.02008
G1 X86.493 Y68.297 E.16474
G1 X86.493 Y68.951 E.02008
G1 X82.049 Y64.507 E.19314
G1 X81.396 Y64.507 E.02008
G1 X86.493 Y69.604 E.22154
G1 X86.493 Y70.257 E.02008
G1 X80.743 Y64.507 E.24994
G1 X80.089 Y64.507 E.02008
G1 X86.493 Y70.911 E.27834
G1 X86.493 Y71.564 E.02008
G1 X79.436 Y64.507 E.30674
G1 X78.782 Y64.507 E.02008
G1 X86.493 Y72.218 E.33514
G1 X86.493 Y72.871 E.02008
G1 X78.129 Y64.507 E.36354
G1 X77.476 Y64.507 E.02008
G1 X86.493 Y73.524 E.39194
G1 X86.493 Y74.178 E.02008
G1 X76.822 Y64.507 E.42034
G1 X76.169 Y64.507 E.02008
G1 X86.493 Y74.831 E.44874
G1 X86.493 Y75.485 E.02008
G1 X75.515 Y64.507 E.47714
G1 X74.862 Y64.507 E.02008
G1 X86.493 Y76.138 E.50554
G1 X86.493 Y76.791 E.02008
G1 X74.209 Y64.507 E.53394
G1 X73.555 Y64.507 E.02008
G1 X86.493 Y77.445 E.56234
G1 X86.493 Y78.098 E.02008
G1 X72.902 Y64.507 E.59074
G1 X72.248 Y64.507 E.02008
G1 X86.493 Y78.752 E.61914
G1 X86.493 Y79.405 E.02008
G1 X71.595 Y64.507 E.64754
G1 X70.942 Y64.507 E.02008
G1 X86.493 Y80.058 E.67594
G1 X86.493 Y80.712 E.02008
G1 X70.288 Y64.507 E.70434
G1 X69.635 Y64.507 E.02008
G1 X86.493 Y81.365 E.73274
G1 X86.493 Y81.493 E.00393
G1 X85.968 Y81.493 E.01614
G1 X68.981 Y64.507 E.73831
G1 X68.328 Y64.507 E.02008
G1 X85.315 Y81.494 E.73833
G1 X84.662 Y81.494 E.02007
G1 X67.675 Y64.507 E.73834
G1 X67.021 Y64.507 E.02008
G1 X84.009 Y81.494 E.73836
G1 X83.356 Y81.495 E.02007
G1 X66.368 Y64.507 E.73837
G1 X65.714 Y64.507 E.02008
G1 X82.703 Y81.495 E.73839
G1 X82.049 Y81.496 E.02007
G1 X65.061 Y64.507 E.7384
G1 X64.408 Y64.507 E.02008
G1 X81.396 Y81.496 E.73842
G1 X80.743 Y81.496 E.02007
G1 X63.754 Y64.507 E.73843
G1 X63.101 Y64.507 E.02008
G1 X80.09 Y81.497 E.73845
G1 X79.437 Y81.497 E.02007
G1 X62.447 Y64.507 E.73846
G1 X61.794 Y64.507 E.02008
G1 X78.784 Y81.497 E.73848
G1 X78.131 Y81.498 E.02007
G1 X61.14 Y64.507 E.7385
G1 X60.487 Y64.507 E.02008
G1 X77.543 Y81.563 E.74132
G1 X77.367 Y81.624 E.00572
G1 X77.105 Y81.779 E.00934
M73 P1 R43
G1 X59.834 Y64.507 E.75071
G1 X59.18 Y64.507 E.02008
G1 X76.78 Y82.107 E.76497
G1 X76.623 Y82.37 E.00941
G1 X76.565 Y82.545 E.00568
G1 X58.527 Y64.507 E.78401
G1 X57.873 Y64.507 E.02008
G1 X76.497 Y83.13 E.80946
G1 X76.496 Y83.783 E.02007
G1 X57.22 Y64.507 E.83784
G1 X56.567 Y64.507 E.02008
G1 X76.496 Y84.437 E.86623
G1 X76.496 Y85.09 E.02007
G1 X55.913 Y64.507 E.89462
M73 P1 R42
G1 X55.26 Y64.507 E.02008
G1 X76.496 Y85.743 E.92301
G1 X76.495 Y86.396 E.02007
G1 X54.606 Y64.507 E.9514
G1 X53.953 Y64.507 E.02008
G1 X76.495 Y87.049 E.97978
G1 X76.495 Y87.702 E.02007
G1 X53.3 Y64.507 E1.00817
G1 X52.646 Y64.507 E.02008
G1 X76.494 Y88.355 E1.03656
G1 X76.494 Y89.008 E.02007
G1 X51.993 Y64.507 E1.06495
G1 X51.339 Y64.507 E.02008
G1 X76.494 Y89.661 E1.09333
G1 X76.494 Y90.315 E.02007
G1 X50.686 Y64.507 E1.12172
G1 X50.033 Y64.507 E.02008
G1 X76.493 Y90.968 E1.15011
G1 X76.493 Y91.493 E.01615
G1 X76.365 Y91.493 E.00393
G1 X49.507 Y64.635 E1.16739
G1 X49.507 Y65.288 E.02008
G1 X75.712 Y91.493 E1.13899
G1 X75.058 Y91.493 E.02008
G1 X49.507 Y65.942 E1.11059
G1 X49.507 Y66.595 E.02008
G1 X74.405 Y91.493 E1.08219
G1 X73.752 Y91.493 E.02008
G1 X49.507 Y67.248 E1.05379
G1 X49.507 Y67.902 E.02008
G1 X73.098 Y91.493 E1.02539
G1 X72.445 Y91.493 E.02008
G1 X49.507 Y68.555 E.99699
G1 X49.507 Y69.209 E.02008
G1 X71.791 Y91.493 E.96859
G1 X71.138 Y91.493 E.02008
G1 X49.507 Y69.862 E.94019
G1 X49.507 Y70.515 E.02008
G1 X70.485 Y91.493 E.91179
G1 X69.831 Y91.493 E.02008
G1 X49.507 Y71.169 E.88339
G1 X49.507 Y71.822 E.02008
G1 X69.178 Y91.493 E.85499
G1 X68.524 Y91.493 E.02008
G1 X49.507 Y72.476 E.82659
G1 X49.507 Y73.129 E.02008
G1 X57.876 Y81.498 E.36374
G1 X57.222 Y81.497 E.02009
G1 X49.507 Y73.782 E.33532
G1 X49.507 Y74.436 E.02008
G1 X56.568 Y81.497 E.30691
G1 X55.914 Y81.497 E.02009
G1 X49.507 Y75.089 E.27849
G1 X49.507 Y75.743 E.02008
G1 X55.261 Y81.496 E.25008
G1 X54.607 Y81.496 E.02009
G1 X49.507 Y76.396 E.22166
G1 X49.507 Y77.049 E.02008
G1 X53.953 Y81.496 E.19325
G1 X53.299 Y81.495 E.02009
G1 X49.507 Y77.703 E.16483
G1 X49.507 Y78.356 E.02008
G1 X52.645 Y81.495 E.13642
G1 X51.992 Y81.494 E.02009
G1 X49.507 Y79.01 E.108
G1 X49.507 Y79.663 E.02008
G1 X51.338 Y81.494 E.07958
G1 X50.684 Y81.494 E.02009
G1 X49.507 Y80.316 E.05117
G1 X49.507 Y80.97 E.02008
G1 X50.236 Y81.699 E.0317
G1 E-.56 F1800
;WIPE_START
G1 F6300
G1 X49.529 Y80.992 E-.24
;WIPE_END
G1 Z.6 F21000
G1 X59.297 Y82.92 Z.6
G1 Z.2
G1 E.8 F1800
G1 F6300
G1 X67.871 Y91.493 E.37265
G1 X67.218 Y91.493 E.02008
G1 X59.504 Y83.779 E.33529
G1 X59.504 Y84.433 E.02009
G1 X66.564 Y91.493 E.30688
G1 X65.911 Y91.493 E.02008
G1 X59.504 Y85.086 E.27846
G1 X59.504 Y85.74 E.02009
G1 X65.257 Y91.493 E.25005
G1 X64.604 Y91.493 E.02008
G1 X59.505 Y86.394 E.22164
G1 X59.505 Y87.047 E.02009
G1 X63.951 Y91.493 E.19323
G1 X63.297 Y91.493 E.02008
G1 X59.505 Y87.701 E.16481
G1 X59.506 Y88.355 E.02009
G1 X62.644 Y91.493 E.1364
G1 X61.99 Y91.493 E.02008
G1 X59.506 Y89.009 E.10799
G1 X59.506 Y89.662 E.02009
G1 X61.337 Y91.493 E.07958
G1 X60.684 Y91.493 E.02008
G1 X59.506 Y90.316 E.05116
G1 X59.507 Y90.97 E.02009
G1 X60.236 Y91.699 E.03169
; stop printing object flowrate_m20 id:7 copy 0
; printing object flowrate_5 id:4 copy 0
G1 E-.56 F1800
;WIPE_START
G1 F6300
G1 X59.529 Y90.992 E-.24
;WIPE_END
EXCLUDE_OBJECT_END NAME=flowrate_m20_id_7_copy_0
EXCLUDE_OBJECT_START NAME=flowrate_5_id_4_copy_0
G1 Z.6 F21000
G1 X59.141 Y114.835 Z.6
G1 Z.2
G1 E.8 F1800
;TYPE:Inner wall
;WIDTH:0.499999
G1 F3000
G1 X59.116 Y114.65 E.00746
G1 X58.969 Y114.339 E.01373
G1 X58.707 Y114.064 E.01514
G1 X58.392 Y113.898 E.01422
G1 X58.021 Y113.836 E.01499
G1 X49.164 Y113.836 E.35346
G1 X49.164 Y96.164 E.70522
G1 X86.836 Y96.164 E1.50335
G1 X86.836 Y105 E.35261
G1 X86.836 Y113.836 E.35261
G1 X78 Y113.836 E.35261
G1 X77.789 Y113.852 E.00843
G1 X77.441 Y113.97 E.0147
G1 X77.113 Y114.233 E.01676
G1 X76.909 Y114.577 E.01599
G1 X76.836 Y114.979 E.01627
G1 X76.836 Y123.836 E.35346
G1 X59.164 Y123.836 E.70522
G1 X59.164 Y115 E.35261
G1 X59.147 Y114.875 E.00504
G1 X58.695 Y114.909 F21000
G1 F3000
G1 X58.678 Y114.782 E.00511
G1 X58.541 Y114.531 E.0114
G1 X58.303 Y114.353 E.01184
G1 X58.021 Y114.293 E.01149
G1 X48.707 Y114.293 E.37171
G1 X48.707 Y95.707 E.7417
G1 X87.293 Y95.707 E1.53983
M73 P2 R42
G1 X87.293 Y105 E.37085
G1 X87.293 Y114.293 E.37085
G1 X78 Y114.293 E.37085
G1 X77.81 Y114.314 E.00764
G1 X77.528 Y114.462 E.01271
G1 X77.353 Y114.697 E.01169
G1 X77.293 Y114.979 E.01148
G1 X77.293 Y124.293 E.37171
G1 X58.707 Y124.293 E.7417
G1 X58.707 Y115 E.37085
G1 X58.7 Y114.948 E.00209
G1 X58.25 Y114.979 F21000
;TYPE:Outer wall
G1 F3000
G1 X58.184 Y114.818 E.00695
G1 X58.021 Y114.75 E.00702
G1 X48.25 Y114.75 E.38995
G1 X48.25 Y95.25 E.77818
G1 X87.75 Y95.25 E1.57631
G1 X87.75 Y105 E.38909
G1 X87.75 Y114.75 E.38909
G1 X77.979 Y114.75 E.38995
G1 X77.816 Y114.818 E.00702
G1 X77.75 Y114.979 E.00695
G1 X77.75 Y124.75 E.38995
G1 X58.25 Y124.75 E.77818
G1 X58.25 Y115.019 E.38835
G1 E-.56 F1800
;WIPE_START
G1 F3000
G1 X58.184 Y114.818 E-.05078
G1 X58.021 Y114.75 E-.04219
G1 X57.409 Y114.75 E-.14703
;WIPE_END
G1 Z.6 F21000
G1 X57.409 Y114.314 Z.6
G1 X87.314 Y95.686
G1 X87.314 Y97.236
G1 X86.699 Y97.236
G1 Z.2
G1 E.8 F1800
;TYPE:Bottom surface
;WIDTH:0.504948
G1 F6300
G1 X85.97 Y96.507 E.04158
G1 X85.317 Y96.507 E.02636
G1 X86.493 Y97.683 E.06712
G1 X86.493 Y98.337 E.02636
G1 X84.663 Y96.507 E.10439
G1 X84.01 Y96.507 E.02636
G1 X86.493 Y98.99 E.14167
G1 X86.493 Y99.644 E.02636
G1 X83.356 Y96.507 E.17894
G1 X82.703 Y96.507 E.02636
G1 X86.493 Y100.297 E.21622
G1 X86.493 Y100.951 E.02636
G1 X82.049 Y96.507 E.25349
G1 X81.396 Y96.507 E.02636
G1 X86.493 Y101.604 E.29077
G1 X86.493 Y102.257 E.02636
G1 X80.743 Y96.507 E.32804
G1 X80.089 Y96.507 E.02636
G1 X86.493 Y102.911 E.36532
G1 X86.493 Y103.564 E.02636
G1 X79.436 Y96.507 E.40259
G1 X78.782 Y96.507 E.02636
G1 X86.493 Y104.218 E.43987
G1 X86.493 Y104.871 E.02636
G1 X78.129 Y96.507 E.47714
G1 X77.476 Y96.507 E.02636
G1 X86.493 Y105.524 E.51442
G1 X86.493 Y106.178 E.02636
G1 X76.822 Y96.507 E.55169
G1 X76.169 Y96.507 E.02636
G1 X86.493 Y106.831 E.58897
G1 X86.493 Y107.485 E.02636
G1 X75.515 Y96.507 E.62624
G1 X74.862 Y96.507 E.02636
G1 X86.493 Y108.138 E.66352
G1 X86.493 Y108.791 E.02636
G1 X74.209 Y96.507 E.7008
G1 X73.555 Y96.507 E.02636
G1 X86.493 Y109.445 E.73807
G1 X86.493 Y110.098 E.02636
G1 X72.902 Y96.507 E.77535
G1 X72.248 Y96.507 E.02636
G1 X86.493 Y110.752 E.81262
G1 X86.493 Y111.405 E.02636
G1 X71.595 Y96.507 E.8499
G1 X70.942 Y96.507 E.02636
G1 X86.493 Y112.058 E.88717
G1 X86.493 Y112.712 E.02636
G1 X70.288 Y96.507 E.92445
G1 X69.635 Y96.507 E.02636
G1 X86.493 Y113.365 E.96172
G1 X86.493 Y113.493 E.00516
G1 X85.968 Y113.493 E.02119
G1 X68.981 Y96.507 E.96903
G1 X68.328 Y96.507 E.02636
G1 X85.315 Y113.494 E.96905
G1 X84.662 Y113.494 E.02634
G1 X67.675 Y96.507 E.96907
G1 X67.021 Y96.507 E.02636
G1 X84.009 Y113.494 E.96909
G1 X83.356 Y113.495 E.02634
G1 X66.368 Y96.507 E.96911
G1 X65.714 Y96.507 E.02636
G1 X82.703 Y113.495 E.96913
G1 X82.049 Y113.496 E.02634
G1 X65.061 Y96.507 E.96915
G1 X64.408 Y96.507 E.02636
G1 X81.396 Y113.496 E.96917
G1 X80.743 Y113.496 E.02634
G1 X63.754 Y96.507 E.96919
G1 X63.101 Y96.507 E.02636
G1 X80.09 Y113.497 E.96921
G1 X79.437 Y113.497 E.02634
G1 X62.447 Y96.507 E.96924
G1 X61.794 Y96.507 E.02636
G1 X78.784 Y113.497 E.96926
G1 X78.131 Y113.498 E.02634
G1 X61.14 Y96.507 E.96928
G1 X60.487 Y96.507 E.02636
G1 X77.543 Y113.563 E.97299
G1 X77.367 Y113.624 E.00751
G1 X77.105 Y113.779 E.01226
G1 X59.834 Y96.507 E.98531
G1 X59.18 Y96.507 E.02636
G1 X76.78 Y114.107 E1.00402
G1 X76.623 Y114.37 E.01235
G1 X76.565 Y114.545 E.00745
G1 X58.527 Y96.507 E1.02901
G1 X57.873 Y96.507 E.02636
G1 X76.497 Y115.13 E1.06241
G1 X76.496 Y115.783 E.02635
G1 X57.22 Y96.507 E1.09967
G1 X56.567 Y96.507 E.02636
G1 X76.496 Y116.437 E1.13693
G1 X76.496 Y117.09 E.02635
G1 X55.913 Y96.507 E1.17419
