; HEADER_BLOCK_START
; generated by OrcaSlicer 1.9.0 on 2024-01-23 at 11:45:49
; total layer number: 7
; filament_density: 1.24
; filament_diameter: 1.75
; max_z_height: 1.40
; HEADER_BLOCK_END

; THUMBNAIL_BLOCK_START

;
; THUMBNAIL_BLOCK_END

; external perimeters extrusion width = 0.40mm
; perimeters extrusion width = 0.45mm
; infill extrusion width = 0.45mm
; solid infill extrusion width = 0.48mm
; top infill extrusion width = 0.48mm
; first layer extrusion width = 0.50mm

; external perimeters extrusion width = 0.40mm
; perimeters extrusion width = 0.45mm
; infill extrusion width = 0.45mm
; solid infill extrusion width = 0.48mm
; top infill extrusion width = 0.48mm
; first layer extrusion width = 0.50mm

; external perimeters extrusion width = 0.40mm
; perimeters extrusion width = 0.45mm
; infill extrusion width = 0.45mm
; solid infill extrusion width = 0.48mm
; top infill extrusion width = 0.48mm
; first layer extrusion width = 0.50mm

; external perimeters extrusion width = 0.40mm
; perimeters extrusion width = 0.45mm
; infill extrusion width = 0.45mm
; solid infill extrusion width = 0.48mm
; top infill extrusion width = 0.48mm
; first layer extrusion width = 0.50mm

; external perimeters extrusion width = 0.40mm
; perimeters extrusion width = 0.45mm
; infill extrusion width = 0.45mm
; solid infill extrusion width = 0.48mm
; top infill extrusion width = 0.48mm
; first layer extrusion width = 0.50mm

; external perimeters extrusion width = 0.40mm
; perimeters extrusion width = 0.45mm
; infill extrusion width = 0.45mm
; solid infill extrusion width = 0.48mm
; top infill extrusion width = 0.48mm
; first layer extrusion width = 0.50mm

; external perimeters extrusion width = 0.40mm
; perimeters extrusion width = 0.45mm
; infill extrusion width = 0.45mm
; solid infill extrusion width = 0.48mm
; top infill extrusion width = 0.48mm
; first layer extrusion width = 0.50mm

; external perimeters extrusion width = 0.40mm
; perimeters extrusion width = 0.45mm
; infill extrusion width = 0.45mm
; solid infill extrusion width = 0.48mm
; top infill extrusion width = 0.48mm
; first layer extrusion width = 0.50mm

; external perimeters extrusion width = 0.40mm
; perimeters extrusion width = 0.45mm
; infill extrusion width = 0.45mm
; solid infill extrusion width = 0.48mm
; top infill extrusion width = 0.48mm
; first layer extrusion width = 0.50mm

; EXECUTABLE_BLOCK_START
EXCLUDE_OBJECT_DEFINE NAME=flowrate_0_id_0_copy_0 CENTER=110,110 POLYGON=[[90,95],[130,95],[130,115],[120,125],[100,125],[90,115],[90,95]]
EXCLUDE_OBJECT_DEFINE NAME=flowrate_10_id_1_copy_0 CENTER=152,142 POLYGON=[[132,127],[172,127],[172,147],[162,157],[142,157],[132,147],[132,127]]
EXCLUDE_OBJECT_DEFINE NAME=flowrate_15_id_2_copy_0 CENTER=110,142 POLYGON=[[90,127],[130,127],[130,147],[120,157],[100,157],[90,147],[90,127]]
EXCLUDE_OBJECT_DEFINE NAME=flowrate_20_id_3_copy_0 CENTER=68,142 POLYGON=[[48,127],[88,127],[88,147],[78,157],[58,157],[48,147],[48,127]]
EXCLUDE_OBJECT_DEFINE NAME=flowrate_5_id_4_copy_0 CENTER=68,110 POLYGON=[[48,95],[88,95],[88,115],[78,125],[58,125],[48,115],[48,95]]
EXCLUDE_OBJECT_DEFINE NAME=flowrate_m10_id_5_copy_0 CENTER=152,78 POLYGON=[[132,63],[172,63],[172,83],[162,93],[142,93],[132,83],[132,63]]
EXCLUDE_OBJECT_DEFINE NAME=flowrate_m15_id_6_copy_0 CENTER=110,78 POLYGON=[[90,63],[130,63],[130,83],[120,93],[100,93],[90,83],[90,63]]
EXCLUDE_OBJECT_DEFINE NAME=flowrate_m20_id_7_copy_0 CENTER=68,78 POLYGON=[[48,63],[88,63],[88,83],[78,93],[58,93],[48,83],[48,63]]
EXCLUDE_OBJECT_DEFINE NAME=flowrate_m5_id_8_copy_0 CENTER=152,110 POLYGON=[[132,95],[172,95],[172,115],[162,125],[142,125],[132,115],[132,95]]
M73 P0 R43
;TYPE:Custom
START_PRINT NOZZLE_TEMP=210  BED_TEMP=60 

G90
G21
M83 ; use relative distances for extrusion
; filament start gcode
M106 S0
;LAYER_CHANGE
;Z:0.2
;HEIGHT:0.2
;BEFORE_LAYER_CHANGE
;0.2
G92 E0

G1 E-.8 F1800
;AFTER_LAYER_CHANGE
;0.2
;_SET_FAN_SPEED_CHANGING_LAYER
SET_VELOCITY_LIMIT ACCEL=500 ACCEL_TO_DECEL=250
SET_VELOCITY_LIMIT SQUARE_CORNER_VELOCITY=8
; printing object flowrate_m20 id:7 copy 0
EXCLUDE_OBJECT_START NAME=flowrate_m20_id_7_copy_0
G1 Z.4 F21000
G1 X59.141 Y82.835
G1 Z.4
G1 Z.2
G1 E.8 F1800
;TYPE:Inner wall
;WIDTH:0.499999
G1 F3000
G1 X59.116 Y82.65 E.00682
G1 X58.969 Y82.339 E.01256
G1 X58.707 Y82.064 E.01384
G1 X58.392 Y81.898 E.013
G1 X58.021 Y81.836 E.01371
G1 X49.164 Y81.836 E.32317
G1 X49.164 Y64.164 E.64477
G1 X86.836 Y64.164 E1.37449
G1 X86.836 Y73 E.32238
G1 X86.836 Y81.836 E.32238
G1 X78 Y81.836 E.32238
G1 X77.789 Y81.852 E.00771
G1 X77.441 Y81.97 E.01344
G1 X77.113 Y82.233 E.01532
G1 X76.909 Y82.577 E.01462
G1 X76.836 Y82.979 E.01488
G1 X76.836 Y91.836 E.32317
G1 X59.164 Y91.836 E.64477
G1 X59.164 Y83 E.32238
G1 X59.147 Y82.875 E.00461
G1 X58.695 Y82.909 F21000
G1 F3000
G1 X58.678 Y82.782 E.00467
G1 X58.541 Y82.531 E.01042
G1 X58.303 Y82.353 E.01083
G1 X58.021 Y82.293 E.01051
G1 X48.707 Y82.293 E.33984
G1 X48.707 Y63.707 E.67812
G1 X87.293 Y63.707 E1.40784
G1 X87.293 Y73 E.33906
G1 X87.293 Y82.293 E.33906
G1 X78 Y82.293 E.33906
G1 X77.81 Y82.314 E.00698
G1 X77.528 Y82.462 E.01162
G1 X77.353 Y82.697 E.01068
G1 X77.293 Y82.979 E.0105
G1 X77.293 Y92.293 E.33984
G1 X58.707 Y92.293 E.67812
G1 X58.707 Y83 E.33906
G1 X58.7 Y82.948 E.00191
G1 X58.25 Y82.979 F21000
;TYPE:Outer wall
G1 F3000
G1 X58.184 Y82.818 E.00635
G1 X58.021 Y82.75 E.00641
G1 X48.25 Y82.75 E.35652
G1 X48.25 Y63.25 E.71148
G1 X87.75 Y63.25 E1.4412
G1 X87.75 Y73 E.35574
G1 X87.75 Y82.75 E.35574
G1 X77.979 Y82.75 E.35652
G1 X77.816 Y82.818 E.00641
G1 X77.75 Y82.979 E.00635
G1 X77.75 Y92.75 E.35652
G1 X58.25 Y92.75 E.71148
G1 X58.25 Y83.019 E.35506
G1 E-.56 F1800
;WIPE_START
G1 F3000
G1 X58.184 Y82.818 E-.05078
G1 X58.021 Y82.75 E-.04219
G1 X57.409 Y82.75 E-.14703
;WIPE_END
G1 Z.6 F21000
G1 X57.409 Y82.314 Z.6
G1 X87.314 Y63.686
G1 X87.314 Y65.236
G1 X86.699 Y65.236
G1 Z.2
G1 E.8 F1800
;TYPE:Bottom surface
;WIDTH:0.504948
G1 F6300
G1 X85.97 Y64.507 E.03801
G1 X85.317 Y64.507 E.0241
G1 X86.493 Y65.683 E.06136
G1 X86.493 Y66.337 E.0241
G1 X84.663 Y64.507 E.09544
G1 X84.01 Y64.507 E.0241
G1 X86.493 Y66.99 E.12952
G1 X86.493 Y67.644 E.0241
G1 X83.356 Y64.507 E.1636
G1 X82.703 Y64.507 E.0241
G1 X86.493 Y68.297 E.19768
G1 X86.493 Y68.951 E.0241
G1 X82.049 Y64.507 E.23176
G1 X81.396 Y64.507 E.0241
G1 X86.493 Y69.604 E.26584
G1 X86.493 Y70.257 E.0241
G1 X80.743 Y64.507 E.29993
G1 X80.089 Y64.507 E.0241
G1 X86.493 Y70.911 E.33401
G1 X86.493 Y71.564 E.0241
G1 X79.436 Y64.507 E.36809
G1 X78.782 Y64.507 E.0241
G1 X86.493 Y72.218 E.40217
G1 X86.493 Y72.871 E.0241
G1 X78.129 Y64.507 E.43625
G1 X77.476 Y64.507 E.0241
G1 X86.493 Y73.524 E.47033
G1 X86.493 Y74.178 E.0241
G1 X76.822 Y64.507 E.50441
G1 X76.169 Y64.507 E.0241
G1 X86.493 Y74.831 E.53849
G1 X86.493 Y75.485 E.0241
G1 X75.515 Y64.507 E.57257
G1 X74.862 Y64.507 E.0241
G1 X86.493 Y76.138 E.60665
G1 X86.493 Y76.791 E.0241
G1 X74.209 Y64.507 E.64073
G1 X73.555 Y64.507 E.0241
G1 X86.493 Y77.445 E.67481
G1 X86.493 Y78.098 E.0241
G1 X72.902 Y64.507 E.70889
G1 X72.248 Y64.507 E.0241
G1 X86.493 Y78.752 E.74297
G1 X86.493 Y79.405 E.0241
G1 X71.595 Y64.507 E.77705
G1 X70.942 Y64.507 E.0241
G1 X86.493 Y80.058 E.81113
G1 X86.493 Y80.712 E.0241
G1 X70.288 Y64.507 E.84521
G1 X69.635 Y64.507 E.0241
G1 X86.493 Y81.365 E.87929
G1 X86.493 Y81.493 E.00472
G1 X85.968 Y81.493 E.01937
G1 X68.981 Y64.507 E.88597
G1 X68.328 Y64.507 E.0241
G1 X85.315 Y81.494 E.88599
G1 X84.662 Y81.494 E.02409
G1 X67.675 Y64.507 E.88601
G1 X67.021 Y64.507 E.0241
G1 X84.009 Y81.494 E.88603
G1 X83.356 Y81.495 E.02409
G1 X66.368 Y64.507 E.88605
G1 X65.714 Y64.507 E.0241
G1 X82.703 Y81.495 E.88607
G1 X82.049 Y81.496 E.02409
G1 X65.061 Y64.507 E.88608
G1 X64.408 Y64.507 E.0241
G1 X81.396 Y81.496 E.8861
G1 X80.743 Y81.496 E.02409
G1 X63.754 Y64.507 E.88612
G1 X63.101 Y64.507 E.0241
G1 X80.09 Y81.497 E.88614
G1 X79.437 Y81.497 E.02409
G1 X62.447 Y64.507 E.88616
G1 X61.794 Y64.507 E.0241
G1 X78.784 Y81.497 E.88618
G1 X78.131 Y81.498 E.02409
G1 X61.14 Y64.507 E.88619
G1 X60.487 Y64.507 E.0241
G1 X77.543 Y81.563 E.88959
G1 X77.367 Y81.624 E.00687
G1 X77.105 Y81.779 E.01121
G1 X59.834 Y64.507 E.90085
M73 P1 R43
G1 X59.18 Y64.507 E.0241
G1 X76.78 Y82.107 E.91796
G1 X76.623 Y82.37 E.01129
G1 X76.565 Y82.545 E.00681
G1 X58.527 Y64.507 E.94081
G1 X57.873 Y64.507 E.0241
G1 X76.497 Y83.13 E.97135
G1 X76.496 Y83.783 E.02409
G1 X57.22 Y64.507 E1.00541
G1 X56.567 Y64.507 E.0241
G1 X76.496 Y84.437 E1.03948
G1 X76.496 Y85.09 E.02409
G1 X55.913 Y64.507 E1.07354
G1 X55.26 Y64.507 E.0241
G1 X76.496 Y85.743 E1.10761
G1 X76.495 Y86.396 E.02409
G1 X54.606 Y64.507 E1.14167
G1 X53.953 Y64.507 E.0241
G1 X76.495 Y87.049 E1.17574
G1 X76.495 Y87.702 E.02409
G1 X53.3 Y64.507 E1.20981
G1 X52.646 Y64.507 E.0241
G1 X76.494 Y88.355 E1.24387
G1 X76.494 Y89.008 E.02409
G1 X51.993 Y64.507 E1.27794
G1 X51.339 Y64.507 E.0241
G1 X76.494 Y89.661 E1.312
G1 X76.494 Y90.315 E.02409
G1 X50.686 Y64.507 E1.34607
G1 X50.033 Y64.507 E.0241
G1 X76.493 Y90.968 E1.38013
G1 X76.493 Y91.493 E.01938
G1 X76.365 Y91.493 E.00471
G1 X49.507 Y64.635 E1.40087
G1 X49.507 Y65.288 E.0241
G1 X75.712 Y91.493 E1.36679
G1 X75.058 Y91.493 E.0241
G1 X49.507 Y65.942 E1.33271
G1 X49.507 Y66.595 E.0241
G1 X74.405 Y91.493 E1.29863
G1 X73.752 Y91.493 E.0241
G1 X49.507 Y67.248 E1.26455
G1 X49.507 Y67.902 E.0241
G1 X73.098 Y91.493 E1.23047
G1 X72.445 Y91.493 E.0241
G1 X49.507 Y68.555 E1.19639
G1 X49.507 Y69.209 E.0241
G1 X71.791 Y91.493 E1.16231
G1 X71.138 Y91.493 E.0241
G1 X49.507 Y69.862 E1.12823
G1 X49.507 Y70.515 E.0241
G1 X70.485 Y91.493 E1.09415
G1 X69.831 Y91.493 E.0241
G1 X49.507 Y71.169 E1.06007
G1 X49.507 Y71.822 E.0241
G1 X69.178 Y91.493 E1.02598
G1 X68.524 Y91.493 E.0241
G1 X49.507 Y72.476 E.9919
G1 X49.507 Y73.129 E.0241
G1 X57.876 Y81.498 E.43649
G1 X57.222 Y81.497 E.02411
G1 X49.507 Y73.782 E.40239
G1 X49.507 Y74.436 E.0241
G1 X56.568 Y81.497 E.36829
G1 X55.914 Y81.497 E.02411
G1 X49.507 Y75.089 E.33419
G1 X49.507 Y75.743 E.0241
G1 X55.261 Y81.496 E.30009
G1 X54.607 Y81.496 E.02411
G1 X49.507 Y76.396 E.26599
G1 X49.507 Y77.049 E.0241
G1 X53.953 Y81.496 E.2319
G1 X53.299 Y81.495 E.02411
G1 X49.507 Y77.703 E.1978
G1 X49.507 Y78.356 E.0241
G1 X52.645 Y81.495 E.1637
G1 X51.992 Y81.494 E.02411
G1 X49.507 Y79.01 E.1296
G1 X49.507 Y79.663 E.0241
G1 X51.338 Y81.494 E.0955
G1 X50.684 Y81.494 E.02411
G1 X49.507 Y80.316 E.0614
G1 X49.507 Y80.97 E.0241
G1 X50.236 Y81.699 E.03804
G1 E-.56 F1800
;WIPE_START
G1 F6300
G1 X49.529 Y80.992 E-.24
;WIPE_END
G1 Z.6 F21000
G1 X59.297 Y82.92 Z.6
G1 Z.2
G1 E.8 F1800
G1 F6300
G1 X67.871 Y91.493 E.44717
G1 X67.218 Y91.493 E.0241
G1 X59.504 Y83.779 E.40235
G1 X59.504 Y84.433 E.02411
G1 X66.564 Y91.493 E.36825
G1 X65.911 Y91.493 E.0241
G1 X59.504 Y85.086 E.33416
G1 X59.504 Y85.74 E.02411
G1 X65.257 Y91.493 E.30006
G1 X64.604 Y91.493 E.0241
G1 X59.505 Y86.394 E.26597
G1 X59.505 Y87.047 E.02411
G1 X63.951 Y91.493 E.23187
G1 X63.297 Y91.493 E.0241
G1 X59.505 Y87.701 E.19778
G1 X59.506 Y88.355 E.02411
G1 X62.644 Y91.493 E.16368
G1 X61.99 Y91.493 E.0241
G1 X59.506 Y89.009 E.12959
G1 X59.506 Y89.662 E.02411
G1 X61.337 Y91.493 E.09549
G1 X60.684 Y91.493 E.0241
G1 X59.506 Y90.316 E.0614
G1 X59.507 Y90.97 E.02411
G1 X60.236 Y91.699 E.03803
; stop printing object flowrate_m20 id:7 copy 0
; printing object flowrate_5 id:4 copy 0
G1 E-.56 F1800
;WIPE_START
G1 F6300
G1 X59.529 Y90.992 E-.24
;WIPE_END
EXCLUDE_OBJECT_END NAME=flowrate_m20_id_7_copy_0
EXCLUDE_OBJECT_START NAME=flowrate_5_id_4_copy_0
G1 Z.6 F21000
G1 X59.141 Y114.835 Z.6
G1 Z.2
G1 E.8 F1800
;TYPE:Inner wall
;WIDTH:0.499999
G1 F3000
G1 X59.116 Y114.65 E.00895
G1 X58.969 Y114.339 E.01648
G1 X58.707 Y114.064 E.01817
G1 X58.392 Y113.898 E.01707
G1 X58.021 Y113.836 E.01799
G1 X49.164 Y113.836 E.42416
G1 X49.164 Y96.164 E.84626
G1 X86.836 Y96.164 E1.80402
G1 X86.836 Y105 E.42313
G1 X86.836 Y113.836 E.42313
G1 X78 Y113.836 E.42313
G1 X77.789 Y113.852 E.01011
G1 X77.441 Y113.97 E.01763
G1 X77.113 Y114.233 E.02011
G1 X76.909 Y114.577 E.01919
G1 X76.836 Y114.979 E.01953
G1 X76.836 Y123.836 E.42416
G1 X59.164 Y123.836 E.84626
M73 P1 R42
G1 X59.164 Y115 E.42313
G1 X59.147 Y114.875 E.00605
G1 X58.695 Y114.909 F21000
G1 F3000
G1 X58.678 Y114.782 E.00614
G1 X58.541 Y114.531 E.01368
G1 X58.303 Y114.353 E.01421
G1 X58.021 Y114.293 E.01379
G1 X48.707 Y114.293 E.44605
G1 X48.707 Y95.707 E.89004
G1 X87.293 Y95.707 E1.8478
M73 P2 R42
G1 X87.293 Y105 E.44502
G1 X87.293 Y114.293 E.44502
G1 X78 Y114.293 E.44502
G1 X77.81 Y114.314 E.00917
G1 X77.528 Y114.462 E.01525
G1 X77.353 Y114.697 E.01402
G1 X77.293 Y114.979 E.01378
G1 X77.293 Y124.293 E.44605
G1 X58.707 Y124.293 E.89004
G1 X58.707 Y115 E.44502
G1 X58.7 Y114.948 E.0025
G1 X58.25 Y114.979 F21000
;TYPE:Outer wall
G1 F3000
G1 X58.184 Y114.818 E.00833
G1 X58.021 Y114.75 E.00842
G1 X48.25 Y114.75 E.46793
G1 X48.25 Y95.25 E.93381
G1 X87.75 Y95.25 E1.89157
G1 X87.75 Y105 E.46691
G1 X87.75 Y114.75 E.46691
G1 X77.979 Y114.75 E.46793
G1 X77.816 Y114.818 E.00842
G1 X77.75 Y114.979 E.00833
G1 X77.75 Y124.75 E.46793
G1 X58.25 Y124.75 E.93381
G1 X58.25 Y115.019 E.46602
G1 E-.56 F1800
;WIPE_START
G1 F3000
G1 X58.184 Y114.818 E-.05078
G1 X58.021 Y114.75 E-.04219
G1 X57.409 Y114.75 E-.14703
;WIPE_END
G1 Z.6 F21000
G1 X57.409 Y114.314 Z.6
G1 X87.314 Y95.686
G1 X87.314 Y97.236
G1 X86.699 Y97.236
G1 Z.2
G1 E.8 F1800
;TYPE:Bottom surface
;WIDTH:0.504948
G1 F6300
G1 X85.97 Y96.507 E.04989
G1 X85.317 Y96.507 E.03163
G1 X86.493 Y97.683 E.08054
G1 X86.493 Y98.337 E.03163
G1 X84.663 Y96.507 E.12527
G1 X84.01 Y96.507 E.03163
G1 X86.493 Y98.99 E.17
G1 X86.493 Y99.644 E.03163
G1 X83.356 Y96.507 E.21473
G1 X82.703 Y96.507 E.03163
G1 X86.493 Y100.297 E.25946
G1 X86.493 Y100.951 E.03163
G1 X82.049 Y96.507 E.30419
G1 X81.396 Y96.507 E.03163
G1 X86.493 Y101.604 E.34892
G1 X86.493 Y102.257 E.03163
G1 X80.743 Y96.507 E.39365
G1 X80.089 Y96.507 E.03163
G1 X86.493 Y102.911 E.43838
G1 X86.493 Y103.564 E.03163
G1 X79.436 Y96.507 E.48311
G1 X78.782 Y96.507 E.03163
G1 X86.493 Y104.218 E.52784
G1 X86.493 Y104.871 E.03163
G1 X78.129 Y96.507 E.57257
G1 X77.476 Y96.507 E.03163
G1 X86.493 Y105.524 E.6173
G1 X86.493 Y106.178 E.03163
G1 X76.822 Y96.507 E.66203
G1 X76.169 Y96.507 E.03163
G1 X86.493 Y106.831 E.70676
G1 X86.493 Y107.485 E.03163
G1 X75.515 Y96.507 E.75149
G1 X74.862 Y96.507 E.03163
G1 X86.493 Y108.138 E.79622
G1 X86.493 Y108.791 E.03163
G1 X74.209 Y96.507 E.84095
G1 X73.555 Y96.507 E.03163
G1 X86.493 Y109.445 E.88568
G1 X86.493 Y110.098 E.03163
G1 X72.902 Y96.507 E.93041
G1 X72.248 Y96.507 E.03163
G1 X86.493 Y110.752 E.97514
G1 X86.493 Y111.405 E.03163
G1 X71.595 Y96.507 E1.01987
G1 X70.942 Y96.507 E.03163
G1 X86.493 Y112.058 E1.06461
G1 X86.493 Y112.712 E.03163
G1 X70.288 Y96.507 E1.10934
G1 X69.635 Y96.507 E.03163
G1 X86.493 Y113.365 E1.15407
G1 X86.493 Y113.493 E.00619
G1 X85.968 Y113.493 E.02543
G1 X68.981 Y96.507 E1.16284
G1 X68.328 Y96.507 E.03163
G1 X85.315 Y113.494 E1.16286
G1 X84.662 Y113.494 E.03161
G1 X67.675 Y96.507 E1.16289
G1 X67.021 Y96.507 E.03163
G1 X84.009 Y113.494 E1.16291
G1 X83.356 Y113.495 E.03161
G1 X66.368 Y96.507 E1.16294
G1 X65.714 Y96.507 E.03163
G1 X82.703 Y113.495 E1.16296
G1 X82.049 Y113.496 E.03161
G1 X65.061 Y96.507 E1.16298
G1 X64.408 Y96.507 E.03163
G1 X81.396 Y113.496 E1.16301
G1 X80.743 Y113.496 E.03161
G1 X63.754 Y96.507 E1.16303
G1 X63.101 Y96.507 E.03163
G1 X80.09 Y113.497 E1.16306
G1 X79.437 Y113.497 E.03161
G1 X62.447 Y96.507 E1.16308
G1 X61.794 Y96.507 E.03163
G1 X78.784 Y113.497 E1.16311
G1 X78.131 Y113.498 E.03161
G1 X61.14 Y96.507 E1.16313
G1 X60.487 Y96.507 E.03163
G1 X77.543 Y113.563 E1.16759
G1 X77.367 Y113.624 E.00901
G1 X77.105 Y113.779 E.01471
G1 X59.834 Y96.507 E1.18237
G1 X59.18 Y96.507 E.03163
G1 X76.78 Y114.107 E1.20483
G1 X76.623 Y114.37 E.01482
G1 X76.565 Y114.545 E.00894
G1 X58.527 Y96.507 E1.23481
G1 X57.873 Y96.507 E.03163
G1 X76.497 Y115.13 E1.2749
G1 X76.496 Y115.783 E.03162
G1 X57.22 Y96.507 E1.31961
G1 X56.567 Y96.507 E.03163
G1 X76.496 Y116.437 E1.36432
G1 X76.496 Y117.09 E.03162
G1 X55.913 Y96.507 E1.40903
G1 X55.26 Y96.507 E.03163
