; HEADER_BLOCK_START
; generated by OrcaSlicer 1.9.0 on 2024-01-27 at 14:55:09
; total layer number: 9
; filament_density: 1.24
; filament_diameter: 1.75
; max_z_height: 1.40
; HEADER_BLOCK_END

; THUMBNAIL_BLOCK_START

;
; THUMBNAIL_BLOCK_END

; external perimeters extrusion width = 0.40mm
; perimeters extrusion width = 0.45mm
; infill extrusion width = 0.45mm
; solid infill extrusion width = 0.48mm
; top infill extrusion width = 0.48mm
; first layer extrusion width = 0.50mm

; external perimeters extrusion width = 0.40mm
; perimeters extrusion width = 0.45mm
; infill extrusion width = 0.45mm
; solid infill extrusion width = 0.48mm
; top infill extrusion width = 0.48mm
; first layer extrusion width = 0.50mm

; external perimeters extrusion width = 0.40mm
; perimeters extrusion width = 0.45mm
; infill extrusion width = 0.45mm
; solid infill extrusion width = 0.48mm
; top infill extrusion width = 0.48mm
; first layer extrusion width = 0.50mm

; external perimeters extrusion width = 0.40mm
; perimeters extrusion width = 0.45mm
; infill extrusion width = 0.45mm
; solid infill extrusion width = 0.48mm
; top infill extrusion width = 0.48mm
; first layer extrusion width = 0.50mm

; external perimeters extrusion width = 0.40mm
; perimeters extrusion width = 0.45mm
; infill extrusion width = 0.45mm
; solid infill extrusion width = 0.48mm
; top infill extrusion width = 0.48mm
; first layer extrusion width = 0.50mm

; external perimeters extrusion width = 0.40mm
; perimeters extrusion width = 0.45mm
; infill extrusion width = 0.45mm
; solid infill extrusion width = 0.48mm
; top infill extrusion width = 0.48mm
; first layer extrusion width = 0.50mm

; external perimeters extrusion width = 0.40mm
; perimeters extrusion width = 0.45mm
; infill extrusion width = 0.45mm
; solid infill extrusion width = 0.48mm
; top infill extrusion width = 0.48mm
; first layer extrusion width = 0.50mm

; external perimeters extrusion width = 0.40mm
; perimeters extrusion width = 0.45mm
; infill extrusion width = 0.45mm
; solid infill extrusion width = 0.48mm
; top infill extrusion width = 0.48mm
; first layer extrusion width = 0.50mm

; external perimeters extrusion width = 0.40mm
; perimeters extrusion width = 0.45mm
; infill extrusion width = 0.45mm
; solid infill extrusion width = 0.48mm
; top infill extrusion width = 0.48mm
; first layer extrusion width = 0.50mm

; EXECUTABLE_BLOCK_START
EXCLUDE_OBJECT_DEFINE NAME=flowrate_0_id_0_copy_0 CENTER=125,125 POLYGON=[[105,110],[145,110],[145,130],[135,140],[115,140],[105,130],[105,110]]
EXCLUDE_OBJECT_DEFINE NAME=flowrate_10_id_1_copy_0 CENTER=167,157 POLYGON=[[147,142],[187,142],[187,162],[177,172],[157,172],[147,162],[147,142]]
EXCLUDE_OBJECT_DEFINE NAME=flowrate_15_id_2_copy_0 CENTER=125,157 POLYGON=[[105,142],[145,142],[145,162],[135,172],[115,172],[105,162],[105,142]]
EXCLUDE_OBJECT_DEFINE NAME=flowrate_20_id_3_copy_0 CENTER=83,157 POLYGON=[[63,142],[103,142],[103,162],[93,172],[73,172],[63,162],[63,142]]
EXCLUDE_OBJECT_DEFINE NAME=flowrate_5_id_4_copy_0 CENTER=83,125 POLYGON=[[63,110],[103,110],[103,130],[93,140],[73,140],[63,130],[63,110]]
EXCLUDE_OBJECT_DEFINE NAME=flowrate_m10_id_5_copy_0 CENTER=167,93 POLYGON=[[147,78],[187,78],[187,98],[177,108],[157,108],[147,98],[147,78]]
EXCLUDE_OBJECT_DEFINE NAME=flowrate_m15_id_6_copy_0 CENTER=125,93 POLYGON=[[105,78],[145,78],[145,98],[135,108],[115,108],[105,98],[105,78]]
EXCLUDE_OBJECT_DEFINE NAME=flowrate_m20_id_7_copy_0 CENTER=83,93 POLYGON=[[63,78],[103,78],[103,98],[93,108],[73,108],[63,98],[63,78]]
EXCLUDE_OBJECT_DEFINE NAME=flowrate_m5_id_8_copy_0 CENTER=167,125 POLYGON=[[147,110],[187,110],[187,130],[177,140],[157,140],[147,130],[147,110]]
M73 P0 R30
;TYPE:Custom
START_PRINT NOZZLE_TEMP=220  BED_TEMP=60 
G90
G21
M83 ; use relative distances for extrusion
; filament start gcode
M106 S0
;LAYER_CHANGE
;Z:0.2
;HEIGHT:0.2
;BEFORE_LAYER_CHANGE
;0.2
G92 E0

G1 E-.8 F1800
;AFTER_LAYER_CHANGE
;0.2
;_SET_FAN_SPEED_CHANGING_LAYER
SET_VELOCITY_LIMIT ACCEL=500 ACCEL_TO_DECEL=250
; printing object flowrate_m20 id:7 copy 0
EXCLUDE_OBJECT_START NAME=flowrate_m20_id_7_copy_0
G1 Z.4 F21000
G1 X74.141 Y97.835
G1 Z.4
G1 Z.2
G1 E.8 F1800
;TYPE:Inner wall
;WIDTH:0.499999
G1 F3000
G1 X74.116 Y97.65 E.00557
G1 X73.969 Y97.339 E.01025
G1 X73.707 Y97.064 E.0113
G1 X73.392 Y96.898 E.01062
G1 X73.021 Y96.836 E.0112
G1 X64.164 Y96.836 E.26392
G1 X64.164 Y79.164 E.52656
G1 X101.836 Y79.164 E1.1225
G1 X101.836 Y88 E.26328
G1 X101.836 Y96.836 E.26328
G1 X93 Y96.836 E.26328
G1 X92.789 Y96.852 E.00629
G1 X92.441 Y96.97 E.01097
G1 X92.113 Y97.233 E.01251
G1 X91.909 Y97.577 E.01194
G1 X91.836 Y97.979 E.01215
G1 X91.836 Y106.836 E.26392
G1 X74.164 Y106.836 E.52656
G1 X74.164 Y98 E.26328
G1 X74.147 Y97.875 E.00376
G1 X73.695 Y97.909 F21000
G1 F3000
G1 X73.678 Y97.782 E.00382
G1 X73.541 Y97.531 E.00851
G1 X73.295 Y97.35 E.00909
G1 X73.021 Y97.293 E.00833
G1 X63.707 Y97.293 E.27754
G1 X63.707 Y78.707 E.5538
G1 X102.293 Y78.707 E1.14974
G1 X102.293 Y88 E.2769
G1 X102.293 Y97.293 E.2769
G1 X93 Y97.293 E.2769
G1 X92.81 Y97.314 E.0057
G1 X92.528 Y97.462 E.00949
G1 X92.353 Y97.697 E.00873
G1 X92.293 Y97.979 E.00857
G1 X92.293 Y107.293 E.27754
G1 X73.707 Y107.293 E.5538
G1 X73.707 Y98 E.2769
G1 X73.7 Y97.948 E.00156
G1 X73.25 Y97.979 F21000
;TYPE:Outer wall
G1 F3000
G1 X73.184 Y97.818 E.00519
G1 X73.021 Y97.75 E.00524
G1 X63.25 Y97.75 E.29116
G1 X63.25 Y78.25 E.58104
G1 X102.75 Y78.25 E1.17698
G1 X102.75 Y88 E.29052
G1 X102.75 Y97.75 E.29052
G1 X92.979 Y97.75 E.29116
G1 X92.816 Y97.818 E.00524
G1 X92.75 Y97.979 E.00519
G1 X92.75 Y107.75 E.29116
G1 X73.25 Y107.75 E.58104
G1 X73.25 Y98.019 E.28997
G1 E-.56 F1800
;WIPE_START
G1 F3000
G1 X73.184 Y97.818 E-.05078
G1 X73.021 Y97.75 E-.04219
G1 X72.409 Y97.75 E-.14703
;WIPE_END
G1 Z.6 F21000
G1 X101.699 Y80.236 Z.6
G1 Z.2
G1 E.8 F1800
;TYPE:Bottom surface
;WIDTH:0.504948
G1 F6300
G1 X100.97 Y79.507 E.03104
G1 X100.317 Y79.507 E.01968
G1 X101.493 Y80.683 E.05011
G1 X101.493 Y81.337 E.01968
G1 X99.663 Y79.507 E.07795
G1 X99.01 Y79.507 E.01968
G1 X101.493 Y81.99 E.10578
G1 X101.493 Y82.644 E.01968
G1 X98.356 Y79.507 E.13361
G1 X97.703 Y79.507 E.01968
G1 X101.493 Y83.297 E.16144
G1 X101.493 Y83.951 E.01968
G1 X97.049 Y79.507 E.18927
G1 X96.396 Y79.507 E.01968
G1 X101.493 Y84.604 E.21711
G1 X101.493 Y85.257 E.01968
G1 X95.743 Y79.507 E.24494
G1 X95.089 Y79.507 E.01968
G1 X101.493 Y85.911 E.27277
G1 X101.493 Y86.564 E.01968
G1 X94.436 Y79.507 E.3006
G1 X93.782 Y79.507 E.01968
G1 X101.493 Y87.218 E.32844
G1 X101.493 Y87.871 E.01968
G1 X93.129 Y79.507 E.35627
G1 X92.476 Y79.507 E.01968
G1 X101.493 Y88.524 E.3841
G1 X101.493 Y89.178 E.01968
G1 X91.822 Y79.507 E.41193
G1 X91.169 Y79.507 E.01968
G1 X101.493 Y89.831 E.43976
G1 X101.493 Y90.485 E.01968
G1 X90.515 Y79.507 E.4676
G1 X89.862 Y79.507 E.01968
G1 X101.493 Y91.138 E.49543
G1 X101.493 Y91.791 E.01968
G1 X89.209 Y79.507 E.52326
G1 X88.555 Y79.507 E.01968
G1 X101.493 Y92.445 E.55109
G1 X101.493 Y93.098 E.01968
G1 X87.902 Y79.507 E.57892
G1 X87.248 Y79.507 E.01968
G1 X101.493 Y93.752 E.60676
G1 X101.493 Y94.405 E.01968
G1 X86.595 Y79.507 E.63459
G1 X85.942 Y79.507 E.01968
M73 P1 R30
G1 X101.493 Y95.058 E.66242
G1 X101.493 Y95.712 E.01968
G1 X85.288 Y79.507 E.69025
G1 X84.635 Y79.507 E.01968
G1 X101.493 Y96.365 E.71809
G1 X101.493 Y96.493 E.00385
G1 X100.968 Y96.493 E.01582
G1 X83.981 Y79.507 E.72354
G1 X83.328 Y79.507 E.01968
G1 X100.315 Y96.494 E.72356
G1 X99.662 Y96.494 E.01967
G1 X82.675 Y79.507 E.72357
G1 X82.021 Y79.507 E.01968
G1 X99.009 Y96.494 E.72359
G1 X98.356 Y96.495 E.01967
G1 X81.368 Y79.507 E.7236
G1 X80.714 Y79.507 E.01968
G1 X97.703 Y96.495 E.72362
G1 X97.049 Y96.496 E.01967
G1 X80.061 Y79.507 E.72364
G1 X79.408 Y79.507 E.01968
G1 X96.396 Y96.496 E.72365
G1 X95.743 Y96.496 E.01967
G1 X78.754 Y79.507 E.72367
G1 X78.101 Y79.507 E.01968
G1 X95.09 Y96.497 E.72368
G1 X94.437 Y96.497 E.01967
G1 X77.447 Y79.507 E.7237
G1 X76.794 Y79.507 E.01968
G1 X93.784 Y96.497 E.72371
G1 X93.131 Y96.498 E.01967
G1 X76.14 Y79.507 E.72373
G1 X75.487 Y79.507 E.01968
G1 X92.543 Y96.562 E.72648
G1 X92.385 Y96.616 E.00501
G1 X92.178 Y96.727 E.00707
G1 X92.109 Y96.782 E.00267
G1 X74.834 Y79.507 E.73585
G1 X74.18 Y79.507 E.01968
G1 X91.78 Y97.107 E.74967
G1 X91.623 Y97.37 E.00922
G1 X91.565 Y97.545 E.00556
G1 X73.527 Y79.507 E.76833
G1 X72.873 Y79.507 E.01968
G1 X91.497 Y98.13 E.79327
G1 X91.496 Y98.783 E.01967
G1 X72.22 Y79.507 E.82109
G1 X71.567 Y79.507 E.01968
G1 X91.496 Y99.437 E.84891
G1 X91.496 Y100.09 E.01967
G1 X70.913 Y79.507 E.87673
G1 X70.26 Y79.507 E.01968
G1 X91.496 Y100.743 E.90455
G1 X91.495 Y101.396 E.01967
G1 X69.606 Y79.507 E.93237
G1 X68.953 Y79.507 E.01968
G1 X91.495 Y102.049 E.96019
G1 X91.495 Y102.702 E.01967
G1 X68.3 Y79.507 E.98801
G1 X67.646 Y79.507 E.01968
G1 X91.494 Y103.355 E1.01583
G1 X91.494 Y104.008 E.01967
G1 X66.993 Y79.507 E1.04365
G1 X66.339 Y79.507 E.01968
G1 X91.494 Y104.661 E1.07147
G1 X91.494 Y105.315 E.01967
G1 X65.686 Y79.507 E1.09929
G1 X65.033 Y79.507 E.01968
G1 X91.493 Y105.968 E1.12711
G1 X91.493 Y106.493 E.01582
G1 X91.365 Y106.493 E.00385
G1 X64.507 Y79.635 E1.14404
G1 X64.507 Y80.288 E.01968
G1 X90.712 Y106.493 E1.11621
G1 X90.058 Y106.493 E.01968
G1 X64.507 Y80.942 E1.08838
G1 X64.507 Y81.595 E.01968
G1 X89.405 Y106.493 E1.06054
G1 X88.752 Y106.493 E.01968
G1 X64.507 Y82.248 E1.03271
M73 P2 R30
G1 X64.507 Y82.902 E.01968
G1 X88.098 Y106.493 E1.00488
G1 X87.445 Y106.493 E.01968
G1 X64.507 Y83.555 E.97705
G1 X64.507 Y84.209 E.01968
G1 X86.791 Y106.493 E.94922
G1 X86.138 Y106.493 E.01968
G1 X64.507 Y84.862 E.92138
G1 X64.507 Y85.515 E.01968
G1 X85.485 Y106.493 E.89355
G1 X84.831 Y106.493 E.01968
G1 X64.507 Y86.169 E.86572
G1 X64.507 Y86.822 E.01968
G1 X84.178 Y106.493 E.83789
G1 X83.524 Y106.493 E.01968
G1 X64.507 Y87.476 E.81006
G1 X64.507 Y88.129 E.01968
G1 X72.876 Y96.498 E.35647
G1 X72.222 Y96.497 E.01969
G1 X64.507 Y88.782 E.32862
G1 X64.507 Y89.436 E.01968
G1 X71.568 Y96.497 E.30077
G1 X70.914 Y96.497 E.01969
G1 X64.507 Y90.089 E.27292
G1 X64.507 Y90.743 E.01968
G1 X70.261 Y96.496 E.24508
G1 X69.607 Y96.496 E.01969
G1 X64.507 Y91.396 E.21723
G1 X64.507 Y92.049 E.01968
G1 X68.953 Y96.496 E.18938
G1 X68.299 Y96.495 E.01969
G1 X64.507 Y92.703 E.16153
G1 X64.507 Y93.356 E.01968
G1 X67.645 Y96.495 E.13369
G1 X66.992 Y96.494 E.01969
G1 X64.507 Y94.01 E.10584
G1 X64.507 Y94.663 E.01968
G1 X66.338 Y96.494 E.07799
G1 X65.684 Y96.494 E.01969
G1 X64.507 Y95.316 E.05014
G1 X64.507 Y95.97 E.01968
G1 X65.236 Y96.699 E.03106
G1 E-.56 F1800
;WIPE_START
G1 F6300
G1 X64.529 Y95.992 E-.24
;WIPE_END
G1 Z.6 F21000
G1 X74.297 Y97.92 Z.6
G1 Z.2
G1 E.8 F1800
G1 F6300
G1 X82.871 Y106.493 E.36519
G1 X82.218 Y106.493 E.01968
G1 X74.504 Y98.779 E.32858
G1 X74.504 Y99.433 E.01969
G1 X81.564 Y106.493 E.30074
G1 X80.911 Y106.493 E.01968
G1 X74.504 Y100.086 E.27289
G1 X74.504 Y100.74 E.01969
G1 X80.257 Y106.493 E.24505
G1 X79.604 Y106.493 E.01968
G1 X74.505 Y101.394 E.21721
G1 X74.505 Y102.047 E.01969
G1 X78.951 Y106.493 E.18936
G1 X78.297 Y106.493 E.01968
G1 X74.505 Y102.701 E.16152
G1 X74.506 Y103.355 E.01969
G1 X77.644 Y106.493 E.13367
G1 X76.99 Y106.493 E.01968
G1 X74.506 Y104.009 E.10583
G1 X74.506 Y104.662 E.01969
G1 X76.337 Y106.493 E.07798
G1 X75.684 Y106.493 E.01968
G1 X74.506 Y105.316 E.05014
G1 X74.507 Y105.97 E.01969
G1 X75.236 Y106.699 E.03106
; stop printing object flowrate_m20 id:7 copy 0
; printing object flowrate_5 id:4 copy 0
G1 E-.56 F1800
;WIPE_START
G1 F6300
G1 X74.529 Y105.992 E-.24
;WIPE_END
EXCLUDE_OBJECT_END NAME=flowrate_m20_id_7_copy_0
EXCLUDE_OBJECT_START NAME=flowrate_5_id_4_copy_0
G1 Z.6 F21000
G1 X74.141 Y129.835 Z.6
G1 Z.2
G1 E.8 F1800
;TYPE:Inner wall
;WIDTH:0.499999
G1 F3000
G1 X74.116 Y129.65 E.00731
G1 X73.969 Y129.339 E.01346
G1 X73.707 Y129.064 E.01484
G1 X73.392 Y128.898 E.01394
G1 X73.021 Y128.836 E.01469
G1 X64.164 Y128.836 E.3464
G1 X64.164 Y111.164 E.69111
G1 X101.836 Y111.164 E1.47328
M73 P2 R29
G1 X101.836 Y120 E.34556
G1 X101.836 Y128.836 E.34556
G1 X93 Y128.836 E.34556
G1 X92.789 Y128.852 E.00826
G1 X92.441 Y128.97 E.0144
G1 X92.113 Y129.233 E.01642
G1 X91.909 Y129.577 E.01567
G1 X91.836 Y129.979 E.01595
G1 X91.836 Y138.836 E.3464
G1 X74.164 Y138.836 E.69111
G1 X74.164 Y130 E.34556
G1 X74.147 Y129.875 E.00494
G1 X73.695 Y129.909 F21000
G1 F3000
G1 X73.678 Y129.782 E.00501
G1 X73.541 Y129.531 E.01117
G1 X73.295 Y129.35 E.01193
G1 X73.021 Y129.293 E.01094
G1 X63.707 Y129.293 E.36427
G1 X63.707 Y110.707 E.72686
G1 X102.293 Y110.707 E1.50903
G1 X102.293 Y120 E.36343
G1 X102.293 Y129.293 E.36343
G1 X93 Y129.293 E.36343
G1 X92.81 Y129.314 E.00749
G1 X92.528 Y129.462 E.01246
G1 X92.353 Y129.697 E.01145
G1 X92.293 Y129.979 E.01125
G1 X92.293 Y139.293 E.36427
G1 X73.707 Y139.293 E.72686
G1 X73.707 Y130 E.36343
G1 X73.7 Y129.948 E.00204
G1 X73.25 Y129.979 F21000
;TYPE:Outer wall
G1 F3000
G1 X73.184 Y129.818 E.00681
G1 X73.021 Y129.75 E.00688
G1 X63.25 Y129.75 E.38215
G1 X63.25 Y110.25 E.76261
M73 P3 R29
G1 X102.75 Y110.25 E1.54478
G1 X102.75 Y120 E.38131
G1 X102.75 Y129.75 E.38131
G1 X92.979 Y129.75 E.38215
G1 X92.816 Y129.818 E.00688
G1 X92.75 Y129.979 E.00681
G1 X92.75 Y139.75 E.38215
G1 X73.25 Y139.75 E.76261
G1 X73.25 Y130.019 E.38058
G1 E-.56 F1800
;WIPE_START
G1 F3000
G1 X73.184 Y129.818 E-.05078
G1 X73.021 Y129.75 E-.04219
G1 X72.409 Y129.75 E-.14703
;WIPE_END
G1 Z.6 F21000
G1 X101.699 Y112.236 Z.6
G1 Z.2
G1 E.8 F1800
;TYPE:Bottom surface
;WIDTH:0.504948
G1 F6300
G1 X100.97 Y111.507 E.04074
G1 X100.317 Y111.507 E.02583
G1 X101.493 Y112.683 E.06577
G1 X101.493 Y113.337 E.02583
G1 X99.663 Y111.507 E.1023
G1 X99.01 Y111.507 E.02583
G1 X101.493 Y113.99 E.13883
G1 X101.493 Y114.644 E.02583
G1 X98.356 Y111.507 E.17536
G1 X97.703 Y111.507 E.02583
G1 X101.493 Y115.297 E.21189
G1 X101.493 Y115.951 E.02583
G1 X97.049 Y111.507 E.24842
G1 X96.396 Y111.507 E.02583
G1 X101.493 Y116.604 E.28495
G1 X101.493 Y117.257 E.02583
G1 X95.743 Y111.507 E.32148
G1 X95.089 Y111.507 E.02583
G1 X101.493 Y117.911 E.35801
G1 X101.493 Y118.564 E.02583
G1 X94.436 Y111.507 E.39454
G1 X93.782 Y111.507 E.02583
G1 X101.493 Y119.218 E.43107
G1 X101.493 Y119.871 E.02583
G1 X93.129 Y111.507 E.4676
G1 X92.476 Y111.507 E.02583
G1 X101.493 Y120.524 E.50413
G1 X101.493 Y121.178 E.02583
G1 X91.822 Y111.507 E.54066
G1 X91.169 Y111.507 E.02583
G1 X101.493 Y121.831 E.57719
G1 X101.493 Y122.485 E.02583
G1 X90.515 Y111.507 E.61372
G1 X89.862 Y111.507 E.02583
G1 X101.493 Y123.138 E.65025
G1 X101.493 Y123.791 E.02583
G1 X89.209 Y111.507 E.68678
G1 X88.555 Y111.507 E.02583
G1 X101.493 Y124.445 E.72331
G1 X101.493 Y125.098 E.02583
G1 X87.902 Y111.507 E.75984
G1 X87.248 Y111.507 E.02583
G1 X101.493 Y125.752 E.79637
G1 X101.493 Y126.405 E.02583
G1 X86.595 Y111.507 E.8329
G1 X85.942 Y111.507 E.02583
G1 X101.493 Y127.058 E.86943
G1 X101.493 Y127.712 E.02583
G1 X85.288 Y111.507 E.90596
G1 X84.635 Y111.507 E.02583
G1 X101.493 Y128.365 E.94249
G1 X101.493 Y128.493 E.00506
G1 X100.968 Y128.493 E.02076
G1 X83.981 Y111.507 E.94965
G1 X83.328 Y111.507 E.02583
G1 X100.315 Y128.494 E.94967
G1 X99.662 Y128.494 E.02582
G1 X82.675 Y111.507 E.94969
G1 X82.021 Y111.507 E.02583
G1 X99.009 Y128.494 E.94971
G1 X98.356 Y128.495 E.02582
G1 X81.368 Y111.507 E.94973
G1 X80.714 Y111.507 E.02583
G1 X97.703 Y128.495 E.94975
G1 X97.049 Y128.496 E.02582
G1 X80.061 Y111.507 E.94977
G1 X79.408 Y111.507 E.02583
G1 X96.396 Y128.496 E.94979
G1 X95.743 Y128.496 E.02582
G1 X78.754 Y111.507 E.94981
G1 X78.101 Y111.507 E.02583
G1 X95.09 Y128.497 E.94983
G1 X94.437 Y128.497 E.02582
G1 X77.447 Y111.507 E.94985
G1 X76.794 Y111.507 E.02583
G1 X93.784 Y128.497 E.94987
G1 X93.131 Y128.498 E.02582
G1 X76.14 Y111.507 E.94989
G1 X75.487 Y111.507 E.02583
G1 X92.543 Y128.562 E.95351
G1 X92.385 Y128.616 E.00657
G1 X92.178 Y128.727 E.00928
G1 X92.109 Y128.782 E.00351
G1 X74.834 Y111.507 E.9658
G1 X74.18 Y111.507 E.02583
G1 X91.78 Y129.107 E.98394
M73 P4 R29
G1 X91.623 Y129.37 E.0121
G1 X91.565 Y129.545 E.0073
G1 X73.527 Y111.507 E1.00843
G1 X72.873 Y111.507 E.02583
G1 X91.497 Y130.13 E1.04116
G1 X91.496 Y130.783 E.02582
