; HEADER_BLOCK_START
; generated by OrcaSlicer 1.9.0 on 2024-01-21 at 17:39:23
; total layer number: 7
; filament_density: 1.24
; filament_diameter: 1.75
; max_z_height: 1.40
; HEADER_BLOCK_END

; THUMBNAIL_BLOCK_START

;
; THUMBNAIL_BLOCK_END

; external perimeters extrusion width = 0.40mm
; perimeters extrusion width = 0.45mm
; infill extrusion width = 0.45mm
; solid infill extrusion width = 0.48mm
; top infill extrusion width = 0.48mm
; first layer extrusion width = 0.50mm

; external perimeters extrusion width = 0.40mm
; perimeters extrusion width = 0.45mm
; infill extrusion width = 0.45mm
; solid infill extrusion width = 0.48mm
; top infill extrusion width = 0.48mm
; first layer extrusion width = 0.50mm

; external perimeters extrusion width = 0.40mm
; perimeters extrusion width = 0.45mm
; infill extrusion width = 0.45mm
; solid infill extrusion width = 0.48mm
; top infill extrusion width = 0.48mm
; first layer extrusion width = 0.50mm

; external perimeters extrusion width = 0.40mm
; perimeters extrusion width = 0.45mm
; infill extrusion width = 0.45mm
; solid infill extrusion width = 0.48mm
; top infill extrusion width = 0.48mm
; first layer extrusion width = 0.50mm

; external perimeters extrusion width = 0.40mm
; perimeters extrusion width = 0.45mm
; infill extrusion width = 0.45mm
; solid infill extrusion width = 0.48mm
; top infill extrusion width = 0.48mm
; first layer extrusion width = 0.50mm

; external perimeters extrusion width = 0.40mm
; perimeters extrusion width = 0.45mm
; infill extrusion width = 0.45mm
; solid infill extrusion width = 0.48mm
; top infill extrusion width = 0.48mm
; first layer extrusion width = 0.50mm

; external perimeters extrusion width = 0.40mm
; perimeters extrusion width = 0.45mm
; infill extrusion width = 0.45mm
; solid infill extrusion width = 0.48mm
; top infill extrusion width = 0.48mm
; first layer extrusion width = 0.50mm

; external perimeters extrusion width = 0.40mm
; perimeters extrusion width = 0.45mm
; infill extrusion width = 0.45mm
; solid infill extrusion width = 0.48mm
; top infill extrusion width = 0.48mm
; first layer extrusion width = 0.50mm

; external perimeters extrusion width = 0.40mm
; perimeters extrusion width = 0.45mm
; infill extrusion width = 0.45mm
; solid infill extrusion width = 0.48mm
; top infill extrusion width = 0.48mm
; first layer extrusion width = 0.50mm

; external perimeters extrusion width = 0.40mm
; perimeters extrusion width = 0.45mm
; infill extrusion width = 0.45mm
; solid infill extrusion width = 0.48mm
; top infill extrusion width = 0.48mm
; first layer extrusion width = 0.50mm

; EXECUTABLE_BLOCK_START
EXCLUDE_OBJECT_DEFINE NAME=flowrate_0_id_0_copy_0 CENTER=110,158 POLYGON=[[90,143],[130,143],[130,163],[120,173],[100,173],[90,163],[90,143]]
EXCLUDE_OBJECT_DEFINE NAME=flowrate_m1_id_1_copy_0 CENTER=68,126 POLYGON=[[48,111],[88,111],[88,131],[78,141],[58,141],[48,131],[48,111]]
EXCLUDE_OBJECT_DEFINE NAME=flowrate_m2_id_2_copy_0 CENTER=110,126 POLYGON=[[90,111],[130,111],[130,131],[120,141],[100,141],[90,131],[90,111]]
EXCLUDE_OBJECT_DEFINE NAME=flowrate_m3_id_3_copy_0 CENTER=152,126 POLYGON=[[132,111],[172,111],[172,131],[162,141],[142,141],[132,131],[132,111]]
EXCLUDE_OBJECT_DEFINE NAME=flowrate_m4_id_4_copy_0 CENTER=68,94 POLYGON=[[48,79],[88,79],[88,99],[78,109],[58,109],[48,99],[48,79]]
EXCLUDE_OBJECT_DEFINE NAME=flowrate_m5_id_5_copy_0 CENTER=110,94 POLYGON=[[90,79],[130,79],[130,99],[120,109],[100,109],[90,99],[90,79]]
EXCLUDE_OBJECT_DEFINE NAME=flowrate_m6_id_6_copy_0 CENTER=152,94 POLYGON=[[132,79],[172,79],[172,99],[162,109],[142,109],[132,99],[132,79]]
EXCLUDE_OBJECT_DEFINE NAME=flowrate_m7_id_7_copy_0 CENTER=152,62 POLYGON=[[132,47],[172,47],[172,67],[162,77],[142,77],[132,67],[132,47]]
EXCLUDE_OBJECT_DEFINE NAME=flowrate_m8_id_8_copy_0 CENTER=110,62 POLYGON=[[90,47],[130,47],[130,67],[120,77],[100,77],[90,67],[90,47]]
EXCLUDE_OBJECT_DEFINE NAME=flowrate_m9_id_9_copy_0 CENTER=68,62 POLYGON=[[48,47],[88,47],[88,67],[78,77],[58,77],[48,67],[48,47]]
M73 P0 R47
;TYPE:Custom
START_PRINT NOZZLE_TEMP=230  BED_TEMP=60 

G90
G21
M83 ; use relative distances for extrusion
; filament start gcode
M106 S0
;LAYER_CHANGE
;Z:0.2
;HEIGHT:0.2
;BEFORE_LAYER_CHANGE
;0.2
G92 E0

G1 E-.8 F1800
;AFTER_LAYER_CHANGE
;0.2
;_SET_FAN_SPEED_CHANGING_LAYER
SET_VELOCITY_LIMIT ACCEL=500 ACCEL_TO_DECEL=250
; printing object flowrate_m3 id:3 copy 0
EXCLUDE_OBJECT_START NAME=flowrate_m3_id_3_copy_0
G1 Z.4 F21000
G1 X143.141 Y130.835
G1 Z.4
G1 Z.2
G1 E.8 F1800
;TYPE:Inner wall
;WIDTH:0.499999
G1 F3000
G1 X143.116 Y130.65 E.00608
G1 X142.969 Y130.339 E.01119
G1 X142.707 Y130.064 E.01234
G1 X142.392 Y129.898 E.01159
G1 X142.021 Y129.836 E.01222
G1 X133.164 Y129.836 E.288
G1 X133.164 Y112.164 E.57461
G1 X170.836 Y112.164 E1.22493
G1 X170.836 Y121 E.28731
G1 X170.836 Y129.836 E.28731
G1 X162 Y129.836 E.28731
G1 X161.789 Y129.852 E.00687
G1 X161.441 Y129.97 E.01197
G1 X161.113 Y130.233 E.01365
G1 X160.909 Y130.577 E.01303
G1 X160.836 Y130.979 E.01326
G1 X160.836 Y139.836 E.288
G1 X143.164 Y139.836 E.57461
G1 X143.164 Y131 E.28731
G1 X143.147 Y130.875 E.0041
G1 X142.695 Y130.909 F21000
G1 F3000
G1 X142.678 Y130.782 E.00417
G1 X142.541 Y130.531 E.00929
G1 X142.295 Y130.35 E.00992
G1 X142.021 Y130.293 E.00909
G1 X132.707 Y130.293 E.30287
G1 X132.707 Y111.707 E.60434
G1 X171.293 Y111.707 E1.25465
G1 X171.293 Y121 E.30217
G1 X171.293 Y130.293 E.30217
G1 X162 Y130.293 E.30217
G1 X161.81 Y130.314 E.00622
G1 X161.528 Y130.462 E.01036
G1 X161.353 Y130.697 E.00952
G1 X161.293 Y130.979 E.00936
G1 X161.293 Y140.293 E.30287
G1 X142.707 Y140.293 E.60434
G1 X142.707 Y131 E.30217
G1 X142.7 Y130.948 E.0017
G1 X142.25 Y130.979 F21000
;TYPE:Outer wall
G1 F3000
G1 X142.184 Y130.818 E.00566
G1 X142.021 Y130.75 E.00572
G1 X132.25 Y130.75 E.31773
G1 X132.25 Y111.25 E.63406
G1 X171.75 Y111.25 E1.28438
G1 X171.75 Y121 E.31703
G1 X171.75 Y130.75 E.31703
G1 X161.979 Y130.75 E.31773
G1 X161.816 Y130.818 E.00572
G1 X161.75 Y130.979 E.00566
G1 X161.75 Y140.75 E.31773
G1 X142.25 Y140.75 E.63406
G1 X142.25 Y131.019 E.31643
G1 E-.56 F1800
;WIPE_START
G1 F3000
G1 X142.184 Y130.818 E-.05078
G1 X142.021 Y130.75 E-.04219
G1 X141.409 Y130.75 E-.14703
;WIPE_END
G1 Z.6 F21000
G1 X141.409 Y130.314 Z.6
G1 X171.314 Y111.686
G1 X171.314 Y113.236
G1 X170.699 Y113.236
G1 Z.2
G1 E.8 F1800
;TYPE:Bottom surface
;WIDTH:0.504948
G1 F6300
G1 X169.97 Y112.507 E.03388
G1 X169.317 Y112.507 E.02148
G1 X170.493 Y113.683 E.05469
G1 X170.493 Y114.337 E.02148
G1 X168.663 Y112.507 E.08506
G1 X168.01 Y112.507 E.02148
G1 X170.493 Y114.99 E.11543
G1 X170.493 Y115.644 E.02148
G1 X167.356 Y112.507 E.1458
G1 X166.703 Y112.507 E.02148
G1 X170.493 Y116.297 E.17617
M73 P0 R46
G1 X170.493 Y116.951 E.02148
G1 X166.049 Y112.507 E.20655
G1 X165.396 Y112.507 E.02148
G1 X170.493 Y117.604 E.23692
G1 X170.493 Y118.257 E.02148
G1 X164.743 Y112.507 E.26729
G1 X164.089 Y112.507 E.02148
G1 X170.493 Y118.911 E.29766
G1 X170.493 Y119.564 E.02148
G1 X163.436 Y112.507 E.32803
G1 X162.782 Y112.507 E.02148
G1 X170.493 Y120.218 E.35841
G1 X170.493 Y120.871 E.02148
G1 X162.129 Y112.507 E.38878
G1 X161.476 Y112.507 E.02148
G1 X170.493 Y121.524 E.41915
G1 X170.493 Y122.178 E.02148
G1 X160.822 Y112.507 E.44952
G1 X160.169 Y112.507 E.02148
G1 X170.493 Y122.831 E.47989
G1 X170.493 Y123.485 E.02148
G1 X159.515 Y112.507 E.51026
G1 X158.862 Y112.507 E.02148
G1 X170.493 Y124.138 E.54064
G1 X170.493 Y124.791 E.02148
G1 X158.209 Y112.507 E.57101
G1 X157.555 Y112.507 E.02148
G1 X170.493 Y125.445 E.60138
G1 X170.493 Y126.098 E.02148
G1 X156.902 Y112.507 E.63175
G1 X156.248 Y112.507 E.02148
G1 X170.493 Y126.752 E.66212
G1 X170.493 Y127.405 E.02148
G1 X155.595 Y112.507 E.6925
G1 X154.942 Y112.507 E.02148
G1 X170.493 Y128.058 E.72287
G1 X170.493 Y128.712 E.02148
G1 X154.288 Y112.507 E.75324
G1 X153.635 Y112.507 E.02148
G1 X170.493 Y129.365 E.78361
G1 X170.493 Y129.493 E.0042
G1 X169.968 Y129.493 E.01726
G1 X152.981 Y112.507 E.78957
G1 X152.328 Y112.507 E.02148
G1 X169.315 Y129.494 E.78958
G1 X168.662 Y129.494 E.02146
G1 X151.675 Y112.507 E.7896
G1 X151.021 Y112.507 E.02148
G1 X168.009 Y129.494 E.78962
G1 X167.356 Y129.495 E.02146
G1 X150.368 Y112.507 E.78963
G1 X149.714 Y112.507 E.02148
G1 X166.703 Y129.495 E.78965
G1 X166.049 Y129.496 E.02146
G1 X149.061 Y112.507 E.78967
G1 X148.408 Y112.507 E.02148
G1 X165.396 Y129.496 E.78968
G1 X164.743 Y129.496 E.02146
G1 X147.754 Y112.507 E.7897
G1 X147.101 Y112.507 E.02148
G1 X164.09 Y129.497 E.78972
G1 X163.437 Y129.497 E.02146
G1 X146.447 Y112.507 E.78973
G1 X145.794 Y112.507 E.02148
G1 X162.784 Y129.497 E.78975
G1 X162.131 Y129.498 E.02146
G1 X145.14 Y112.507 E.78977
G1 X144.487 Y112.507 E.02148
G1 X161.543 Y129.562 E.79278
G1 X161.385 Y129.616 E.00546
G1 X161.178 Y129.727 E.00772
G1 X161.109 Y129.782 E.00292
G1 X143.834 Y112.507 E.803
G1 X143.18 Y112.507 E.02148
G1 X160.78 Y130.107 E.81808
G1 X160.623 Y130.37 E.01006
G1 X160.565 Y130.545 E.00607
G1 X142.527 Y112.507 E.83844
G1 X141.873 Y112.507 E.02148
G1 X160.497 Y131.13 E.86565
G1 X160.496 Y131.783 E.02147
G1 X141.22 Y112.507 E.89601
M73 P1 R46
G1 X140.567 Y112.507 E.02148
G1 X160.496 Y132.437 E.92637
G1 X160.496 Y133.09 E.02147
G1 X139.913 Y112.507 E.95673
G1 X139.26 Y112.507 E.02148
G1 X160.496 Y133.743 E.98709
G1 X160.495 Y134.396 E.02147
G1 X138.606 Y112.507 E1.01745
G1 X137.953 Y112.507 E.02148
G1 X160.495 Y135.049 E1.0478
G1 X160.495 Y135.702 E.02147
G1 X137.3 Y112.507 E1.07816
G1 X136.646 Y112.507 E.02148
G1 X160.494 Y136.355 E1.10852
G1 X160.494 Y137.008 E.02147
G1 X135.993 Y112.507 E1.13888
G1 X135.339 Y112.507 E.02148
G1 X160.494 Y137.661 E1.16924
G1 X160.494 Y138.315 E.02147
G1 X134.686 Y112.507 E1.1996
G1 X134.033 Y112.507 E.02148
G1 X160.493 Y138.968 E1.22996
G1 X160.493 Y139.493 E.01727
G1 X160.365 Y139.493 E.0042
G1 X133.507 Y112.635 E1.24844
G1 X133.507 Y113.288 E.02148
G1 X159.712 Y139.493 E1.21806
G1 X159.058 Y139.493 E.02148
G1 X133.507 Y113.942 E1.18769
G1 X133.507 Y114.595 E.02148
G1 X158.405 Y139.493 E1.15732
G1 X157.752 Y139.493 E.02148
G1 X133.507 Y115.248 E1.12695
G1 X133.507 Y115.902 E.02148
G1 X157.098 Y139.493 E1.09658
G1 X156.445 Y139.493 E.02148
G1 X133.507 Y116.555 E1.0662
G1 X133.507 Y117.209 E.02148
G1 X155.791 Y139.493 E1.03583
G1 X155.138 Y139.493 E.02148
G1 X133.507 Y117.862 E1.00546
G1 X133.507 Y118.515 E.02148
G1 X154.485 Y139.493 E.97509
G1 X153.831 Y139.493 E.02148
G1 X133.507 Y119.169 E.94472
G1 X133.507 Y119.822 E.02148
G1 X153.178 Y139.493 E.91434
G1 X152.524 Y139.493 E.02148
G1 X133.507 Y120.476 E.88397
G1 X133.507 Y121.129 E.02148
G1 X141.876 Y129.498 E.38899
G1 X141.222 Y129.497 E.02149
G1 X133.507 Y121.782 E.3586
G1 X133.507 Y122.436 E.02148
G1 X140.568 Y129.497 E.32822
G1 X139.914 Y129.497 E.02149
G1 X133.507 Y123.089 E.29783
G1 X133.507 Y123.743 E.02148
G1 X139.261 Y129.496 E.26744
G1 X138.607 Y129.496 E.02149
G1 X133.507 Y124.396 E.23705
G1 X133.507 Y125.049 E.02148
G1 X137.953 Y129.496 E.20666
G1 X137.299 Y129.495 E.02149
G1 X133.507 Y125.703 E.17627
G1 X133.507 Y126.356 E.02148
G1 X136.645 Y129.495 E.14589
G1 X135.992 Y129.494 E.02149
G1 X133.507 Y127.01 E.1155
G1 X133.507 Y127.663 E.02148
G1 X135.338 Y129.494 E.08511
G1 X134.684 Y129.494 E.02149
G1 X133.507 Y128.316 E.05472
G1 X133.507 Y128.97 E.02148
G1 X134.236 Y129.699 E.0339
G1 E-.56 F1800
;WIPE_START
G1 F6300
G1 X133.529 Y128.992 E-.24
;WIPE_END
G1 Z.6 F21000
G1 X143.297 Y130.92 Z.6
G1 Z.2
G1 E.8 F1800
G1 F6300
G1 X151.871 Y139.493 E.39852
G1 X151.218 Y139.493 E.02148
G1 X143.504 Y131.779 E.35857
G1 X143.504 Y132.433 E.02149
G1 X150.564 Y139.493 E.32818
G1 X149.911 Y139.493 E.02148
G1 X143.504 Y133.086 E.2978
G1 X143.504 Y133.74 E.02149
G1 X149.257 Y139.493 E.26741
G1 X148.604 Y139.493 E.02148
G1 X143.505 Y134.394 E.23703
G1 X143.505 Y135.047 E.02149
G1 X147.951 Y139.493 E.20664
G1 X147.297 Y139.493 E.02148
G1 X143.505 Y135.701 E.17626
G1 X143.506 Y136.355 E.02149
G1 X146.644 Y139.493 E.14587
G1 X145.99 Y139.493 E.02148
G1 X143.506 Y137.009 E.11548
G1 X143.506 Y137.662 E.02149
G1 X145.337 Y139.493 E.0851
G1 X144.684 Y139.493 E.02148
G1 X143.506 Y138.316 E.05471
G1 X143.507 Y138.97 E.02149
G1 X144.236 Y139.699 E.03389
; stop printing object flowrate_m3 id:3 copy 0
; printing object flowrate_m6 id:6 copy 0
G1 E-.56 F1800
;WIPE_START
G1 F6300
G1 X143.529 Y138.992 E-.24
;WIPE_END
EXCLUDE_OBJECT_END NAME=flowrate_m3_id_3_copy_0
EXCLUDE_OBJECT_START NAME=flowrate_m6_id_6_copy_0
G1 Z.6 F21000
G1 X143.141 Y98.835 Z.6
G1 Z.2
G1 E.8 F1800
;TYPE:Inner wall
;WIDTH:0.499999
G1 F3000
G1 X143.116 Y98.65 E.00589
G1 X142.969 Y98.339 E.01084
G1 X142.707 Y98.064 E.01195
G1 X142.392 Y97.898 E.01123
G1 X142.021 Y97.836 E.01184
G1 X133.164 Y97.836 E.2791
G1 X133.164 Y80.164 E.55684
G1 X170.836 Y80.164 E1.18704
G1 X170.836 Y89 E.27842
G1 X170.836 Y97.836 E.27842
G1 X162 Y97.836 E.27842
G1 X161.789 Y97.852 E.00665
G1 X161.441 Y97.97 E.0116
G1 X161.113 Y98.233 E.01323
G1 X160.909 Y98.577 E.01263
G1 X160.836 Y98.979 E.01285
G1 X160.836 Y107.836 E.2791
G1 X143.164 Y107.836 E.55684
G1 X143.164 Y99 E.27842
G1 X143.147 Y98.875 E.00398
G1 X142.695 Y98.909 F21000
G1 F3000
G1 X142.678 Y98.782 E.00404
G1 X142.541 Y98.531 E.009
G1 X142.295 Y98.35 E.00961
G1 X142.021 Y98.293 E.00881
G1 X132.707 Y98.293 E.2935
G1 X132.707 Y79.707 E.58564
G1 X171.293 Y79.707 E1.21585
G1 X171.293 Y89 E.29282
G1 X171.293 Y98.293 E.29282
G1 X162 Y98.293 E.29282
G1 X161.81 Y98.314 E.00603
G1 X161.528 Y98.462 E.01004
G1 X161.353 Y98.697 E.00923
G1 X161.293 Y98.979 E.00907
G1 X161.293 Y108.293 E.2935
G1 X142.707 Y108.293 E.58564
G1 X142.707 Y99 E.29282
G1 X142.7 Y98.948 E.00165
G1 X142.25 Y98.979 F21000
;TYPE:Outer wall
G1 F3000
G1 X142.184 Y98.818 E.00548
G1 X142.021 Y98.75 E.00554
G1 X132.25 Y98.75 E.3079
G1 X132.25 Y79.25 E.61445
G1 X171.75 Y79.25 E1.24465
M73 P2 R46
G1 X171.75 Y89 E.30722
G1 X171.75 Y98.75 E.30722
G1 X161.979 Y98.75 E.3079
G1 X161.816 Y98.818 E.00554
G1 X161.75 Y98.979 E.00548
G1 X161.75 Y108.75 E.3079
G1 X142.25 Y108.75 E.61445
G1 X142.25 Y99.019 E.30664
G1 E-.56 F1800
;WIPE_START
G1 F3000
G1 X142.184 Y98.818 E-.05078
G1 X142.021 Y98.75 E-.04219
G1 X141.409 Y98.75 E-.14703
;WIPE_END
G1 Z.6 F21000
G1 X141.409 Y98.314 Z.6
G1 X171.314 Y79.686
G1 X171.314 Y81.236
G1 X170.699 Y81.236
G1 Z.2
G1 E.8 F1800
;TYPE:Bottom surface
;WIDTH:0.504948
G1 F6300
G1 X169.97 Y80.507 E.03283
G1 X169.317 Y80.507 E.02081
G1 X170.493 Y81.683 E.053
G1 X170.493 Y82.337 E.02081
G1 X168.663 Y80.507 E.08243
G1 X168.01 Y80.507 E.02081
G1 X170.493 Y82.99 E.11186
G1 X170.493 Y83.644 E.02081
G1 X167.356 Y80.507 E.14129
G1 X166.703 Y80.507 E.02081
G1 X170.493 Y84.297 E.17073
G1 X170.493 Y84.951 E.02081
G1 X166.049 Y80.507 E.20016
G1 X165.396 Y80.507 E.02081
G1 X170.493 Y85.604 E.22959
G1 X170.493 Y86.257 E.02081
G1 X164.743 Y80.507 E.25902
G1 X164.089 Y80.507 E.02081
G1 X170.493 Y86.911 E.28846
G1 X170.493 Y87.564 E.02081
G1 X163.436 Y80.507 E.31789
G1 X162.782 Y80.507 E.02081
G1 X170.493 Y88.218 E.34732
G1 X170.493 Y88.871 E.02081
G1 X162.129 Y80.507 E.37675
G1 X161.476 Y80.507 E.02081
G1 X170.493 Y89.524 E.40619
G1 X170.493 Y90.178 E.02081
G1 X160.822 Y80.507 E.43562
G1 X160.169 Y80.507 E.02081
G1 X170.493 Y90.831 E.46505
G1 X170.493 Y91.485 E.02081
G1 X159.515 Y80.507 E.49448
G1 X158.862 Y80.507 E.02081
G1 X170.493 Y92.138 E.52392
G1 X170.493 Y92.791 E.02081
G1 X158.209 Y80.507 E.55335
G1 X157.555 Y80.507 E.02081
G1 X170.493 Y93.445 E.58278
G1 X170.493 Y94.098 E.02081
G1 X156.902 Y80.507 E.61221
G1 X156.248 Y80.507 E.02081
G1 X170.493 Y94.752 E.64165
G1 X170.493 Y95.405 E.02081
G1 X155.595 Y80.507 E.67108
G1 X154.942 Y80.507 E.02081
G1 X170.493 Y96.058 E.70051
G1 X170.493 Y96.712 E.02081
G1 X154.288 Y80.507 E.72994
G1 X153.635 Y80.507 E.02081
G1 X170.493 Y97.365 E.75938
G1 X170.493 Y97.493 E.00407
G1 X169.968 Y97.493 E.01673
G1 X152.981 Y80.507 E.76515
G1 X152.328 Y80.507 E.02081
G1 X169.315 Y97.494 E.76516
G1 X168.662 Y97.494 E.0208
G1 X151.675 Y80.507 E.76518
G1 X151.021 Y80.507 E.02081
G1 X168.009 Y97.494 E.7652
G1 X167.356 Y97.495 E.0208
G1 X150.368 Y80.507 E.76521
G1 X149.714 Y80.507 E.02081
