; HEADER_BLOCK_START
; generated by OrcaSlicer 1.9.0 on 2024-02-16 at 11:31:54
; total layer number: 40
; filament_density: 1.24
; filament_diameter: 1.75
; max_z_height: 8.00
; HEADER_BLOCK_END

; THUMBNAIL_BLOCK_START

;
; THUMBNAIL_BLOCK_END

; external perimeters extrusion width = 0.40mm
; perimeters extrusion width = 0.45mm
; infill extrusion width = 0.45mm
; solid infill extrusion width = 0.40mm
; top infill extrusion width = 0.40mm
; support material extrusion width = 0.40mm
; first layer extrusion width = 0.50mm

; external perimeters extrusion width = 0.40mm
; perimeters extrusion width = 0.45mm
; infill extrusion width = 0.45mm
; solid infill extrusion width = 0.40mm
; top infill extrusion width = 0.40mm
; support material extrusion width = 0.40mm
; first layer extrusion width = 0.50mm

; EXECUTABLE_BLOCK_START
EXCLUDE_OBJECT_DEFINE NAME=Led_Frontv3-1.stl_id_0_copy_0 CENTER=111.694,75.0349 POLYGON=[[36.6941,74.141],[56.3447,60.8852],[56.4695,60.8034],[56.5962,60.7247],[56.7246,60.6493],[56.8545,60.5772],[56.986,60.5084],[57.1187,60.4429],[57.2526,60.3808],[57.3875,60.3221],[57.5233,60.2669],[57.6598,60.215],[57.797,60.1665],[57.9346,60.1214],[58.0726,60.0798],[58.2107,60.0414],[58.3489,60.0064],[58.4871,59.9748],[58.6251,59.9463],[58.7628,59.9211],[58.9074,59.898],[59.0523,59.8783],[59.1972,59.862],[59.3416,59.849],[59.4846,59.8394],[59.6245,59.8331],[59.7678,59.8299],[59.8405,59.8294],[61.1009,59.8294],[61.2737,59.8318],[61.4469,59.8388],[61.617,59.8503],[61.7877,59.8665],[186.694,74.141],[186.694,90.2404],[36.6941,90.2404],[36.6941,74.141]]
EXCLUDE_OBJECT_DEFINE NAME=Led_Frontv3-2.stl_id_1_copy_0 CENTER=111.452,132.192 POLYGON=[[33.7964,136.102],[39.1072,131.298],[164.014,117.024],[164.184,117.007],[164.354,116.996],[164.528,116.989],[164.7,116.987],[165.961,116.987],[166.034,116.987],[166.177,116.99],[166.317,116.996],[166.46,117.006],[166.604,117.019],[166.749,117.035],[166.894,117.055],[167.039,117.078],[167.176,117.103],[167.314,117.132],[167.452,117.164],[167.591,117.199],[167.729,117.237],[167.867,117.279],[168.004,117.324],[168.141,117.372],[168.278,117.424],[168.414,117.479],[168.549,117.538],[168.683,117.6],[168.815,117.665],[168.947,117.734],[169.077,117.806],[169.205,117.882],[169.332,117.96],[169.457,118.042],[189.107,131.298],[189.107,147.398],[39.1072,147.398],[33.7964,142.593],[33.7964,136.102]]
M73 P0 R67
;TYPE:Custom
START_PRINT NOZZLE_TEMP=210  BED_TEMP=60 

G90
G21
M83 ; use relative distances for extrusion
; filament start gcode
M106 S0
;LAYER_CHANGE
;Z:0.2
;HEIGHT:0.2
;BEFORE_LAYER_CHANGE
;0.2
G92 E0

G1 E-.4 F1800
;AFTER_LAYER_CHANGE
;0.2
;_SET_FAN_SPEED_CHANGING_LAYER
SET_VELOCITY_LIMIT ACCEL=500 ACCEL_TO_DECEL=250
; printing object Led_Frontv3-1.stl id:0 copy 0
EXCLUDE_OBJECT_START NAME=Led_Frontv3-1.stl_id_0_copy_0
G1 X67.909 Y58.821 F21000
G1 Z.4
G1 Z.2
G1 E.4 F1800
;TYPE:Support
;WIDTH:0.5
G1 F3000
G1 X70.766 Y58.821 E.10642
G1 X70.766 Y61.678 E.10642
G1 X73.623 Y61.678 E.10642
G1 X73.623 Y67.392 E.21283
G1 X76.481 Y67.392 E.10642
G1 X76.481 Y73.749 E.23677
G1 X74.981 Y73.749 E.05586
G1 X74.981 Y71.749 E.07449
G1 X51.267 Y71.749 E.88325
G1 X51.267 Y73.749 E.07449
G1 X49.767 Y73.749 E.05586
G1 X49.767 Y58.821 E.55602
G1 X52.624 Y58.821 E.10642
G1 X52.624 Y55.964 E.10642
G1 X67.909 Y55.964 E.56932
G1 X67.909 Y58.753 E.10386
G1 X76.069 Y73.338 F21000
G1 F3000
G1 X75.392 Y73.338 E.02522
G1 X75.392 Y71.338 E.07449
G1 X50.855 Y71.338 E.9139
G1 X50.855 Y73.338 E.07449
G1 X50.178 Y73.338 E.02522
G1 X50.178 Y59.232 E.52537
G1 X53.035 Y59.232 E.10642
G1 X53.035 Y56.375 E.10642
G1 X67.498 Y56.375 E.53867
G1 X67.498 Y59.232 E.10642
G1 X70.355 Y59.232 E.10642
G1 X70.355 Y62.09 E.10642
G1 X73.212 Y62.09 E.10642
G1 X73.212 Y67.804 E.21283
G1 X76.069 Y67.804 E.10642
G1 X76.069 Y73.338 E.20613
G1 X75.561 Y70.83 F21000
G1 F3000
G1 X50.686 Y70.83 E.9265
G1 X50.686 Y59.74 E.41305
G1 X53.543 Y59.74 E.10642
G1 X53.543 Y56.883 E.10642
G1 X66.99 Y56.883 E.50084
G1 X66.99 Y59.74 E.10642
G1 X69.847 Y59.74 E.10642
G1 X69.847 Y62.597 E.10642
G1 X72.704 Y62.597 E.10642
G1 X72.704 Y68.312 E.21283
G1 X75.561 Y68.312 E.10642
G1 X75.561 Y70.83 E.0938
G1 X75.053 Y70.322 F21000
G1 F3000
G1 X51.194 Y70.322 E.88867
G1 X51.194 Y60.248 E.37521
G1 X54.051 Y60.248 E.10642
G1 X54.051 Y57.391 E.10642
G1 X66.482 Y57.391 E.46301
G1 X66.482 Y60.248 E.10642
G1 X69.339 Y60.248 E.10642
G1 X69.339 Y63.105 E.10642
G1 X72.196 Y63.105 E.10642
G1 X72.196 Y68.819 E.21283
G1 X75.053 Y68.819 E.10642
G1 X75.053 Y70.322 E.05597
G1 X74.546 Y69.814 F21000
G1 F3000
G1 X51.702 Y69.814 E.85084
G1 X51.702 Y60.756 E.33738
G1 X54.559 Y60.756 E.10642
G1 X54.559 Y57.899 E.10642
G1 X65.974 Y57.899 E.42518
G1 X65.974 Y60.756 E.10642
G1 X68.831 Y60.756 E.10642
G1 X68.831 Y63.613 E.10642
G1 X71.689 Y63.613 E.10642
G1 X71.689 Y69.327 E.21283
G1 X74.546 Y69.327 E.10642
G1 X74.546 Y69.814 E.01814
G1 X71.181 Y69.306 F21000
G1 F3000
G1 X52.21 Y69.306 E.70659
G1 X52.21 Y61.264 E.29955
G1 X55.067 Y61.264 E.10642
G1 X55.067 Y58.407 E.10642
G1 X65.466 Y58.407 E.38734
G1 X65.466 Y61.264 E.10642
G1 X68.324 Y61.264 E.10642
G1 X68.324 Y64.121 E.10642
G1 X71.181 Y64.121 E.10642
G1 X71.181 Y69.306 E.19314
G1 X70.673 Y68.799 F21000
G1 F3000
G1 X52.718 Y68.799 E.66876
G1 X52.718 Y61.772 E.26172
G1 X55.575 Y61.772 E.10642
G1 X55.575 Y58.915 E.10642
G1 X64.959 Y58.915 E.34951
G1 X64.959 Y61.772 E.10642
G1 X67.816 Y61.772 E.10642
G1 X67.816 Y64.629 E.10642
G1 X70.673 Y64.629 E.10642
G1 X70.673 Y68.799 E.1553
G1 X70.165 Y68.291 F21000
G1 F3000
G1 X53.226 Y68.291 E.63093
G1 X53.226 Y62.28 E.22389
G1 X56.083 Y62.28 E.10642
G1 X56.083 Y59.423 E.10642
G1 X64.451 Y59.423 E.31168
G1 X64.451 Y62.28 E.10642
G1 X67.308 Y62.28 E.10642
G1 X67.308 Y65.137 E.10642
G1 X70.165 Y65.137 E.10642
G1 X70.165 Y68.291 E.11747
G1 X69.657 Y67.783 F21000
G1 F3000
G1 X53.733 Y67.783 E.59309
G1 X53.733 Y62.788 E.18605
G1 X56.591 Y62.788 E.10642
G1 X56.591 Y59.93 E.10642
G1 X63.943 Y59.93 E.27385
G1 X63.943 Y62.788 E.10642
G1 X66.8 Y62.788 E.10642
G1 X66.8 Y65.645 E.10642
G1 X69.657 Y65.645 E.10642
G1 X69.657 Y67.783 E.07964
G1 X69.149 Y67.275 F21000
G1 F3000
G1 X54.241 Y67.275 E.55526
G1 X54.241 Y63.295 E.14822
G1 X57.098 Y63.295 E.10642
G1 X57.098 Y60.438 E.10642
G1 X63.435 Y60.438 E.23602
G1 X63.435 Y63.295 E.10642
G1 X66.292 Y63.295 E.10642
G1 X66.292 Y66.152 E.10642
G1 X69.149 Y66.152 E.10642
G1 X69.149 Y67.275 E.04181
G1 X65.784 Y66.767 F21000
G1 F3000
G1 X54.749 Y66.767 E.41101
G1 X54.749 Y63.803 E.11039
G1 X57.606 Y63.803 E.10642
G1 X57.606 Y60.946 E.10642
G1 X62.927 Y60.946 E.19818
G1 X62.927 Y63.803 E.10642
G1 X65.784 Y63.803 E.10642
G1 X65.784 Y66.767 E.11039
G1 X65.276 Y66.259 F21000
G1 F3000
G1 X55.257 Y66.259 E.37318
G1 X55.257 Y64.311 E.07256
G1 X58.114 Y64.311 E.10642
G1 X58.114 Y61.454 E.10642
G1 X62.419 Y61.454 E.16035
G1 X62.419 Y64.311 E.10642
G1 X65.276 Y64.311 E.10642
G1 X65.276 Y66.259 E.07256
G1 X64.769 Y65.751 F21000
G1 F3000
G1 X55.765 Y65.751 E.33535
G1 X55.765 Y64.819 E.03473
G1 X58.622 Y64.819 E.10642
G1 X58.622 Y61.962 E.10642
G1 X61.911 Y61.962 E.12252
G1 X61.911 Y64.819 E.10642
G1 X64.769 Y64.819 E.10642
G1 X64.769 Y65.751 E.03473
G1 X61.404 Y65.243 F21000
G1 F3000
G1 X59.13 Y65.243 E.08469
G1 X59.13 Y62.47 E.10331
G1 X61.404 Y62.47 E.08469
G1 X61.404 Y65.243 E.10331
G1 X60.896 Y64.736 F21000
G1 F3000
G1 X59.638 Y64.736 E.04685
G1 X59.638 Y62.978 E.06548
G1 X60.896 Y62.978 E.04685
G1 X60.896 Y64.736 E.06548
G1 E-.28 F1800
;WIPE_START
G1 F3000
G1 X60.896 Y63.736 E-.12
;WIPE_END
G1 X55.694 Y69.321 Z.6 F21000
G1 X51.699 Y73.612 Z.6
G1 Z.2
G1 E.4 F1800
;TYPE:Support interface
G1 F3000
G1 X51.699 Y72.178 E.05343
G1 X52.556 Y72.178 E.03192
G1 X52.556 Y73.612 E.05343
G1 X53.357 Y73.612 E.02985
G1 X53.413 Y73.557 E.00293
G1 X53.413 Y72.178 E.05136
G1 X54.27 Y72.178 E.03192
G1 X54.27 Y72.949 E.02872
G1 X55.127 Y72.949 E.03192
G1 X55.127 Y72.178 E.02872
G1 X55.984 Y72.178 E.03192
G1 X55.984 Y72.949 E.02872
G1 X56.841 Y72.949 E.03192
G1 X56.841 Y72.178 E.02872
G1 X57.698 Y72.178 E.03192
G1 X57.698 Y72.949 E.02872
G1 X58.555 Y72.949 E.03192
G1 X58.555 Y72.178 E.02872
G1 X59.412 Y72.178 E.03192
G1 X59.412 Y72.949 E.02872
G1 X60.269 Y72.949 E.03192
G1 X60.269 Y72.178 E.02872
G1 X61.126 Y72.178 E.03192
G1 X61.126 Y72.949 E.02872
G1 X61.984 Y72.949 E.03192
G1 X61.984 Y72.178 E.02872
G1 X62.841 Y72.178 E.03192
G1 X62.841 Y72.949 E.02872
G1 X63.698 Y72.949 E.03192
G1 X63.698 Y72.178 E.02872
G1 X64.555 Y72.178 E.03192
G1 X64.555 Y72.949 E.02872
G1 X65.412 Y72.949 E.03192
G1 X65.412 Y72.178 E.02872
G1 X66.269 Y72.178 E.03192
G1 X66.269 Y72.949 E.02872
G1 X67.126 Y72.949 E.03192
G1 X67.126 Y72.178 E.02872
G1 X67.983 Y72.178 E.03192
G1 X67.983 Y72.949 E.02872
G1 X68.84 Y72.949 E.03192
G1 X68.84 Y72.178 E.02872
G1 X69.697 Y72.178 E.03192
G1 X69.697 Y72.949 E.02872
G1 X70.554 Y72.949 E.03192
G1 X70.554 Y72.178 E.02872
G1 X71.411 Y72.178 E.03192
G1 X71.411 Y72.949 E.02872
G1 X72.269 Y72.949 E.03192
G1 X72.269 Y72.178 E.02872
G1 X73.126 Y72.178 E.03192
G1 X73.126 Y72.949 E.02872
G1 X73.631 Y72.949 E.01882
G1 X73.805 Y73.047 E.00743
G1 X73.983 Y73.344 E.01291
G1 X73.983 Y72.178 E.04345
G1 X74.552 Y72.178 E.02121
G1 X74.552 Y73.612 E.05343
G1 X74.362 Y73.612 E.00709
G1 X74.286 Y73.485 E.00552
G1 X74.144 Y73.405 E.00606
G1 X73.503 Y73.377 F21000
;TYPE:Support
G1 F3000
G1 X73.592 Y73.526 E.00647
G1 X53.891 Y73.526 E.7338
G1 X53.891 Y73.377 E.00555
G1 X73.434 Y73.377 E.72792
G1 E-.28 F1800
;WIPE_START
G1 F3000
G1 X72.434 Y73.377 E-.12
;WIPE_END
G1 X80.06 Y73.689 Z.6 F21000
G1 X181.113 Y77.823 Z.6
M73 P0 R66
G1 Z.2
G1 E.4 F1800
;TYPE:Inner wall
;WIDTH:0.499999
G1 F3000
G1 X180.991 Y77.843 E.00461
G1 X180.676 Y78.01 E.01328
G1 X180.448 Y78.238 E.01204
G1 X180.307 Y78.484 E.01056
G1 X180.219 Y78.924 E.01669
G1 X180.219 Y85.457 E.24335
G1 X180.307 Y85.897 E.01669
G1 X180.448 Y86.143 E.01056
G1 X180.676 Y86.372 E.01204
G1 X180.991 Y86.538 E.01328
G1 X181.362 Y86.6 E.01399
G1 X185.53 Y86.6 E.15525
G1 X185.53 Y87.838 E.0461
G1 X185.53 Y89.076 E.0461
G1 X37.858 Y89.075 E5.5002
G1 X37.858 Y75.305 E.51288
G1 X53.862 Y75.305 E.59608
G1 X53.96 Y75.301 E.00364
G1 X54.356 Y75.193 E.01532
G1 X54.452 Y75.041 E.00669
G1 X73.4 Y75.041 E.70576
G1 X73.592 Y75.209 E.0095
G1 X73.762 Y75.268 E.00669
G1 X74.05 Y75.305 E.01084
G1 X185.53 Y75.305 E4.15219
G1 X185.53 Y77.781 E.09222
G1 X181.362 Y77.781 E.15525
M73 P1 R66
G1 X181.153 Y77.816 E.0079
G1 X181.162 Y78.284 F21000
G1 F3000
G1 X180.95 Y78.375 E.0086
G1 X180.729 Y78.66 E.01344
G1 X180.676 Y78.924 E.01002
G1 X180.676 Y85.457 E.24335
G1 X180.729 Y85.721 E.01002
G1 X180.95 Y86.006 E.01344
G1 X181.139 Y86.106 E.00797
G1 X181.362 Y86.143 E.0084
G1 X185.987 Y86.143 E.17227
G1 X185.987 Y87.838 E.06313
G1 X185.987 Y89.533 E.06313
G1 X37.401 Y89.532 E5.53425
G1 X37.401 Y74.848 E.54693
G1 X53.862 Y74.848 E.6131
G1 X54.159 Y74.781 E.01133
G1 X54.283 Y74.584 E.00867
G1 X73.54 Y74.584 E.71727
G1 X73.775 Y74.791 E.01167
G1 X74.05 Y74.848 E.01046
G1 X185.987 Y74.848 E4.16922
G1 X185.987 Y78.238 E.12627
G1 X181.243 Y78.248 E.17669
G1 X181.199 Y78.268 E.0018
G1 X181.322 Y78.699 F21000
;TYPE:Outer wall
G1 F3000
G1 X181.179 Y78.787 E.00626
G1 X181.133 Y78.924 E.00538
G1 X181.137 Y85.499 E.24489
G1 X181.225 Y85.64 E.0062
G1 X181.362 Y85.686 E.00538
G1 X186.444 Y85.686 E.1893
G1 X186.444 Y87.838 E.08015
G1 X186.444 Y89.99 E.08015
G1 X36.944 Y89.989 E5.5683
G1 X36.944 Y74.391 E.58098
G1 X53.862 Y74.391 E.63013
G1 X53.961 Y74.368 E.00378
G1 X54.091 Y74.126 E.01023
G1 X73.762 Y74.126 E.7327
G1 X73.959 Y74.372 E.0117
G1 X74.05 Y74.391 E.00349
G1 X186.444 Y74.391 E4.18624
G1 X186.444 Y78.695 E.16032
G1 X181.362 Y78.695 E.18928
G1 E-.28 F1800
;WIPE_START
G1 F3000
G1 X181.179 Y78.787 E-.02457
G1 X181.133 Y78.924 E-.01734
G1 X181.134 Y79.574 E-.07809
;WIPE_END
G1 X184.469 Y75.442 Z.6 F21000
G1 Z.2
G1 E.4 F1800
;TYPE:Bottom surface
;WIDTH:0.500081
G1 F6300
G1 X185.187 Y76.161 E.03785
G1 X185.187 Y76.807 E.02408
G1 X184.028 Y75.648 E.06108
G1 X183.381 Y75.648 E.02408
G1 X185.172 Y77.438 E.09432
G1 X184.525 Y77.438 E.02408
G1 X182.735 Y75.648 E.09432
G1 X182.088 Y75.648 E.02408
G1 X183.879 Y77.438 E.09432
G1 X183.232 Y77.438 E.02408
G1 X181.442 Y75.648 E.09432
G1 X180.795 Y75.648 E.02408
G1 X182.586 Y77.438 E.09432
G1 X181.939 Y77.438 E.02408
G1 X180.149 Y75.648 E.09432
G1 X179.502 Y75.648 E.02408
G1 X181.298 Y77.443 E.09459
G1 X181.106 Y77.46 E.00718
G1 X180.876 Y77.519 E.00885
G1 X180.778 Y77.571 E.00409
G1 X178.856 Y75.648 E.1013
G1 X178.209 Y75.648 E.02408
G1 X180.383 Y77.822 E.11451
G1 X180.173 Y78.031 E.01104
G1 X180.09 Y78.176 E.00621
G1 X177.563 Y75.648 E.13318
G1 X176.916 Y75.648 E.02408
G1 X179.905 Y78.637 E.15749
G1 X179.876 Y78.919 E.01053
G1 X179.876 Y79.255 E.01252
G1 X176.27 Y75.648 E.19001
G1 X175.623 Y75.648 E.02408
G1 X179.876 Y79.901 E.22408
G1 X179.876 Y80.548 E.02408
G1 X174.977 Y75.648 E.25814
G1 X174.33 Y75.648 E.02408
G1 X179.876 Y81.194 E.2922
G1 X179.876 Y81.841 E.02408
G1 X173.683 Y75.648 E.32626
G1 X173.037 Y75.648 E.02408
G1 X179.876 Y82.487 E.36032
G1 X179.876 Y83.134 E.02408
G1 X172.39 Y75.648 E.39438
G1 X171.744 Y75.648 E.02408
G1 X179.876 Y83.78 E.42844
G1 X179.876 Y84.427 E.02408
G1 X171.097 Y75.648 E.4625
G1 X170.451 Y75.648 E.02408
G1 X180.082 Y85.279 E.5074
G1 E-.28 F1800
;WIPE_START
G1 F6300
G1 X179.375 Y84.572 E-.12
;WIPE_END
G1 X184.773 Y86.737 Z.6 F21000
G1 Z.2
G1 E.4 F1800
G1 F6300
G1 X185.187 Y87.152 E.02183
G1 X185.187 Y87.798 E.02408
G1 X184.332 Y86.943 E.04506
G1 X183.685 Y86.943 E.02408
G1 X185.187 Y88.445 E.07912
G1 X185.187 Y88.733 E.01074
G1 X184.829 Y88.733 E.01335
G1 X183.039 Y86.943 E.0943
G1 X182.392 Y86.943 E.02408
G1 X184.182 Y88.733 E.0943
G1 X183.536 Y88.733 E.02408
G1 X181.54 Y86.737 E.10514
G1 E-.28 F1800
;WIPE_START
G1 F6300
G1 X182.247 Y87.444 E-.12
;WIPE_END
G1 X183.095 Y88.939 Z.6 F21000
G1 Z.2
G1 E.4 F1800
G1 F6300
G1 X181.049 Y86.892 E.10781
G1 X180.88 Y86.864 E.00637
G1 X180.47 Y86.647 E.01726
G1 X180.173 Y86.35 E.01566
G1 X179.99 Y86.03 E.01374
G1 X179.908 Y85.751 E.01083
G1 X169.804 Y75.648 E.53228
G1 X169.158 Y75.648 E.02408
G1 X182.243 Y88.733 E.68936
G1 X181.596 Y88.733 E.02408
G1 X168.511 Y75.648 E.68936
G1 X167.865 Y75.648 E.02408
G1 X180.95 Y88.733 E.68936
G1 X180.303 Y88.733 E.02408
G1 X167.218 Y75.648 E.68936
G1 X166.572 Y75.648 E.02408
G1 X179.657 Y88.733 E.68936
G1 X179.01 Y88.733 E.02408
G1 X165.925 Y75.648 E.68936
G1 X165.279 Y75.648 E.02408
G1 X178.364 Y88.733 E.68936
G1 X177.717 Y88.733 E.02408
G1 X164.632 Y75.648 E.68936
G1 X163.986 Y75.648 E.02408
G1 X177.071 Y88.733 E.68936
G1 X176.424 Y88.733 E.02408
G1 X163.339 Y75.648 E.68936
G1 X162.693 Y75.648 E.02408
G1 X175.778 Y88.733 E.68936
G1 X175.131 Y88.733 E.02408
G1 X162.046 Y75.648 E.68936
G1 X161.4 Y75.648 E.02408
G1 X174.484 Y88.733 E.68936
G1 X173.838 Y88.733 E.02408
G1 X160.753 Y75.648 E.68936
G1 X160.107 Y75.648 E.02408
G1 X173.191 Y88.733 E.68936
G1 X172.545 Y88.733 E.02408
G1 X159.46 Y75.648 E.68936
G1 X158.813 Y75.648 E.02408
G1 X171.898 Y88.733 E.68936
G1 X171.252 Y88.733 E.02408
G1 X158.167 Y75.648 E.68936
G1 X157.52 Y75.648 E.02408
G1 X170.605 Y88.733 E.68936
G1 X169.959 Y88.733 E.02408
G1 X156.874 Y75.648 E.68936
G1 X156.227 Y75.648 E.02408
G1 X169.312 Y88.733 E.68936
G1 X168.666 Y88.733 E.02408
G1 X155.581 Y75.648 E.68936
G1 X154.934 Y75.648 E.02408
G1 X168.019 Y88.733 E.68936
G1 X167.373 Y88.733 E.02408
G1 X154.288 Y75.648 E.68936
G1 X153.641 Y75.648 E.02408
G1 X166.726 Y88.733 E.68936
G1 X166.08 Y88.733 E.02408
G1 X152.995 Y75.648 E.68936
G1 X152.348 Y75.648 E.02408
G1 X165.433 Y88.733 E.68936
G1 X164.787 Y88.733 E.02408
G1 X151.702 Y75.648 E.68936
G1 X151.055 Y75.648 E.02408
G1 X164.14 Y88.733 E.68936
G1 X163.494 Y88.733 E.02408
G1 X150.409 Y75.648 E.68936
G1 X149.762 Y75.648 E.02408
G1 X162.847 Y88.733 E.68936
G1 X162.2 Y88.733 E.02408
G1 X149.116 Y75.648 E.68936
G1 X148.469 Y75.648 E.02408
G1 X161.554 Y88.733 E.68936
G1 X160.907 Y88.733 E.02408
G1 X147.823 Y75.648 E.68936
G1 X147.176 Y75.648 E.02408
G1 X160.261 Y88.733 E.68936
G1 X159.614 Y88.733 E.02408
G1 X146.53 Y75.648 E.68936
G1 X145.883 Y75.648 E.02408
