; HEADER_BLOCK_START
; generated by OrcaSlicer 1.9.0 on 2024-01-30 at 10:51:37
; total layer number: 85
; filament_density: 1.24
; filament_diameter: 1.75
; max_z_height: 17.00
; HEADER_BLOCK_END

; THUMBNAIL_BLOCK_START

;
; THUMBNAIL_BLOCK_END

; external perimeters extrusion width = 0.40mm
; perimeters extrusion width = 0.45mm
; infill extrusion width = 0.45mm
; solid infill extrusion width = 0.40mm
; top infill extrusion width = 0.40mm
; first layer extrusion width = 0.50mm

; external perimeters extrusion width = 0.40mm
; perimeters extrusion width = 0.45mm
; infill extrusion width = 0.45mm
; solid infill extrusion width = 0.40mm
; top infill extrusion width = 0.40mm
; first layer extrusion width = 0.50mm

; external perimeters extrusion width = 0.40mm
; perimeters extrusion width = 0.45mm
; infill extrusion width = 0.45mm
; solid infill extrusion width = 0.40mm
; top infill extrusion width = 0.40mm
; first layer extrusion width = 0.50mm

; external perimeters extrusion width = 0.40mm
; perimeters extrusion width = 0.45mm
; infill extrusion width = 0.45mm
; solid infill extrusion width = 0.40mm
; top infill extrusion width = 0.40mm
; first layer extrusion width = 0.50mm

; external perimeters extrusion width = 0.40mm
; perimeters extrusion width = 0.45mm
; infill extrusion width = 0.45mm
; solid infill extrusion width = 0.40mm
; top infill extrusion width = 0.40mm
; first layer extrusion width = 0.50mm

; external perimeters extrusion width = 0.40mm
; perimeters extrusion width = 0.45mm
; infill extrusion width = 0.45mm
; solid infill extrusion width = 0.40mm
; top infill extrusion width = 0.40mm
; first layer extrusion width = 0.50mm

; EXECUTABLE_BLOCK_START
EXCLUDE_OBJECT_DEFINE NAME=LEDbar-Back_1.stl_id_0_copy_0 CENTER=110,171.9 POLYGON=[[32.3446,148.214],[37.6555,143.411],[187.655,143.411],[187.655,159.509],[132.656,200.389],[122.656,200.389],[37.6555,159.509],[32.3446,154.706],[32.3446,148.214]]
EXCLUDE_OBJECT_DEFINE NAME=LEDbar-Back_2.stl_id_1_copy_0 CENTER=110.123,112.922 POLYGON=[[35.1226,100.531],[35.1226,85.8823],[35.1226,84.6561],[35.1226,84.4327],[185.123,84.4327],[185.123,84.8172],[185.123,86.069],[185.123,100.531],[100.122,141.411],[90.1216,141.411],[35.1226,100.531]]
EXCLUDE_OBJECT_DEFINE NAME=Led_Frontv3-2.stl_id_2_copy_0 CENTER=110,67.2272 POLYGON=[[32.3446,52.0217],[182.345,52.0217],[187.655,56.8262],[187.655,63.3169],[182.345,68.1212],[57.4382,82.3956],[57.2675,82.4118],[57.0973,82.4233],[56.9241,82.4303],[56.7513,82.4327],[55.491,82.4327],[55.4183,82.4322],[55.275,82.429],[55.1351,82.4227],[54.992,82.4131],[54.8476,82.4002],[54.7028,82.3838],[54.5579,82.3641],[54.4132,82.341],[54.2755,82.3158],[54.1375,82.2874],[53.9994,82.2557],[53.8612,82.2207],[53.723,82.1824],[53.5851,82.1407],[53.4475,82.0956],[53.3103,82.0471],[53.1738,81.9952],[53.038,81.94],[52.903,81.8813],[52.7692,81.8192],[52.6364,81.7537],[52.505,81.6849],[52.375,81.6128],[52.2466,81.5374],[52.12,81.4587],[51.9952,81.3769],[32.3446,68.1212],[32.3446,52.0217]]
EXCLUDE_OBJECT_DEFINE NAME=Led_Frontv3-1.stl_id_3_copy_0 CENTER=110.05,34.8162 POLYGON=[[35.0498,19.6107],[185.05,19.6107],[185.05,35.7102],[165.399,48.9659],[165.274,49.0478],[165.148,49.1264],[165.019,49.2018],[164.889,49.274],[164.758,49.3428],[164.625,49.4082],[164.491,49.4703],[164.356,49.529],[164.221,49.5843],[164.084,49.6362],[163.947,49.6846],[163.809,49.7297],[163.671,49.7714],[163.533,49.8097],[163.395,49.8447],[163.257,49.8764],[163.119,49.9048],[162.981,49.93],[162.836,49.9531],[162.692,49.9728],[162.547,49.9892],[162.402,50.0022],[162.259,50.0118],[162.119,50.018],[161.976,50.0213],[161.903,50.0217],[160.643,50.0217],[160.47,50.0194],[160.297,50.0123],[160.127,50.0008],[159.956,49.9846],[35.0498,35.7102],[35.0498,19.6107]]
EXCLUDE_OBJECT_DEFINE NAME=Ender_5_Cable_holder.stl_id_4_copy_0 CENTER=149.179,130.911 POLYGON=[[139.179,126.427],[139.181,126.35],[139.183,126.321],[139.183,126.317],[139.194,126.235],[139.199,126.212],[139.199,126.208],[139.222,126.121],[139.227,126.105],[139.228,126.102],[139.262,126.012],[139.266,126.001],[139.267,126],[139.314,125.908],[139.318,125.902],[139.379,125.811],[139.582,125.551],[139.794,125.299],[140.017,125.056],[140.248,124.822],[140.489,124.596],[140.738,124.38],[140.995,124.174],[141.261,123.978],[141.533,123.793],[141.813,123.618],[142.099,123.454],[142.391,123.302],[142.689,123.161],[142.992,123.031],[143.3,122.913],[143.612,122.808],[143.928,122.714],[144.248,122.633],[154.179,120.411],[159.179,120.411],[159.179,141.411],[154.179,141.411],[144.248,139.189],[143.928,139.108],[143.612,139.014],[143.3,138.909],[142.992,138.791],[142.689,138.661],[142.391,138.52],[142.099,138.368],[141.813,138.204],[141.533,138.029],[141.261,137.844],[140.995,137.648],[140.738,137.442],[140.489,137.226],[140.248,137],[140.017,136.766],[139.794,136.523],[139.582,136.271],[139.379,136.011],[139.318,135.92],[139.314,135.914],[139.267,135.822],[139.266,135.821],[139.262,135.81],[139.228,135.72],[139.227,135.717],[139.222,135.701],[139.199,135.614],[139.199,135.61],[139.194,135.587],[139.183,135.505],[139.183,135.501],[139.181,135.472],[139.179,135.395],[139.179,126.427]]
EXCLUDE_OBJECT_DEFINE NAME=LEDbar-Front-xtraholder.stl_id_5_copy_0 CENTER=129.563,136.294 POLYGON=[[121.948,133.223],[137.179,133.223],[137.179,136.223],[123.963,139.364],[121.948,139.364],[121.948,133.223]]
M73 P0 R166
;TYPE:Custom
START_PRINT NOZZLE_TEMP=210  BED_TEMP=60 

G90
G21
M83 ; use relative distances for extrusion
; filament start gcode
M106 S0
;LAYER_CHANGE
;Z:0.2
;HEIGHT:0.2
;BEFORE_LAYER_CHANGE
;0.2
G92 E0

G1 E-.4 F1800
;AFTER_LAYER_CHANGE
;0.2
;_SET_FAN_SPEED_CHANGING_LAYER
SET_VELOCITY_LIMIT ACCEL=500 ACCEL_TO_DECEL=250
; printing object LEDbar-Back_1.stl id:0 copy 0
EXCLUDE_OBJECT_START NAME=LEDbar-Back_1.stl_id_0_copy_0
G1 X124.788 Y194.764 F21000
G1 Z.4
G1 Z.2
G1 E.4 F1800
;TYPE:Inner wall
;WIDTH:0.499999
G1 F3000
G1 X125.015 Y195.032 E.01305
G1 X125.324 Y195.307 E.01543
G1 X123.82 Y195.307 E.05599
G1 X123.82 Y193.816 E.05556
;WIDTH:0.541939
G1 X123.841 Y193.561 E.01038
;WIDTH:0.583879
G1 X123.862 Y193.307 E.01125
;WIDTH:0.625818
G1 X123.883 Y193.053 E.01213
G1 X123.921 Y193.139 E.00449
;WIDTH:0.595564
G1 X123.959 Y193.226 E.00426
;WIDTH:0.56531
G1 X124.111 Y193.587 E.01668
;WIDTH:0.532655
M73 P0 R165
G1 X124.262 Y193.949 E.01564
;WIDTH:0.499999
G1 X124.664 Y194.618 E.02909
G1 X124.762 Y194.734 E.00565
G1 E-.28 F1800
;WIPE_START
G1 F3000
G1 X125.015 Y195.032 E-.04685
G1 X125.324 Y195.307 E-.0497
G1 X125.128 Y195.307 E-.02345
;WIPE_END
G1 X130.336 Y195.209 Z.6 F21000
G1 Z.2
G1 E.4 F1800
;WIDTH:0.697628
G1 F3000
G1 X130.916 Y194.515 E.04825
G1 X131.274 Y193.863 E.03966
G1 X131.393 Y193.558 E.01748
G1 X131.393 Y195.209 E.08804
G1 X130.376 Y195.209 E.0543
G1 E-.28 F1800
;WIPE_START
G1 F3000
G1 X130.916 Y194.515 E-.10552
G1 X130.974 Y194.409 E-.01448
;WIPE_END
G1 X127.325 Y187.706 Z.6 F21000
G1 X124.476 Y182.473 Z.6
G1 Z.2
G1 E.4 F1800
;WIDTH:0.609754
G1 F3000
G1 X124.44 Y182.033 E.02038
;WIDTH:0.608749
G1 X124.439 Y181.961 E.00332
;WIDTH:0.607401
G1 X124.437 Y169.509 E.57277
;WIDTH:0.609009
G1 X124.417 Y168.818 E.03186
;WIDTH:0.612351
G1 X124.365 Y168.22 E.02789
G1 X124.285 Y167.619 E.02812
;WIDTH:0.608912
G1 X124.145 Y166.904 E.0336
G1 X123.963 Y166.198 E.03364
;WIDTH:0.61023
G1 X123.778 Y165.626 E.02778
G1 X123.51 Y164.928 E.03455
;WIDTH:0.608513
G1 X123.262 Y164.38 E.02773
;WIDTH:0.610105
G1 X122.927 Y163.74 E.03337
;WIDTH:0.61919
G1 X122.488 Y162.998 E.04052
G1 X122.365 Y162.676 E.01616
;WIDTH:0.587902
G1 X122.309 Y162.412 E.01201
;WIDTH:0.543951
G1 X122.252 Y162.148 E.01104
;WIDTH:0.499999
G1 X122.192 Y161.722 E.016
G1 X122.191 Y161.311 E.01531
G1 X122.296 Y160.677 E.02396
G1 X122.53 Y160.073 E.0241
G1 X122.816 Y159.612 E.02021
G1 X123.239 Y159.153 E.02325
G1 X123.688 Y158.817 E.0209
G1 X124.249 Y158.545 E.0232
G1 X124.933 Y158.377 E.02625
G1 X125.162 Y158.353 E.00858
G1 X130.013 Y158.346 E.18068
G1 X130.59 Y158.415 E.02165
G1 X131.146 Y158.581 E.0216
G1 X131.558 Y158.793 E.01724
G1 X132 Y159.086 E.01978
G1 X132.377 Y159.459 E.01974
G1 X132.737 Y159.983 E.02368
G1 X132.987 Y160.588 E.02438
G1 X133.064 Y160.887 E.0115
G1 X133.124 Y161.395 E.01904
G1 X133.09 Y161.919 E.01958
G1 X132.989 Y162.433 E.01951
;WIDTH:0.537962
G1 X132.921 Y162.644 E.00894
;WIDTH:0.575925
G1 X132.854 Y162.855 E.00962
;WIDTH:0.613887
G1 X132.787 Y163.067 E.01031
G1 X132.424 Y163.68 E.03315
;WIDTH:0.616359
G1 X132.003 Y164.488 E.04259
G1 X131.775 Y164.996 E.026
;WIDTH:0.606385
G1 X131.566 Y165.551 E.02723
;WIDTH:0.620267
G1 X131.29 Y166.435 E.04361
G1 X131.145 Y167.01 E.02786
;WIDTH:0.612088
G1 X131.034 Y167.592 E.02748
;WIDTH:0.611959
G1 X130.951 Y168.178 E.02745
;WIDTH:0.609375
G1 X130.898 Y168.782 E.02799
;WIDTH:0.608373
G1 X130.875 Y169.457 E.03114
;WIDTH:0.607508
G1 X130.874 Y169.509 E.00239
;WIDTH:0.607651
G1 X130.874 Y182 E.57483
;WIDTH:0.651174
G1 X130.81 Y182.902 E.04481
G1 X130.721 Y183.142 E.01266
;WIDTH:0.613381
G1 X130.632 Y183.381 E.01187
;WIDTH:0.575587
G1 X130.542 Y183.62 E.01108
;WIDTH:0.537793
G1 X130.453 Y183.859 E.0103
;WIDTH:0.499999
G1 X130.169 Y184.416 E.02327
G1 X129.865 Y184.83 E.01913
G1 X129.468 Y185.217 E.02065
G1 X129.047 Y185.504 E.01898
G1 X128.53 Y185.735 E.0211
G1 X128.008 Y185.854 E.01992
G1 X127.47 Y185.87 E.02008
G1 X126.88 Y185.761 E.02232
G1 X126.305 Y185.527 E.02314
G1 X125.809 Y185.186 E.0224
G1 X125.372 Y184.737 E.02334
G1 X125.042 Y184.245 E.0221
G1 X124.796 Y183.71 E.02191
;WIDTH:0.536584
G1 X124.696 Y183.382 E.01382
;WIDTH:0.573169
G1 X124.596 Y183.053 E.01484
;WIDTH:0.609754
G1 X124.497 Y182.724 E.01587
G1 X124.48 Y182.513 E.00978
G1 X124.983 Y182.425 F21000
;WIDTH:0.499999
G1 F3000
G1 X124.949 Y181.961 E.01732
G1 X124.948 Y169.318 E.4709
G1 X124.927 Y168.78 E.02004
G1 X124.874 Y168.156 E.02335
G1 X124.788 Y167.527 E.02362
G1 X124.643 Y166.782 E.02829
G1 X124.451 Y166.048 E.02826
G1 X124.259 Y165.448 E.02347
G1 X123.979 Y164.723 E.02893
G1 X123.719 Y164.149 E.02348
G1 X123.372 Y163.486 E.02784
G1 X122.934 Y162.737 E.03234
G1 X122.722 Y162.172 E.02249
G1 X122.649 Y161.721 E.017
G1 X122.648 Y161.31 E.01531
G1 X122.744 Y160.768 E.0205
G1 X122.95 Y160.254 E.02063
G1 X123.224 Y159.827 E.0189
G1 X123.577 Y159.461 E.01894
G1 X124.06 Y159.13 E.02182
G1 X124.575 Y158.918 E.02074
G1 X125.094 Y158.814 E.0197
G1 X130.013 Y158.803 E.18323
G1 X130.46 Y158.853 E.01673
G1 X131.015 Y159.019 E.0216
G1 X131.674 Y159.415 E.02863
G1 X132.038 Y159.766 E.01882
G1 X132.326 Y160.183 E.01889
G1 X132.564 Y160.761 E.02329
G1 X132.67 Y161.448 E.02589
G1 X132.617 Y162.008 E.02093
G1 X132.563 Y162.267 E.00986
G1 X132.343 Y162.808 E.02178
G1 X131.81 Y163.725 E.0395
G1 X131.533 Y164.276 E.02294
G1 X131.274 Y164.868 E.02409
G1 X130.968 Y165.703 E.03312
G1 X130.788 Y166.308 E.02348
G1 X130.642 Y166.908 E.02302
G1 X130.526 Y167.515 E.02303
G1 X130.442 Y168.128 E.02302
G1 X130.387 Y168.759 E.02359
G1 X130.364 Y169.453 E.02589
G1 X130.363 Y182 E.46733
G1 X130.28 Y182.848 E.03173
G1 X130.018 Y183.721 E.03393
G1 X129.77 Y184.194 E.01988
G1 X129.427 Y184.633 E.02077
G1 X129.059 Y184.956 E.01824
G1 X128.585 Y185.222 E.02024
G1 X128.237 Y185.346 E.01375
G1 X127.669 Y185.415 E.02133
G1 X127.327 Y185.395 E.01275
G1 X126.811 Y185.261 E.01984
G1 X126.385 Y185.045 E.01781
G1 X125.982 Y184.73 E.01904
G1 X125.638 Y184.335 E.01952
G1 X125.38 Y183.909 E.01854
G1 X125.175 Y183.406 E.02024
G1 X124.996 Y182.612 E.03032
G1 X124.986 Y182.465 E.00549
G1 X125.435 Y182.391 F21000
;TYPE:Outer wall
G1 F3000
G1 X125.407 Y181.961 E.01604
G1 X125.405 Y169.309 E.47122
G1 X125.384 Y168.753 E.02076
G1 X125.329 Y168.105 E.02419
G1 X125.239 Y167.452 E.02454
G1 X125.088 Y166.68 E.0293
G1 X124.89 Y165.92 E.02927
G1 X124.69 Y165.295 E.02444
G1 X124.401 Y164.546 E.02991
G1 X124.13 Y163.948 E.02444
G1 X123.772 Y163.265 E.02872
G1 X123.328 Y162.506 E.03275
G1 X123.15 Y161.978 E.02074
G1 X123.105 Y161.494 E.01813
G1 X123.105 Y161.309 E.00688
G1 X123.206 Y160.815 E.01878
G1 X123.39 Y160.397 E.017
G1 X123.601 Y160.089 E.01394
G1 X123.924 Y159.766 E.01702
G1 X124.246 Y159.547 E.01449
G1 X124.668 Y159.365 E.01709
G1 X125.164 Y159.268 E.01884
G1 X130.013 Y159.26 E.18062
G1 X130.329 Y159.291 E.0118
G1 X130.884 Y159.457 E.0216
G1 X131.425 Y159.798 E.0238
G1 X131.716 Y160.094 E.01549
G1 X131.948 Y160.464 E.01624
G1 X132.141 Y160.934 E.01895
G1 X132.216 Y161.502 E.02132
G1 X132.151 Y162.047 E.02045
G1 X131.963 Y162.547 E.0199
G1 X131.589 Y163.195 E.02784
G1 X131.134 Y164.052 E.03616
G1 X130.912 Y164.555 E.02045
G1 X130.659 Y165.218 E.02647
G1 X130.356 Y166.157 E.03675
G1 X130.203 Y166.781 E.0239
G1 X130.081 Y167.41 E.02388
G1 X129.992 Y168.045 E.02387
G1 X129.933 Y168.698 E.02442
G1 X129.907 Y169.509 E.03023
G1 X129.906 Y182 E.46525
G1 X129.825 Y182.802 E.03001
G1 X129.582 Y183.582 E.03044
G1 X129.351 Y184.001 E.01779
G1 X129.117 Y184.297 E.01407
G1 X128.816 Y184.569 E.01514
G1 X128.418 Y184.797 E.01707
G1 X128.153 Y184.897 E.01052
G1 X127.673 Y184.958 E.01802
G1 X127.43 Y184.95 E.00908
G1 X127.001 Y184.846 E.01642
G1 X126.658 Y184.678 E.01424
G1 X126.321 Y184.423 E.01573
G1 X126.025 Y184.091 E.01655
G1 X125.799 Y183.727 E.01596
G1 X125.621 Y183.306 E.01705
G1 X125.442 Y182.511 E.03032
G1 X125.437 Y182.431 E.00301
G1 E-.28 F1800
;WIPE_START
G1 F3000
G1 X125.407 Y181.961 E-.05648
G1 X125.406 Y181.432 E-.06352
;WIPE_END
G1 X118.275 Y178.712 Z.6 F21000
G1 X38.788 Y148.401 Z.6
G1 Z.2
G1 E.4 F1800
;TYPE:Inner wall
G1 F3000
G1 X38.82 Y148.236 E.00626
G1 X38.82 Y145.964 E.08463
G1 X186.491 Y145.964 E5.5002
G1 X186.491 Y152.155 E.23058
G1 X186.491 Y158.345 E.23058
G1 X142.656 Y158.345 E1.63269
G1 X141.939 Y158.37 E.02673
G1 X140.868 Y158.491 E.04015
G1 X139.86 Y158.702 E.03834
G1 X139.071 Y158.937 E.03069
G1 X138.384 Y159.196 E.02734
G1 X137.899 Y159.423 E.01994
G1 X137.062 Y159.856 E.03508
G1 X136.598 Y160.132 E.02012
G1 X136.181 Y160.43 E.01911
G1 X135.665 Y160.806 E.02378
G1 X135.279 Y161.139 E.01895
G1 X134.874 Y161.513 E.02054
G1 X134.427 Y161.966 E.02371
G1 X134.077 Y162.366 E.0198
G1 X133.728 Y162.838 E.02188
;WIDTH:0.535711
G1 X133.544 Y163.064 E.01169
;WIDTH:0.571423
G1 X133.36 Y163.289 E.01254
;WIDTH:0.607135
G1 X133.175 Y163.515 E.01339
;WIDTH:0.612685
G1 X132.768 Y164.23 E.0382
;WIDTH:0.616359
G1 X132.269 Y165.276 E.05416
;WIDTH:0.613631
G1 X132.002 Y166.03 E.03722
;WIDTH:0.620267
G1 X131.696 Y167.152 E.0547
;WIDTH:0.612088
G1 X131.595 Y167.686 E.02523
;WIDTH:0.611959
G1 X131.492 Y168.428 E.03472
;WIDTH:0.605631
G1 X131.451 Y169 E.02632
;WIDTH:0.607213
G1 X131.439 Y169.509 E.0234
;WIDTH:0.607651
G1 X131.438 Y182 E.57483
;WIDTH:0.611459
G1 X131.436 Y182.15 E.00695
;WIDTH:0.651174
G1 X131.417 Y182.933 E.0388
G1 X131.435 Y183.092 E.00792
;WIDTH:0.613548
G1 X131.454 Y183.251 E.00743
;WIDTH:0.575922
G1 X131.473 Y183.636 E.01675
;WIDTH:0.537961
G1 X131.492 Y184.021 E.01555
;WIDTH:0.499999
G1 X131.492 Y190.332 E.23509
;WIDTH:0.541012
G1 X131.472 Y191.138 E.03271
G1 X131.411 Y190.937 E.00853
;WIDTH:0.518987
G1 X131.122 Y190.187 E.03116
;WIDTH:0.499999
G1 X130.717 Y189.522 E.029
G1 X130.097 Y188.862 E.03372
G1 X129.274 Y188.325 E.03661
G1 X128.651 Y188.088 E.02484
G1 X128.042 Y187.987 E.02297
G1 X127.53 Y187.978 E.01911
G1 X126.906 Y188.055 E.02341
G1 X126.189 Y188.293 E.02813
G1 X125.515 Y188.685 E.02905
G1 X124.924 Y189.216 E.02956
G1 X124.46 Y189.839 E.02895
G1 X124.111 Y190.558 E.02979
;WIDTH:0.541258
G1 X123.986 Y190.947 E.01657
;WIDTH:0.582516
G1 X123.862 Y191.336 E.01794
G1 X123.837 Y191.099 E.01046
;WIDTH:0.533467
G1 X123.82 Y190.516 E.0233
;WIDTH:0.499999
G1 X123.82 Y183.607 E.25734
;WIDTH:0.541296
G1 X123.841 Y183.255 E.01431
;WIDTH:0.582592
G1 X123.862 Y182.903 E.0155
;WIDTH:0.623888
G1 X123.882 Y182.551 E.01669
G1 X123.874 Y181.961 E.02795
;WIDTH:0.607401
G1 X123.874 Y169.509 E.57277
;WIDTH:0.60921
G1 X123.851 Y168.84 E.03091
;WIDTH:0.612351
G1 X123.707 Y167.589 E.0584
;WIDTH:0.60575
G1 X123.547 Y166.827 E.0357
;WIDTH:0.606357
G1 X123.393 Y166.262 E.02692
G1 X123.125 Y165.483 E.03781
;WIDTH:0.6055
G1 X122.908 Y164.958 E.02606
G1 X122.647 Y164.412 E.02773
;WIDTH:0.607432
