; HEADER_BLOCK_START
; generated by OrcaSlicer 1.9.0 on 2024-01-28 at 12:10:32
; total layer number: 67
; filament_density: 1.24
; filament_diameter: 1.75
; max_z_height: 10.10
; HEADER_BLOCK_END

; THUMBNAIL_BLOCK_START

;
; THUMBNAIL_BLOCK_END

; external perimeters extrusion width = 0.40mm
; perimeters extrusion width = 0.45mm
; infill extrusion width = 0.45mm
; solid infill extrusion width = 0.40mm
; top infill extrusion width = 0.40mm
; first layer extrusion width = 0.50mm

; external perimeters extrusion width = 0.40mm
; perimeters extrusion width = 0.45mm
; infill extrusion width = 0.45mm
; solid infill extrusion width = 0.40mm
; top infill extrusion width = 0.40mm
; first layer extrusion width = 0.50mm

; external perimeters extrusion width = 0.40mm
; perimeters extrusion width = 0.45mm
; infill extrusion width = 0.45mm
; solid infill extrusion width = 0.40mm
; top infill extrusion width = 0.40mm
; first layer extrusion width = 0.50mm

; external perimeters extrusion width = 0.40mm
; perimeters extrusion width = 0.45mm
; infill extrusion width = 0.45mm
; solid infill extrusion width = 0.40mm
; top infill extrusion width = 0.40mm
; first layer extrusion width = 0.50mm

; EXECUTABLE_BLOCK_START
EXCLUDE_OBJECT_DEFINE NAME=LEDbar-Back_1.stl_id_0_copy_0 CENTER=110,185.184 POLYGON=[[32.3446,161.498],[37.6555,156.695],[187.655,156.695],[187.655,172.793],[132.656,213.673],[122.656,213.673],[37.6555,172.793],[32.3446,167.989],[32.3446,161.498]]
EXCLUDE_OBJECT_DEFINE NAME=LEDbar-Back_1.stl_id_1_copy_0 CENTER=110,126.205 POLYGON=[[32.3446,102.52],[37.6555,97.7162],[187.655,97.7165],[187.655,113.815],[132.656,154.695],[122.656,154.695],[37.6555,113.815],[32.3446,109.011],[32.3446,102.52]]
EXCLUDE_OBJECT_DEFINE NAME=LEDbar-Back_2.stl_id_2_copy_0 CENTER=110.057,67.2272 POLYGON=[[35.0566,54.8364],[35.0566,40.1877],[35.0566,38.9615],[35.0566,38.738],[185.057,38.738],[185.057,39.1226],[185.057,40.3743],[185.057,54.8366],[100.056,95.7163],[90.0556,95.7163],[35.0566,54.8364]]
EXCLUDE_OBJECT_DEFINE NAME=Led_Frontv3-2.stl_id_3_copy_0 CENTER=110,21.5325 POLYGON=[[32.3446,6.32706],[182.345,6.32706],[187.655,11.1316],[187.655,17.6222],[182.345,22.4265],[57.4382,36.701],[57.2675,36.7171],[57.0973,36.7286],[56.9241,36.7357],[56.7513,36.738],[55.491,36.738],[55.4183,36.7376],[55.275,36.7344],[55.1351,36.7281],[54.992,36.7185],[54.8476,36.7055],[54.7028,36.6892],[54.5579,36.6694],[54.4132,36.6463],[54.2756,36.6211],[54.1375,36.5927],[53.9994,36.561],[53.8612,36.526],[53.723,36.4877],[53.5851,36.446],[53.4475,36.401],[53.3103,36.3525],[53.1738,36.3006],[53.038,36.2453],[52.903,36.1866],[52.7692,36.1246],[52.6364,36.0591],[52.505,35.9903],[52.375,35.9182],[52.2466,35.8428],[52.12,35.7641],[51.9952,35.6823],[32.3446,22.4265],[32.3446,6.32706]]
M73 P0 R202
;TYPE:Custom
START_PRINT NOZZLE_TEMP=210  BED_TEMP=60 

G90
G21
M83 ; use relative distances for extrusion
; filament start gcode
M106 S0
;LAYER_CHANGE
;Z:0.2
;HEIGHT:0.2
;BEFORE_LAYER_CHANGE
;0.2
G92 E0

G1 E-.4 F1800
;AFTER_LAYER_CHANGE
;0.2
;_SET_FAN_SPEED_CHANGING_LAYER
SET_VELOCITY_LIMIT ACCEL=500 ACCEL_TO_DECEL=250
; printing object LEDbar-Back_1.stl id:0 copy 0
EXCLUDE_OBJECT_START NAME=LEDbar-Back_1.stl_id_0_copy_0
G1 X125.324 Y208.591 F21000
G1 Z.4
G1 Z.2
G1 E.4 F1800
;TYPE:Inner wall
;WIDTH:0.499999
G1 F3000
G1 X123.82 Y208.591 E.05599
G1 X123.82 Y207.1 E.05556
;WIDTH:0.541939
G1 X123.841 Y206.845 E.01038
;WIDTH:0.583879
G1 X123.862 Y206.591 E.01125
;WIDTH:0.625818
G1 X123.883 Y206.336 E.01213
G1 X123.921 Y206.423 E.00449
;WIDTH:0.595564
G1 X123.959 Y206.509 E.00426
;WIDTH:0.56531
G1 X124.111 Y206.871 E.01668
;WIDTH:0.532655
G1 X124.262 Y207.232 E.01564
;WIDTH:0.499999
G1 X124.664 Y207.902 E.02909
G1 X125.015 Y208.315 E.02019
G1 X125.294 Y208.565 E.01394
G1 E-.28 F1800
;WIPE_START
G1 F3000
G1 X124.294 Y208.583 E-.12
;WIPE_END
G1 X130.62 Y208.152 Z.6 F21000
G1 Z.2
G1 E.4 F1800
;WIDTH:0.697628
G1 F3000
G1 X130.916 Y207.799 E.0246
G1 X131.274 Y207.147 E.03966
G1 X131.393 Y206.842 E.01748
G1 X131.393 Y208.492 E.08804
G1 X130.336 Y208.492 E.05644
G1 X130.594 Y208.183 E.02152
G1 E-.28 F1800
;WIPE_START
G1 F3000
G1 X130.916 Y207.799 E-.06013
G1 X131.156 Y207.361 E-.05987
;WIPE_END
G1 X127.246 Y200.807 Z.6 F21000
G1 X124.615 Y196.396 Z.6
G1 Z.2
G1 E.4 F1800
;WIDTH:0.573169
G1 F3000
G1 X124.596 Y196.336 E.00269
;WIDTH:0.609754
G1 X124.497 Y196.008 E.01587
G1 X124.44 Y195.317 E.03201
;WIDTH:0.608749
G1 X124.439 Y195.245 E.00332
;WIDTH:0.607401
G1 X124.437 Y182.793 E.57277
;WIDTH:0.609009
G1 X124.417 Y182.102 E.03186
;WIDTH:0.612351
G1 X124.365 Y181.503 E.02789
G1 X124.285 Y180.903 E.02812
;WIDTH:0.608912
G1 X124.145 Y180.188 E.0336
G1 X123.963 Y179.481 E.03364
;WIDTH:0.61023
G1 X123.778 Y178.91 E.02778
G1 X123.51 Y178.212 E.03455
;WIDTH:0.608513
G1 X123.262 Y177.664 E.02773
;WIDTH:0.610105
G1 X122.927 Y177.024 E.03337
;WIDTH:0.61919
G1 X122.488 Y176.282 E.04052
G1 X122.365 Y175.96 E.01616
;WIDTH:0.587902
G1 X122.309 Y175.696 E.01201
;WIDTH:0.543951
G1 X122.252 Y175.431 E.01104
;WIDTH:0.499999
G1 X122.192 Y175.006 E.016
G1 X122.191 Y174.595 E.01531
G1 X122.296 Y173.96 E.02396
G1 X122.53 Y173.357 E.0241
G1 X122.816 Y172.896 E.02021
G1 X123.239 Y172.437 E.02325
G1 X123.688 Y172.101 E.0209
G1 X124.249 Y171.829 E.0232
G1 X124.933 Y171.661 E.02625
G1 X125.162 Y171.637 E.00858
G1 X130.013 Y171.629 E.18068
G1 X130.59 Y171.698 E.02165
G1 X131.146 Y171.865 E.0216
G1 X131.558 Y172.077 E.01724
G1 X132 Y172.37 E.01978
G1 X132.377 Y172.743 E.01974
G1 X132.737 Y173.267 E.02368
G1 X132.987 Y173.872 E.02438
G1 X133.064 Y174.171 E.0115
G1 X133.124 Y174.678 E.01904
G1 X133.09 Y175.203 E.01958
G1 X132.989 Y175.717 E.01951
;WIDTH:0.537962
G1 X132.921 Y175.928 E.00894
;WIDTH:0.575925
G1 X132.854 Y176.139 E.00962
;WIDTH:0.613887
G1 X132.787 Y176.35 E.01031
G1 X132.424 Y176.964 E.03315
;WIDTH:0.616359
G1 X132.003 Y177.772 E.04259
G1 X131.775 Y178.279 E.026
;WIDTH:0.606385
G1 X131.566 Y178.834 E.02723
;WIDTH:0.620267
G1 X131.29 Y179.719 E.04361
G1 X131.145 Y180.293 E.02786
;WIDTH:0.612088
G1 X131.034 Y180.875 E.02748
;WIDTH:0.611959
G1 X130.951 Y181.462 E.02745
;WIDTH:0.609375
G1 X130.898 Y182.065 E.02799
;WIDTH:0.608373
G1 X130.875 Y182.741 E.03114
;WIDTH:0.607508
G1 X130.874 Y182.793 E.00239
;WIDTH:0.607651
G1 X130.874 Y195.284 E.57483
;WIDTH:0.651174
G1 X130.81 Y196.186 E.04481
G1 X130.721 Y196.425 E.01266
;WIDTH:0.613381
G1 X130.632 Y196.665 E.01187
;WIDTH:0.575587
G1 X130.542 Y196.904 E.01108
;WIDTH:0.537793
G1 X130.453 Y197.143 E.0103
;WIDTH:0.499999
G1 X130.169 Y197.7 E.02327
G1 X129.865 Y198.113 E.01913
G1 X129.468 Y198.5 E.02065
G1 X129.047 Y198.787 E.01898
G1 X128.53 Y199.019 E.0211
G1 X128.008 Y199.137 E.01992
G1 X127.47 Y199.153 E.02008
G1 X126.88 Y199.045 E.02232
G1 X126.305 Y198.811 E.02314
G1 X125.809 Y198.47 E.0224
G1 X125.372 Y198.021 E.02334
G1 X125.042 Y197.528 E.0221
G1 X124.796 Y196.994 E.02191
;WIDTH:0.536584
G1 X124.696 Y196.665 E.01382
;WIDTH:0.573169
G1 X124.626 Y196.434 E.01043
G1 X125.069 Y196.218 F21000
;WIDTH:0.499999
G1 F3000
G1 X124.996 Y195.895 E.01233
G1 X124.949 Y195.245 E.02429
G1 X124.948 Y182.602 E.4709
G1 X124.927 Y182.064 E.02004
G1 X124.874 Y181.439 E.02335
G1 X124.788 Y180.811 E.02362
G1 X124.643 Y180.066 E.02829
G1 X124.451 Y179.331 E.02826
G1 X124.259 Y178.731 E.02347
G1 X123.979 Y178.007 E.02893
G1 X123.719 Y177.432 E.02348
G1 X123.372 Y176.77 E.02784
G1 X122.934 Y176.021 E.03234
G1 X122.722 Y175.455 E.02249
G1 X122.649 Y175.005 E.017
G1 X122.648 Y174.594 E.01531
G1 X122.744 Y174.052 E.0205
G1 X122.95 Y173.538 E.02063
G1 X123.224 Y173.111 E.0189
G1 X123.577 Y172.745 E.01894
G1 X124.06 Y172.413 E.02182
G1 X124.575 Y172.201 E.02074
G1 X125.094 Y172.098 E.0197
G1 X130.013 Y172.087 E.18323
G1 X130.46 Y172.136 E.01673
G1 X131.015 Y172.303 E.0216
G1 X131.674 Y172.698 E.02863
G1 X132.038 Y173.049 E.01882
G1 X132.326 Y173.467 E.01889
G1 X132.564 Y174.045 E.02329
G1 X132.67 Y174.732 E.02589
G1 X132.617 Y175.291 E.02093
G1 X132.563 Y175.55 E.00986
G1 X132.343 Y176.092 E.02178
G1 X131.81 Y177.009 E.0395
G1 X131.533 Y177.559 E.02294
G1 X131.274 Y178.152 E.02409
G1 X130.968 Y178.987 E.03312
G1 X130.788 Y179.591 E.02348
G1 X130.642 Y180.192 E.02302
G1 X130.526 Y180.799 E.02303
G1 X130.442 Y181.411 E.02302
G1 X130.387 Y182.042 E.02359
G1 X130.364 Y182.737 E.02589
G1 X130.363 Y195.284 E.46733
G1 X130.28 Y196.132 E.03173
G1 X130.018 Y197.005 E.03393
G1 X129.77 Y197.477 E.01988
G1 X129.427 Y197.917 E.02077
G1 X129.059 Y198.24 E.01824
G1 X128.585 Y198.506 E.02024
G1 X128.237 Y198.63 E.01375
G1 X127.669 Y198.698 E.02133
G1 X127.327 Y198.679 E.01275
G1 X126.811 Y198.545 E.01984
G1 X126.385 Y198.329 E.01781
G1 X125.982 Y198.013 E.01904
G1 X125.638 Y197.618 E.01952
G1 X125.38 Y197.193 E.01854
G1 X125.175 Y196.69 E.02024
G1 X125.078 Y196.257 E.01651
G1 X125.515 Y196.118 F21000
;TYPE:Outer wall
G1 F3000
G1 X125.442 Y195.795 E.01233
G1 X125.407 Y195.245 E.02054
G1 X125.405 Y182.593 E.47122
G1 X125.384 Y182.036 E.02076
G1 X125.329 Y181.389 E.02419
G1 X125.239 Y180.736 E.02454
G1 X125.088 Y179.964 E.0293
G1 X124.89 Y179.204 E.02927
G1 X124.69 Y178.579 E.02444
G1 X124.401 Y177.83 E.02991
G1 X124.13 Y177.232 E.02444
G1 X123.772 Y176.549 E.02872
G1 X123.328 Y175.79 E.03275
G1 X123.15 Y175.262 E.02074
G1 X123.105 Y174.777 E.01813
G1 X123.105 Y174.593 E.00688
G1 X123.206 Y174.099 E.01878
G1 X123.39 Y173.681 E.017
G1 X123.601 Y173.373 E.01394
G1 X123.924 Y173.049 E.01702
G1 X124.246 Y172.831 E.01449
G1 X124.668 Y172.649 E.01709
G1 X125.164 Y172.551 E.01884
G1 X130.013 Y172.544 E.18062
G1 X130.329 Y172.574 E.0118
G1 X130.884 Y172.74 E.0216
G1 X131.425 Y173.081 E.0238
G1 X131.716 Y173.378 E.01549
G1 X131.948 Y173.747 E.01624
G1 X132.141 Y174.218 E.01895
G1 X132.216 Y174.785 E.02132
G1 X132.151 Y175.331 E.02045
G1 X131.963 Y175.831 E.0199
G1 X131.589 Y176.478 E.02784
G1 X131.134 Y177.336 E.03616
G1 X130.912 Y177.838 E.02045
G1 X130.659 Y178.502 E.02647
G1 X130.356 Y179.441 E.03675
G1 X130.203 Y180.064 E.0239
G1 X130.081 Y180.694 E.02388
G1 X129.992 Y181.328 E.02387
G1 X129.933 Y181.982 E.02442
G1 X129.907 Y182.793 E.03023
G1 X129.906 Y195.284 E.46525
G1 X129.825 Y196.086 E.03001
G1 X129.582 Y196.866 E.03044
G1 X129.351 Y197.284 E.01779
G1 X129.117 Y197.581 E.01407
G1 X128.816 Y197.853 E.01514
G1 X128.418 Y198.081 E.01707
G1 X128.153 Y198.18 E.01052
G1 X127.673 Y198.241 E.01802
G1 X127.43 Y198.234 E.00908
G1 X127.001 Y198.129 E.01642
G1 X126.658 Y197.962 E.01424
G1 X126.321 Y197.706 E.01573
G1 X126.025 Y197.375 E.01655
G1 X125.799 Y197.011 E.01596
G1 X125.621 Y196.589 E.01705
G1 X125.524 Y196.157 E.01651
G1 E-.28 F1800
;WIPE_START
G1 F3000
G1 X125.442 Y195.795 E-.04451
G1 X125.407 Y195.245 E-.06619
G1 X125.407 Y195.167 E-.0093
;WIPE_END
G1 X118.287 Y192.415 Z.6 F21000
G1 X38.788 Y161.685 Z.6
G1 Z.2
G1 E.4 F1800
;TYPE:Inner wall
G1 F3000
G1 X38.82 Y161.52 E.00626
G1 X38.82 Y159.247 E.08463
G1 X186.491 Y159.247 E5.5002
M73 P0 R201
G1 X186.491 Y165.438 E.23058
G1 X186.491 Y171.629 E.23058
G1 X142.656 Y171.629 E1.63269
G1 X141.939 Y171.653 E.02673
G1 X140.868 Y171.774 E.04015
G1 X139.86 Y171.986 E.03834
G1 X139.071 Y172.221 E.03069
G1 X138.384 Y172.48 E.02734
G1 X137.899 Y172.707 E.01994
G1 X137.062 Y173.14 E.03508
G1 X136.598 Y173.416 E.02012
G1 X136.181 Y173.714 E.01911
G1 X135.665 Y174.09 E.02378
G1 X135.279 Y174.422 E.01895
G1 X134.874 Y174.796 E.02054
G1 X134.427 Y175.249 E.02371
G1 X134.077 Y175.65 E.0198
G1 X133.728 Y176.122 E.02188
;WIDTH:0.535711
G1 X133.544 Y176.347 E.01169
;WIDTH:0.571423
G1 X133.36 Y176.573 E.01254
;WIDTH:0.607135
G1 X133.175 Y176.798 E.01339
;WIDTH:0.612685
G1 X132.768 Y177.513 E.0382
;WIDTH:0.616359
G1 X132.269 Y178.559 E.05416
;WIDTH:0.613631
G1 X132.002 Y179.314 E.03722
;WIDTH:0.620267
G1 X131.696 Y180.436 E.0547
;WIDTH:0.612088
G1 X131.595 Y180.97 E.02523
;WIDTH:0.611959
G1 X131.492 Y181.712 E.03472
;WIDTH:0.605631
G1 X131.451 Y182.284 E.02632
;WIDTH:0.607213
G1 X131.439 Y182.793 E.0234
;WIDTH:0.607651
G1 X131.438 Y195.284 E.57483
;WIDTH:0.611459
G1 X131.436 Y195.434 E.00695
;WIDTH:0.651174
G1 X131.417 Y196.217 E.0388
G1 X131.435 Y196.376 E.00792
;WIDTH:0.613548
G1 X131.454 Y196.534 E.00743
;WIDTH:0.575922
G1 X131.473 Y196.919 E.01675
;WIDTH:0.537961
G1 X131.492 Y197.304 E.01555
;WIDTH:0.499999
G1 X131.492 Y203.616 E.23509
;WIDTH:0.541012
G1 X131.472 Y204.422 E.03271
G1 X131.411 Y204.221 E.00853
;WIDTH:0.518987
G1 X131.122 Y203.471 E.03116
;WIDTH:0.499999
G1 X130.717 Y202.806 E.029
G1 X130.097 Y202.146 E.03372
G1 X129.274 Y201.609 E.03661
G1 X128.651 Y201.372 E.02484
G1 X128.042 Y201.27 E.02297
G1 X127.53 Y201.262 E.01911
G1 X126.906 Y201.339 E.02341
G1 X126.189 Y201.577 E.02813
G1 X125.515 Y201.969 E.02905
G1 X124.924 Y202.499 E.02956
G1 X124.46 Y203.122 E.02895
G1 X124.111 Y203.842 E.02979
;WIDTH:0.541258
G1 X123.986 Y204.231 E.01657
;WIDTH:0.582516
G1 X123.862 Y204.619 E.01794
G1 X123.837 Y204.383 E.01046
;WIDTH:0.533467
G1 X123.82 Y203.8 E.0233
;WIDTH:0.499999
G1 X123.82 Y196.891 E.25734
;WIDTH:0.541296
G1 X123.841 Y196.539 E.01431
;WIDTH:0.582592
G1 X123.862 Y196.187 E.0155
;WIDTH:0.623888
G1 X123.882 Y195.835 E.01669
G1 X123.874 Y195.245 E.02795
;WIDTH:0.607401
G1 X123.874 Y182.793 E.57277
;WIDTH:0.60921
G1 X123.851 Y182.123 E.03091
;WIDTH:0.612351
G1 X123.707 Y180.873 E.0584
;WIDTH:0.60575
G1 X123.547 Y180.111 E.0357
;WIDTH:0.606357
G1 X123.393 Y179.546 E.02692
G1 X123.125 Y178.767 E.03781
;WIDTH:0.6055
G1 X122.908 Y178.241 E.02606
G1 X122.647 Y177.696 E.02773
;WIDTH:0.607432
G1 X122.256 Y176.991 E.03705
;WIDTH:0.636254
G1 X121.866 Y176.367 E.0356
G1 X121.781 Y176.285 E.00571
;WIDTH:0.593922
G1 X121.695 Y176.204 E.0053
;WIDTH:0.55159
G1 X121.61 Y176.122 E.0049
;WIDTH:0.509257
G1 X121.249 Y175.675 E.02183
;WIDTH:0.499999
G1 X120.802 Y175.161 E.02539
G1 X120.431 Y174.782 E.01975
G1 X119.934 Y174.332 E.02497
G1 X119.383 Y173.883 E.02646
G1 X118.891 Y173.533 E.02248
G1 X118.157 Y173.079 E.03215
G1 X117.4 Y172.689 E.03173
G1 X116.025 Y172.152 E.05496
G1 X114.884 Y171.855 E.04395
G1 X113.82 Y171.691 E.04008
G1 X112.797 Y171.63 E.03819
G1 X38.82 Y171.629 E2.75536
G1 X38.82 Y167.967 E.13638
G1 X38.75 Y167.573 E.01491
G1 X38.595 Y167.287 E.01211
G1 X38.316 Y167.02 E.01438
G1 X37.928 Y166.853 E.01576
G1 X37.677 Y166.825 E.0094
G1 X33.509 Y166.825 E.15525
G1 X33.509 Y162.662 E.15503
G1 X37.677 Y162.662 E.15525
G1 X37.928 Y162.634 E.0094
G1 X38.316 Y162.467 E.01576
G1 X38.531 Y162.279 E.01063
G1 X38.741 Y161.937 E.01494
G1 X38.781 Y161.724 E.00806
G1 X38.347 Y161.602 F21000
G1 F3000
G1 X38.363 Y161.52 E.00313
G1 X38.363 Y158.79 E.10166
G1 X186.948 Y158.79 E5.53425
G1 X186.948 Y165.438 E.24761
G1 X186.948 Y172.086 E.24761
G1 X142.656 Y172.086 E1.64972
G1 X141.988 Y172.108 E.0249
G1 X140.96 Y172.222 E.03853
G1 X139.989 Y172.424 E.03692
G1 X139.232 Y172.649 E.02944
G1 X138.096 Y173.119 E.04577
G1 X137.539 Y173.389 E.02306
G1 X136.872 Y173.784 E.02888
G1 X135.963 Y174.436 E.04167
G1 X135.198 Y175.119 E.03818
G1 X134.771 Y175.55 E.0226
G1 X134.422 Y175.95 E.0198
G1 X133.613 Y177.061 E.05117
G1 X133.315 Y177.564 E.02177
G1 X132.746 Y178.741 E.04872
G1 X132.545 Y179.276 E.02126
G1 X132.191 Y180.571 E.05001
G1 X132.001 Y181.749 E.04445
G1 X131.962 Y182.274 E.0196
G1 X131.949 Y182.793 E.01934
G1 X131.949 Y209.048 E.97791
G1 X128.676 Y209.048 E.12192
;WIDTH:0.544963
G1 X128.005 Y209.023 E.02748
G1 X128.813 Y208.811 E.03419
;WIDTH:0.499999
G1 X129.436 Y208.499 E.02595
G1 X129.983 Y208.065 E.026
G1 X130.429 Y207.532 E.02588
G1 X130.842 Y206.745 E.0331
G1 X131.034 Y206.039 E.02725
G1 X131.084 Y205.052 E.03681
G1 X130.97 Y204.373 E.02566
G1 X130.725 Y203.697 E.02677
G1 X130.373 Y203.106 E.0256
G1 X129.835 Y202.52 E.02964
G1 X129.109 Y202.035 E.03254
G1 X128.528 Y201.812 E.02317
G1 X127.973 Y201.722 E.02093
G1 X127.56 Y201.718 E.01538
G1 X127.033 Y201.778 E.01976
G1 X126.406 Y201.979 E.02453
G1 X125.81 Y202.317 E.0255
G1 X125.283 Y202.782 E.02618
G1 X124.866 Y203.332 E.0257
G1 X124.549 Y203.972 E.02661
G1 X124.358 Y204.664 E.02674
G1 X124.299 Y205.499 E.03117
G1 X124.422 Y206.35 E.03205
G1 X124.66 Y207.007 E.02601
G1 X125.013 Y207.606 E.02591
G1 X125.456 Y208.11 E.02499
