; HEADER_BLOCK_START
; generated by OrcaSlicer 1.9.0 on 2024-01-29 at 16:36:02
; total layer number: 85
; filament_density: 1.24
; filament_diameter: 1.75
; max_z_height: 12.80
; HEADER_BLOCK_END

; THUMBNAIL_BLOCK_START

;
; THUMBNAIL_BLOCK_END

; external perimeters extrusion width = 0.40mm
; perimeters extrusion width = 0.45mm
; infill extrusion width = 0.45mm
; solid infill extrusion width = 0.40mm
; top infill extrusion width = 0.40mm
; first layer extrusion width = 0.50mm

; EXECUTABLE_BLOCK_START
EXCLUDE_OBJECT_DEFINE NAME=M3202_Ender-5_BL-Touch_CR-Touch_Bracket.stl_id_0_copy_0 CENTER=110,110 POLYGON=[[98.6604,126.769],[117.34,89.2312],[121.34,89.2312],[121.34,130.769],[98.6604,130.769],[98.6604,126.769]]
M73 P0 R20
;TYPE:Custom
START_PRINT NOZZLE_TEMP=210  BED_TEMP=70 

G90
G21
M83 ; use relative distances for extrusion
; filament start gcode
M106 S0
;LAYER_CHANGE
;Z:0.2
;HEIGHT:0.2
;BEFORE_LAYER_CHANGE
;0.2
G92 E0

G1 E-.4 F1800
;AFTER_LAYER_CHANGE
;0.2
;_SET_FAN_SPEED_CHANGING_LAYER
SET_VELOCITY_LIMIT ACCEL=500 ACCEL_TO_DECEL=250
; printing object M3202_Ender-5_BL-Touch+CR-Touch_Bracket.stl id:0 copy 0
EXCLUDE_OBJECT_START NAME=M3202_Ender-5_BL-Touch_CR-Touch_Bracket.stl_id_0_copy_0
G1 X117.512 Y127.912 F21000
G1 Z.4
G1 Z.2
G1 E.4 F1800
;TYPE:Inner wall
;WIDTH:0.499999
G1 F3000
G1 X117.668 Y127.891 E.00587
G1 X118.216 Y127.549 E.02406
G1 X118.331 Y127.265 E.01141
;WIDTH:0.458494
G1 X118.446 Y126.98 E.01038
;WIDTH:0.416988
G1 X118.457 Y126.79 E.00581
;WIDTH:0.407301
G1 X118.457 Y95.391 E.93231
G1 X118.822 Y95.391 E.01082
G1 X118.822 Y95.574 E.00541
G1 X118.822 Y126.79 E.9269
;WIDTH:0.416988
G1 X118.817 Y127.013 E.00679
;WIDTH:0.458494
G1 X118.796 Y127.387 E.01269
;WIDTH:0.499999
G1 X118.775 Y127.761 E.01395
G1 X118.775 Y129.605 E.06867
G1 X114.277 Y129.605 E.16756
G1 X114.277 Y127.933 E.06226
G1 X117.361 Y127.933 E.11488
G1 X117.472 Y127.918 E.00418
G1 X117.401 Y127.466 F21000
G1 F3000
G1 X117.48 Y127.466 E.00292
G1 X117.874 Y127.245 E.01683
G1 X118.036 Y126.909 E.01392
G1 X118.047 Y94.981 E1.1892
G1 X119.233 Y94.981 E.04417
G1 X119.233 Y95.574 E.02208
G1 X119.233 Y130.062 E1.28455
G1 X113.82 Y130.062 E.20161
G1 X113.82 Y127.476 E.09631
G1 X117.361 Y127.466 E.1319
G1 X117.361 Y127.019 F21000
;TYPE:Outer wall
G1 F3000
G1 X117.532 Y126.942 E.00698
G1 X117.59 Y126.79 E.00604
G1 X117.59 Y94.524 E1.20181
G1 X119.69 Y94.524 E.07822
G1 X119.69 Y95.574 E.03911
G1 X119.69 Y130.519 E1.30157
G1 X113.363 Y130.519 E.23566
G1 X113.363 Y127.019 E.13036
G1 X117.321 Y127.019 E.14744
G1 E-.28 F1800
;WIPE_START
G1 F3000
G1 X117.532 Y126.942 E-.02694
G1 X117.59 Y126.79 E-.01947
G1 X117.59 Y126.177 E-.07359
;WIPE_END
G1 X118.638 Y128.432 Z.6 F21000
G1 Z.2
G1 E.4 F1800
;TYPE:Bottom surface
;WIDTH:0.543121
G1 F6300
G1 X118.174 Y127.968 E.02677
G1 X117.769 Y128.221 E.01946
G1 X117.726 Y128.227 E.0018
G1 X118.433 Y128.934 E.04076
G1 X118.433 Y129.262 E.01336
G1 X118.053 Y129.262 E.01547
G1 X117.067 Y128.276 E.05684
G1 X116.36 Y128.276 E.02883
G1 X117.346 Y129.262 E.05684
G1 X116.638 Y129.262 E.02883
G1 X115.652 Y128.276 E.05684
M73 P0 R19
G1 X114.945 Y128.276 E.02883
G1 X115.931 Y129.262 E.05684
G1 X115.224 Y129.262 E.02883
G1 X114.414 Y128.452 E.04667
G1 E-.28 F1800
;WIPE_START
G1 F6300
G1 X115.121 Y129.159 E-.12
;WIPE_END
G1 X107.492 Y129.404 Z.6 F21000
G1 X101.225 Y129.605 Z.6
G1 Z.2
G1 E.4 F1800
;TYPE:Inner wall
;WIDTH:0.499999
G1 F3000
G1 X101.225 Y127.933 E.06226
G1 X105.274 Y127.933 E.15084
G1 X105.274 Y128.769 E.03113
G1 X105.274 Y129.605 E.03113
G1 X101.265 Y129.605 E.14935
G1 X100.767 Y130.062 F21000
G1 F3000
G1 X100.767 Y127.476 E.09631
G1 X105.732 Y127.476 E.18489
G1 X105.732 Y128.769 E.04816
G1 X105.732 Y130.062 E.04816
G1 X100.807 Y130.062 E.1834
G1 X100.31 Y130.519 F21000
;TYPE:Outer wall
G1 F3000
G1 X100.31 Y127.019 E.13036
G1 X106.189 Y127.019 E.21894
G1 X106.189 Y128.769 E.06518
G1 X106.189 Y130.519 E.06518
G1 X100.35 Y130.519 E.21745
G1 E-.28 F1800
;WIPE_START
G1 F3000
G1 X100.339 Y129.519 E-.12
;WIPE_END
G1 X105.137 Y129.011 Z.6 F21000
G1 Z.2
G1 E.4 F1800
;TYPE:Bottom surface
;WIDTH:0.508247
G1 F6300
G1 X104.402 Y128.276 E.03946
G1 X103.744 Y128.276 E.02495
G1 X104.73 Y129.262 E.05288
G1 X104.072 Y129.262 E.02495
G1 X103.085 Y128.276 E.05288
G1 X102.427 Y128.276 E.02495
G1 X103.413 Y129.262 E.05288
G1 X102.755 Y129.262 E.02495
G1 X101.769 Y128.276 E.05288
G1 X101.567 Y128.276 E.00766
G1 X101.567 Y128.732 E.0173
G1 X102.303 Y129.467 E.03945
; stop printing object M3202_Ender-5_BL-Touch+CR-Touch_Bracket.stl id:0 copy 0
M106 S255
;LAYER_CHANGE
;Z:0.35
;HEIGHT:0.15
;BEFORE_LAYER_CHANGE
;0.35
G92 E0

G1 E-.28 F1800
;WIPE_START
G1 F6300
G1 X101.596 Y128.76 E-.12
;WIPE_END
EXCLUDE_OBJECT_END NAME=M3202_Ender-5_BL-Touch_CR-Touch_Bracket.stl_id_0_copy_0
;AFTER_LAYER_CHANGE
;0.35
;_SET_FAN_SPEED_CHANGING_LAYER
M140 S60 ; set bed temperature
; printing object M3202_Ender-5_BL-Touch+CR-Touch_Bracket.stl id:0 copy 0
EXCLUDE_OBJECT_START NAME=M3202_Ender-5_BL-Touch_CR-Touch_Bracket.stl_id_0_copy_0
G17
M73 P1 R19
G3 Z.6 I.077 J1.215 P1  F21000
G1 X117.511 Y127.752 Z.6
G1 Z.35
G1 E.4 F1800
;TYPE:Inner wall
;WIDTH:0.449999
G1 F12000
G1 X117.695 Y127.72 E.00476
G1 X118.133 Y127.406 E.01376
;WIDTH:0.494591
G1 X118.205 Y127.297 E.00369
;WIDTH:0.539183
G1 F11045.518
G1 X118.278 Y127.189 E.00404
;WIDTH:0.583775
G1 F10152.56
G1 X118.351 Y127.08 E.0044
;WIDTH:0.628367
G1 F9393.184
G1 X118.423 Y126.972 E.00475
G1 X118.434 Y126.785 E.00683
;WIDTH:0.617976
G1 F9559.805
G1 X118.434 Y95.118 E1.13368
G1 X119.02 Y95.118 E.02097
G1 X119.02 Y95.411 E.01049
G1 X119.02 Y126.785 E1.1232
;WIDTH:0.628367
G1 F9393.184
G1 X119.015 Y127.024 E.0087
G1 X119.037 Y127.204 E.00663
;WIDTH:0.583775
G1 F10152.56
G1 X119.059 Y127.385 E.00614
;WIDTH:0.539183
G1 F11045.518
G1 X119.082 Y127.566 E.00564
;WIDTH:0.494591
G1 F12000
G1 X119.104 Y127.746 E.00514
;WIDTH:0.449999
G1 X119.104 Y129.758 E.05138
G1 X114.009 Y129.758 E.13011
G1 X114.009 Y127.779 E.05053
G1 X117.356 Y127.779 E.08547
G1 X117.472 Y127.759 E.00302
G1 X117.431 Y127.348 F21000
G1 F12000
G1 X117.552 Y127.327 E.00314
G1 X117.806 Y127.145 E.00798
G1 X117.932 Y126.785 E.00974
G1 X117.932 Y94.616 E.82141
G1 X119.522 Y94.616 E.04058
G1 X119.522 Y95.411 E.02029
G1 X119.522 Y130.176 E.88771
G1 X113.591 Y130.176 E.15145
G1 X113.591 Y127.362 E.07186
G1 X117.356 Y127.362 E.09614
G1 X117.392 Y127.355 E.00093
G1 X117.356 Y126.969 F21000
;TYPE:Outer wall
;WIDTH:0.399999
G1 F7200
G1 X117.499 Y126.9 E.00357
G1 X117.54 Y126.785 E.00274
G1 X117.54 Y126.185 E.01349
G1 X117.54 Y95.074 E.69934
G1 F3000
G1 X117.54 Y94.274 E.01798
G1 F2400.875
G1 X117.54 Y94.224 E.00112
G1 X119.915 Y94.224 E.05339
G1 X119.915 Y94.274 E.00112
M106 S255
G1 F3000
G1 X119.915 Y95.411 E.02556
G1 F4049.96
G1 X119.915 Y96.186 E.01742
G1 X119.915 Y129.794 E.75547
G1 X119.915 Y130.569 E.01742
G1 X119.14 Y130.569 E.01742
G1 F7200
G1 X113.913 Y130.569 E.1175
G1 F6583.069
G1 X113.198 Y130.569 E.01607
G1 X113.198 Y126.969 E.08092
G1 X113.913 Y126.969 E.01607
G1 F7200
G1 X116.716 Y126.969 E.06301
G1 X117.316 Y126.969 E.01349
G1 E-.28 F1800
;WIPE_START
G1 F7200
G1 X117.499 Y126.9 E-.02355
G1 X117.54 Y126.785 E-.0146
G1 X117.54 Y126.103 E-.08185
;WIPE_END
G1 X114.401 Y128.172 Z.75 F21000
G1 Z.35
G1 E.4 F1800
;TYPE:Internal solid infill
G1 F12000
G1 X114.401 Y129.365 E.02682
G1 X118.711 Y129.365 E.09688
G1 X118.711 Y127.789 E.03543
G1 X118.626 Y127.424 E.00843
G1 X118.403 Y127.686 E.00773
G1 X117.873 Y128.066 E.01465
G1 X117.356 Y128.172 E.01188
G1 X114.441 Y128.172 E.06551
G1 X114.792 Y128.562 F21000
;WIDTH:0.448175
G1 F12000
G1 X114.792 Y128.975 E.01049
G1 X117.356 Y128.975 E.06519
G1 X117.909 Y128.954 E.01407
;WIDTH:0.503619
G1 F11878.785
G1 X118.29 Y128.944 E.011
G1 X118.29 Y128.284 E.01902
G1 X117.972 Y128.485 E.01082
;WIDTH:0.492336
G1 F12000
G1 X117.714 Y128.521 E.00734
;WIDTH:0.448108
G1 X117.356 Y128.562 E.00917
G1 X114.832 Y128.562 E.06416
G1 E-.28 F1800
;WIPE_START
G1 F12000
G1 X115.832 Y128.562 E-.12
;WIPE_END
G1 X108.223 Y129.172 Z.75 F21000
G1 X100.896 Y129.758 Z.75
G1 Z.35
G1 E.4 F1800
;TYPE:Inner wall
;WIDTH:0.449999
G1 F12000
G1 X100.896 Y127.779 E.05053
G1 X105.543 Y127.779 E.11865
G1 X105.543 Y128.769 E.02526
G1 X105.543 Y129.758 E.02526
G1 X100.936 Y129.758 E.11763
G1 X100.478 Y130.176 F21000
G1 F12000
G1 X100.478 Y127.362 E.07186
G1 X105.961 Y127.362 E.13999
G1 X105.961 Y128.769 E.03593
G1 X105.961 Y130.176 E.03593
G1 X100.518 Y130.176 E.13897
G1 X100.085 Y130.569 F21000
;TYPE:Outer wall
;WIDTH:0.399999
G1 F4049.96
G1 X100.085 Y126.969 E.08092
G1 X100.86 Y126.969 E.01742
G1 F7200
G1 X105.639 Y126.969 E.10743
G1 F6583.069
G1 X106.353 Y126.969 E.01605
G1 X106.353 Y128.769 E.04046
G1 X106.353 Y130.569 E.04046
G1 X105.639 Y130.569 E.01605
G1 F7200
G1 X100.86 Y130.569 E.10743
G1 F5729.963
G1 X100.125 Y130.569 E.01652
G1 E-.28 F1800
;WIPE_START
G1 F5729.963
G1 X100.114 Y129.569 E-.12
;WIPE_END
G1 X105.15 Y128.172 Z.75 F21000
G1 Z.35
G1 E.4 F1800
;TYPE:Internal solid infill
G1 F12000
G1 X101.289 Y128.172 E.08679
G1 X101.289 Y129.365 E.02682
G1 X105.15 Y129.365 E.08679
G1 X105.15 Y128.212 E.02592
G1 X104.76 Y128.562 F21000
;WIDTH:0.44486
G1 F12000
G1 X101.679 Y128.562 E.07769
G1 X101.679 Y128.975 E.01041
G1 X104.76 Y128.975 E.07769
G1 X104.76 Y128.602 E.0094
; stop printing object M3202_Ender-5_BL-Touch+CR-Touch_Bracket.stl id:0 copy 0
;LAYER_CHANGE
;Z:0.5
;HEIGHT:0.15
;BEFORE_LAYER_CHANGE
;0.5
G92 E0

G1 E-.28 F1800
;WIPE_START
G1 F12000
G1 X104.76 Y128.975 E-.04472
G1 X104.132 Y128.975 E-.07528
;WIPE_END
EXCLUDE_OBJECT_END NAME=M3202_Ender-5_BL-Touch_CR-Touch_Bracket.stl_id_0_copy_0
;AFTER_LAYER_CHANGE
;0.5
;_SET_FAN_SPEED_CHANGING_LAYER
; printing object M3202_Ender-5_BL-Touch+CR-Touch_Bracket.stl id:0 copy 0
EXCLUDE_OBJECT_START NAME=M3202_Ender-5_BL-Touch_CR-Touch_Bracket.stl_id_0_copy_0
G17
G3 Z.75 I.111 J1.212 P1  F21000
G1 X117.528 Y127.744 Z.75
G1 Z.5
G1 E.4 F1800
;TYPE:Inner wall
;WIDTH:0.449999
G1 F12000
G1 X117.751 Y127.697 E.00584
G1 X118.157 Y127.374 E.01324
G1 X118.335 Y126.957 E.01159
G1 X118.35 Y126.785 E.0044
G1 X118.35 Y94.82 E.81621
G1 X119.254 Y94.82 E.02308
G1 X119.254 Y95.272 E.01154
M73 P2 R19
G1 X119.254 Y129.758 E.88059
G1 X113.899 Y129.758 E.13674
G1 X113.899 Y127.779 E.05053
G1 X117.356 Y127.779 E.08826
G1 X117.488 Y127.752 E.00346
G1 X117.439 Y127.344 F21000
G1 F12000
G1 X117.585 Y127.314 E.00381
G1 X117.82 Y127.127 E.00768
G1 X117.932 Y126.785 E.00918
G1 X117.932 Y94.402 E.82688
G1 X119.672 Y94.402 E.04441
G1 X119.672 Y95.272 E.02221
G1 X119.672 Y130.176 E.89126
G1 X113.481 Y130.176 E.15807
G1 X113.481 Y127.362 E.07186
G1 X117.356 Y127.362 E.09893
G1 X117.4 Y127.352 E.00115
G1 X117.356 Y126.969 F21000
;TYPE:Outer wall
;WIDTH:0.399999
G1 F7200
G1 X117.504 Y126.894 E.00373
G1 X117.54 Y126.785 E.00258
G1 X117.54 Y126.185 E.01349
G1 X117.54 Y94.824 E.70496
G1 F3000
G1 X117.54 Y94.024 E.01798
G1 F2829.336
G1 X117.54 Y94.009 E.00034
G1 X120.065 Y94.009 E.05676
G1 X120.065 Y94.024 E.00034
M106 S255
G1 F3000
G1 X120.065 Y95.272 E.02805
G1 F5099.962
G1 X120.065 Y96.022 E.01686
G1 X120.065 Y129.819 E.75972
G1 X120.065 Y130.569 E.01686
G1 X119.315 Y130.569 E.01686
G1 F7200
G1 X113.798 Y130.569 E.12402
G1 F6802.561
G1 X113.088 Y130.569 E.01596
G1 X113.088 Y126.969 E.08092
G1 X113.798 Y126.969 E.01596
G1 F7200
G1 X116.716 Y126.969 E.06559
G1 X117.316 Y126.969 E.01349
G1 E-.28 F1800
;WIPE_START
G1 F7200
G1 X117.504 Y126.894 E-.0243
G1 X117.54 Y126.785 E-.01376
G1 X117.54 Y126.102 E-.08194
;WIPE_END
G1 X118.791 Y127.037 Z.9 F21000
G1 Z.5
G1 E.4 F1800
;TYPE:Internal solid infill
;WIDTH:0.51832
G1 F11519.55
G1 X118.802 Y95.312 E.94255
G1 E-.28 F1800
;WIPE_START
G1 F11519.55
G1 X118.802 Y96.312 E-.12
;WIPE_END
G1 X117.835 Y103.883 Z.9 F21000
G1 X114.682 Y128.562 Z.9
G1 Z.5
G1 E.4 F1800
;WIDTH:0.44486
G1 F12000
G1 X114.682 Y128.975 E.01041
G1 X117.356 Y128.975 E.06743
;WIDTH:0.459471
G1 X117.68 Y128.96 E.00849
;WIDTH:0.488693
G1 X118.005 Y128.946 E.00907
;WIDTH:0.526691
G1 F11324.553
G1 X118.428 Y128.932 E.0128
G1 X118.428 Y128.205 E.022
G1 X118.08 Y128.455 E.01296
;WIDTH:0.511004
G1 F11695.575
G1 X117.777 Y128.505 E.009
;WIDTH:0.449885
G1 F12000
G1 X117.356 Y128.562 E.01085
G1 X114.722 Y128.562 E.06723
G1 X114.292 Y128.172 F21000
;WIDTH:0.399999
G1 F12000
G1 X114.292 Y129.365 E.02682
G1 X118.861 Y129.365 E.10271
G1 X118.861 Y127.645 E.03867
;WIDTH:0.419844
G1 X118.841 Y127.462 E.00436
;WIDTH:0.459534
G1 X118.822 Y127.279 E.00481
;WIDTH:0.499224
G1 F11990.561
G1 X118.802 Y127.096 E.00526
;WIDTH:0.529566
G1 F11259.1
G1 X118.791 Y127.037 E.00183
;WIDTH:0.516718
G1 F11557.635
G1 X118.692 Y127.214 E.00603
;WIDTH:0.470031
G1 F12000
G1 X118.593 Y127.392 E.00545
;WIDTH:0.402086
G1 X118.494 Y127.57 E.0046
G1 X117.949 Y128.033 E.01616
G1 X117.393 Y128.168 E.01294
G1 X114.332 Y128.172 E.0692
G1 E-.28 F1800
;WIPE_START
G1 F12000
G1 X115.332 Y128.171 E-.12
;WIPE_END
G1 X107.744 Y128.997 Z.9 F21000
G1 X100.746 Y129.758 Z.9
G1 Z.5
G1 E.4 F1800
;TYPE:Inner wall
;WIDTH:0.449999
G1 F12000
G1 X100.746 Y127.779 E.05053
G1 X105.652 Y127.779 E.12528
G1 X105.652 Y128.769 E.02526
G1 X105.652 Y129.758 E.02526
G1 X100.786 Y129.758 E.12426
G1 X100.328 Y130.176 F21000
G1 F12000
G1 X100.328 Y127.362 E.07186
G1 X106.07 Y127.362 E.14661
G1 X106.07 Y128.769 E.03593
G1 X106.07 Y130.176 E.03593
G1 X100.368 Y130.176 E.14559
G1 X99.935 Y130.569 F21000
;TYPE:Outer wall
;WIDTH:0.399999
G1 F5099.962
G1 X99.935 Y126.969 E.08092
G1 X100.685 Y126.969 E.01686
G1 F7200
G1 X105.753 Y126.969 E.11392
G1 F6802.519
G1 X106.463 Y126.969 E.01596
G1 X106.463 Y128.769 E.04046
G1 X106.463 Y130.569 E.04046
G1 X105.753 Y130.569 E.01596
G1 F7200
G1 X100.685 Y130.569 E.11392
G1 F6779.965
G1 X99.975 Y130.569 E.01596
G1 E-.28 F1800
;WIPE_START
G1 F6779.965
G1 X99.964 Y129.569 E-.12
;WIPE_END
G1 X105.259 Y128.172 Z.9 F21000
G1 Z.5
G1 E.4 F1800
;TYPE:Internal solid infill
G1 F12000
G1 X101.139 Y128.172 E.09263
G1 X101.139 Y129.365 E.02682
G1 X105.259 Y129.365 E.09263
G1 X105.259 Y128.212 E.02592
G1 X104.869 Y128.562 F21000
;WIDTH:0.44486
G1 F12000
G1 X101.529 Y128.562 E.08424
G1 X101.529 Y128.975 E.01041
G1 X104.869 Y128.975 E.08424
G1 X104.869 Y128.602 E.0094
; stop printing object M3202_Ender-5_BL-Touch+CR-Touch_Bracket.stl id:0 copy 0
;LAYER_CHANGE
;Z:0.65
;HEIGHT:0.15
;BEFORE_LAYER_CHANGE
;0.65
G92 E0

G1 E-.28 F1800
;WIPE_START
G1 F12000
G1 X104.869 Y128.975 E-.04472
G1 X104.242 Y128.975 E-.07528
;WIPE_END
EXCLUDE_OBJECT_END NAME=M3202_Ender-5_BL-Touch_CR-Touch_Bracket.stl_id_0_copy_0
;AFTER_LAYER_CHANGE
;0.65
;_SET_FAN_SPEED_CHANGING_LAYER
; printing object M3202_Ender-5_BL-Touch+CR-Touch_Bracket.stl id:0 copy 0
EXCLUDE_OBJECT_START NAME=M3202_Ender-5_BL-Touch_CR-Touch_Bracket.stl_id_0_copy_0
G17
G3 Z.9 I.112 J1.212 P1  F21000
G1 X117.582 Y127.746 Z.9
G1 Z.65
G1 E.4 F1800
;TYPE:Inner wall
;WIDTH:0.449999
G1 F12000
G1 X117.804 Y127.672 E.00597
G1 X118.178 Y127.344 E.01271
G1 X118.335 Y126.957 E.01066
G1 X118.35 Y126.785 E.0044
G1 X118.35 Y94.606 E.82168
G1 X119.404 Y94.606 E.02691
G1 X119.404 Y95.133 E.01345
G1 X119.404 Y129.758 E.88415
M73 P3 R19
G1 X113.776 Y129.758 E.14371
G1 X113.776 Y127.779 E.05053
G1 X117.356 Y127.779 E.09141
G1 X117.528 Y127.764 E.0044
G1 X117.545 Y127.759 E.00046
G1 X117.446 Y127.34 F21000
G1 F12000
G1 X117.616 Y127.3 E.00446
G1 X117.833 Y127.109 E.00737
G1 X117.932 Y126.785 E.00866
G1 X117.932 Y94.188 E.83235
G1 X119.822 Y94.188 E.04824
G1 X119.822 Y95.133 E.02412
G1 X119.822 Y130.176 E.89482
G1 X113.358 Y130.176 E.16505
G1 X113.358 Y127.362 E.07186
G1 X117.356 Y127.362 E.10208
G1 X117.407 Y127.349 E.00135
G1 X117.356 Y126.969 F21000
;TYPE:Outer wall
;WIDTH:0.399999
G1 F7200
G1 X117.508 Y126.888 E.00387
G1 X117.54 Y126.785 E.00242
G1 X117.54 Y126.185 E.01349
G1 X117.54 Y94.609 E.70979
G1 F3000
G1 X117.54 Y93.809 E.01798
G1 F2829.336
G1 X117.54 Y93.795 E.00031
G1 X120.215 Y93.795 E.06013
G1 X120.215 Y93.809 E.00031
M106 S255
G1 F3000
G1 X120.215 Y95.133 E.02976
G1 F5099.962
G1 X120.215 Y95.883 E.01686
G1 X120.215 Y129.819 E.76284
G1 X120.215 Y130.569 E.01686
G1 X119.465 Y130.569 E.01686
G1 F7200
G1 X113.688 Y130.569 E.12986
