; HEADER_BLOCK_START
; generated by OrcaSlicer 1.9.0 on 2024-01-22 at 17:31:31
; total layer number: 21
; filament_density: 1.24
; filament_diameter: 1.75
; max_z_height: 6.40
; HEADER_BLOCK_END

; THUMBNAIL_BLOCK_START

;
; THUMBNAIL_BLOCK_END

; external perimeters extrusion width = 0.70mm
; perimeters extrusion width = 0.45mm
; infill extrusion width = 0.45mm
; solid infill extrusion width = 0.40mm
; top infill extrusion width = 0.40mm
; first layer extrusion width = 0.50mm

; EXECUTABLE_BLOCK_START
EXCLUDE_OBJECT_DEFINE NAME=OrcaToleranceTest.stl_id_0_copy_0 CENTER=110,110 POLYGON=[[81.0318,106.2],[84.0318,103.2],[85.3361,102.8],[134.083,102.8],[135.968,103.2],[138.968,106.2],[138.968,114.2],[135.968,117.2],[84.0318,117.2],[81.0318,114.2],[81.0318,106.2]]
M73 P0 R1
;TYPE:Custom
START_PRINT NOZZLE_TEMP=200  BED_TEMP=60 

G90
G21
M83 ; use relative distances for extrusion
; filament start gcode
M106 S0
;LAYER_CHANGE
;Z:0.32
;HEIGHT:0.32
;BEFORE_LAYER_CHANGE
;0.32
G92 E0

G1 Z.32 F21000
;AFTER_LAYER_CHANGE
;0.32
;_SET_FAN_SPEED_CHANGING_LAYER
SET_VELOCITY_LIMIT ACCEL=500 ACCEL_TO_DECEL=250
SET_VELOCITY_LIMIT SQUARE_CORNER_VELOCITY=8
; printing object OrcaToleranceTest.stl id:0 copy 0
G1 E-.8 F1800
EXCLUDE_OBJECT_START NAME=OrcaToleranceTest.stl_id_0_copy_0
G1 X84.135 Y103.69 F21000
M73 P1 R1
G1 E.8 F1800
;TYPE:Outer wall
;WIDTH:0.5
G1 F3000
G1 X135.865 Y103.69 E2.51343
M73 P2 R1
G1 X137.351 Y105.177 E.10216
G1 X138.478 Y106.304 E.07743
G1 X138.478 Y114.096 E.37864
M73 P3 R1
G1 X135.865 Y116.71 E.17959
G1 X84.135 Y116.71 E2.51343
M73 P4 R1
G1 X81.522 Y114.096 E.17959
G1 X81.522 Y106.304 E.37864
M73 P5 R1
G1 X84.107 Y103.718 E.17764
; stop printing object OrcaToleranceTest.stl id:0 copy 0
M106 S255
;LAYER_CHANGE
;Z:0.64
;HEIGHT:0.32
;BEFORE_LAYER_CHANGE
;0.64
G92 E0

EXCLUDE_OBJECT_END NAME=OrcaToleranceTest.stl_id_0_copy_0
G1 Z0.320 F21000
;AFTER_LAYER_CHANGE
;0.64
;_SET_FAN_SPEED_CHANGING_LAYER
SET_VELOCITY_LIMIT SQUARE_CORNER_VELOCITY=1
M104 S195 ; set nozzle temperature
M140 S60 ; set bed temperature
; printing object OrcaToleranceTest.stl id:0 copy 0
SET_VELOCITY_LIMIT SQUARE_CORNER_VELOCITY=8
EXCLUDE_OBJECT_START NAME=OrcaToleranceTest.stl_id_0_copy_0
SET_VELOCITY_LIMIT SQUARE_CORNER_VELOCITY=1
;WIDTH:0.7
G1 F7200
G1 Z0.320 X84.177 Y103.55 E0.00001
G1 Z0.443 X135.823 Y103.55 E1.41472
M73 P6 R1
G1 Z0.453 X138.618 Y106.345 E0.11654
G1 Z0.471 X138.618 Y114.055 E0.25873
G1 Z0.480 X135.823 Y116.85 E0.14091
G1 Z0.603 X84.177 Y116.85 E3.25121
M73 P7 R1
G1 Z0.613 X81.382 Y114.055 E0.25709
G1 Z0.631 X81.382 Y106.345 E0.53289
M73 P8 R1
G1 Z0.640 X84.058 Y103.669 E0.26914
; stop printing object OrcaToleranceTest.stl id:0 copy 0
;LAYER_CHANGE
;Z:0.96
;HEIGHT:0.32
;BEFORE_LAYER_CHANGE
;0.96
G92 E0

EXCLUDE_OBJECT_END NAME=OrcaToleranceTest.stl_id_0_copy_0
G1 Z0.640 F21000
;AFTER_LAYER_CHANGE
;0.96
;_SET_FAN_SPEED_CHANGING_LAYER
; printing object OrcaToleranceTest.stl id:0 copy 0
EXCLUDE_OBJECT_START NAME=OrcaToleranceTest.stl_id_0_copy_0
G1 F7200
G1 Z0.640 X84.177 Y103.55 E.01197
G1 Z0.763 X135.823 Y103.55 E3.67298
M73 P9 R1
G1 Z0.773 X138.618 Y106.345 E.28111
G1 Z0.791 X138.618 Y114.055 E.54832
G1 Z0.800 X135.823 Y116.85 E.28111
M73 P10 R1
G1 Z0.923 X84.177 Y116.85 E3.67298
G1 Z0.933 X81.382 Y114.055 E.28111
M73 P11 R1
G1 Z0.951 X81.382 Y106.345 E.54832
G1 Z0.960 X84.058 Y103.669 E.26914
; stop printing object OrcaToleranceTest.stl id:0 copy 0
;LAYER_CHANGE
;Z:1.28
;HEIGHT:0.32
;BEFORE_LAYER_CHANGE
;1.28
G92 E0

EXCLUDE_OBJECT_END NAME=OrcaToleranceTest.stl_id_0_copy_0
G1 Z0.960 F21000
;AFTER_LAYER_CHANGE
;1.28
;_SET_FAN_SPEED_CHANGING_LAYER
; printing object OrcaToleranceTest.stl id:0 copy 0
EXCLUDE_OBJECT_START NAME=OrcaToleranceTest.stl_id_0_copy_0
G1 F7200
G1 Z0.960 X84.177 Y103.55 E.01197
G1 Z0.966 X86.416 Y103.55 E.15925
G1 Z0.967 X86.416 Y103.16 E.02774
;TYPE:Overhang wall
;WIDTH:0.430934
G1 F3000
G1 Z0.969 X87.377 Y103.16 E.03923
;TYPE:Outer wall
;WIDTH:0.7
G1 F7200
M106 S255
G1 Z0.970 X87.377 Y103.55 E.02774
M73 P12 R1
G1 Z1.084 X135.823 Y103.55 E3.44537
G1 Z1.094 X138.618 Y106.345 E.28111
M73 P13 R1
G1 Z1.112 X138.618 Y114.055 E.54832
G1 Z1.121 X135.823 Y116.85 E.28111
G1 Z1.243 X84.177 Y116.85 E3.67298
M73 P14 R1
G1 Z1.253 X81.382 Y114.055 E.28111
G1 Z1.271 X81.382 Y106.345 E.54832
G1 Z1.280 X84.058 Y103.669 E.26914
; stop printing object OrcaToleranceTest.stl id:0 copy 0
;LAYER_CHANGE
;Z:1.6
;HEIGHT:0.32
;BEFORE_LAYER_CHANGE
;1.6
G92 E0

EXCLUDE_OBJECT_END NAME=OrcaToleranceTest.stl_id_0_copy_0
M73 P15 R1
G1 Z1.280 F21000
;AFTER_LAYER_CHANGE
;1.6
;_SET_FAN_SPEED_CHANGING_LAYER
; printing object OrcaToleranceTest.stl id:0 copy 0
EXCLUDE_OBJECT_START NAME=OrcaToleranceTest.stl_id_0_copy_0
G1 F7200
G1 Z1.280 X84.177 Y103.55 E.01197
G1 Z1.284 X86.016 Y103.55 E.13081
G1 Z1.285 X86.016 Y103.35 E.01422
G1 Z1.285 X86.044 Y103.35 E.00195
G1 Z1.285 X86.044 Y103.15 E.01422
G1 Z1.289 X87.767 Y103.15 E.12259
;TYPE:Overhang wall
;WIDTH:0.430934
G1 F3000
G1 Z1.289 X87.803 Y103.16 E.00152
;TYPE:Outer wall
;WIDTH:0.7
G1 F7200
M106 S255
G1 Z1.290 X87.803 Y103.55 E.02774
G1 Z1.297 X90.993 Y103.55 E.22687
G1 Z1.298 X90.993 Y103.16 E.02774
;TYPE:Overhang wall
;WIDTH:0.430934
G1 F3000
G1 Z1.301 X92.191 Y103.16 E.04887
;TYPE:Outer wall
;WIDTH:0.7
G1 F7200
M106 S255
G1 Z1.302 X92.191 Y103.55 E.02774
G1 Z1.312 X96.647 Y103.55 E.3169
M73 P16 R1
G1 Z1.313 X96.647 Y103.16 E.02774
;TYPE:Overhang wall
;WIDTH:0.430934
G1 F3000
G1 Z1.315 X97.6 Y103.16 E.03889
;TYPE:Outer wall
;WIDTH:0.7
G1 F7200
M106 S255
G1 Z1.316 X97.6 Y103.55 E.02774
G1 Z1.319 X99.064 Y103.55 E.10415
G1 Z1.320 X99.064 Y103.16 E.02774
;TYPE:Overhang wall
;WIDTH:0.430934
G1 F3000
G1 Z1.323 X100.445 Y103.16 E.05636
;TYPE:Outer wall
;WIDTH:0.7
G1 F7200
M106 S255
G1 Z1.324 X100.445 Y103.55 E.02774
G1 Z1.335 X105.447 Y103.55 E.3557
M73 P17 R1
G1 Z1.336 X105.447 Y103.16 E.02774
;TYPE:Overhang wall
;WIDTH:0.430934
G1 F3000
G1 Z1.337 X106.172 Y103.16 E.02958
;TYPE:Outer wall
;WIDTH:0.7
G1 F7200
M106 S255
G1 Z1.338 X106.172 Y103.55 E.02774
G1 Z1.345 X109.266 Y103.55 E.22006
G1 Z1.346 X109.266 Y103.16 E.02774
;TYPE:Overhang wall
;WIDTH:0.430934
G1 F3000
G1 Z1.348 X110.322 Y103.16 E.0431
;TYPE:Outer wall
;WIDTH:0.7
G1 F7200
M106 S255
G1 Z1.349 X110.322 Y103.55 E.02774
G1 Z1.358 X114.086 Y103.55 E.26768
G1 Z1.359 X114.086 Y103.16 E.02774
;TYPE:Overhang wall
;WIDTH:0.430934
G1 F3000
G1 Z1.362 X115.467 Y103.16 E.05636
;TYPE:Outer wall
;WIDTH:0.7
M73 P18 R1
G1 F7200
M106 S255
G1 Z1.363 X115.467 Y103.55 E.02774
G1 Z1.371 X119.172 Y103.55 E.26352
G1 Z1.372 X119.172 Y103.16 E.02774
;TYPE:Overhang wall
;WIDTH:0.430934
G1 F3000
G1 Z1.374 X120.125 Y103.16 E.03889
;TYPE:Outer wall
;WIDTH:0.7
G1 F7200
M106 S255
G1 Z1.375 X120.125 Y103.55 E.02774
G1 Z1.378 X121.667 Y103.55 E.10966
G1 Z1.379 X121.667 Y103.16 E.02774
;TYPE:Overhang wall
;WIDTH:0.430934
G1 F3000
G1 Z1.381 X122.724 Y103.16 E.0431
;TYPE:Outer wall
;WIDTH:0.7
G1 F7200
M106 S255
G1 Z1.382 X122.724 Y103.55 E.02774
G1 Z1.394 X127.852 Y103.55 E.36473
M73 P19 R1
G1 Z1.395 X127.852 Y103.16 E.02774
;TYPE:Overhang wall
;WIDTH:0.430934
G1 F3000
G1 Z1.397 X128.908 Y103.16 E.0431
;TYPE:Outer wall
;WIDTH:0.7
G1 F7200
M106 S255
G1 Z1.398 X128.908 Y103.55 E.02774
G1 Z1.401 X130.153 Y103.55 E.08849
G1 Z1.402 X130.153 Y103.16 E.02774
;TYPE:Overhang wall
;WIDTH:0.430934
G1 F3000
G1 Z1.404 X131.17 Y103.16 E.04152
;TYPE:Outer wall
;WIDTH:0.7
G1 F7200
M106 S255
G1 Z1.405 X131.17 Y103.55 E.02774
G1 Z1.415 X135.823 Y103.55 E.33093
M73 P20 R1
G1 Z1.424 X138.618 Y106.345 E.28111
G1 Z1.441 X138.618 Y114.055 E.54832
G1 Z1.450 X135.823 Y116.85 E.28111
G1 Z1.565 X84.177 Y116.85 E3.67298
M73 P21 R1
G1 Z1.574 X81.382 Y114.055 E.28111
G1 Z1.592 X81.382 Y106.345 E.54832
M73 P22 R1
G1 Z1.600 X84.058 Y103.669 E.26914
; stop printing object OrcaToleranceTest.stl id:0 copy 0
;LAYER_CHANGE
;Z:1.92
;HEIGHT:0.32
;BEFORE_LAYER_CHANGE
;1.92
G92 E0

EXCLUDE_OBJECT_END NAME=OrcaToleranceTest.stl_id_0_copy_0
G1 Z1.600 F21000
;AFTER_LAYER_CHANGE
;1.92
;_SET_FAN_SPEED_CHANGING_LAYER
; printing object OrcaToleranceTest.stl id:0 copy 0
EXCLUDE_OBJECT_START NAME=OrcaToleranceTest.stl_id_0_copy_0
G1 F7200
G1 Z1.600 X84.177 Y103.55 E.01197
G1 Z1.605 X86.337 Y103.55 E.15362
G1 Z1.605 X86.337 Y103.35 E.01422
G1 Z1.606 X86.624 Y103.35 E.02043
G1 Z1.606 X86.624 Y103.15 E.01422
G1 Z1.610 X88.053 Y103.15 E.10163
G1 Z1.610 X88.053 Y103.55 E.02845
G1 Z1.616 X90.625 Y103.55 E.1829
M73 P23 R1
G1 Z1.617 X90.625 Y103.15 E.02845
G1 Z1.621 X92.523 Y103.15 E.13501
G1 Z1.622 X92.523 Y103.55 E.02845
G1 Z1.630 X96.389 Y103.55 E.27495
G1 Z1.631 X96.389 Y103.15 E.02845
G1 Z1.631 X96.565 Y103.15 E.01246
G1 Z1.632 X96.565 Y103.55 E.02845
G1 Z1.634 X97.655 Y103.55 E.07752
G1 Z1.635 X97.655 Y103.15 E.02845
G1 Z1.636 X97.738 Y103.15 E.00596
G1 Z1.636 X97.738 Y103.55 E.02845
G1 Z1.639 X98.851 Y103.55 E.0791
M73 P24 R1
G1 Z1.640 X98.851 Y103.15 E.02845
G1 Z1.640 X98.934 Y103.15 E.00594
G1 Z1.641 X98.934 Y103.55 E.02845
G1 Z1.643 X100.07 Y103.55 E.08079
G1 Z1.644 X100.07 Y103.15 E.02845
G1 Z1.645 X100.319 Y103.15 E.01771
G1 Z1.645 X100.319 Y103.55 E.02845
G1 Z1.656 X105.205 Y103.55 E.34745
G1 Z1.657 X105.205 Y103.15 E.02845
G1 Z1.659 X106.419 Y103.15 E.08637
G1 Z1.660 X106.419 Y103.55 E.02845
M73 P25 R1
G1 Z1.666 X108.973 Y103.55 E.18161
G1 Z1.667 X108.973 Y103.15 E.02845
G1 Z1.667 X109.317 Y103.15 E.0245
G1 Z1.668 X109.317 Y103.55 E.02845
G1 Z1.670 X110.258 Y103.55 E.06688
G1 Z1.671 X110.258 Y103.15 E.02845
G1 Z1.672 X110.504 Y103.15 E.01756
G1 Z1.672 X110.504 Y103.55 E.02845
G1 Z1.680 X113.872 Y103.55 E.23952
G1 Z1.680 X113.872 Y103.15 E.02845
G1 Z1.681 X113.956 Y103.15 E.00594
G1 Z1.682 X113.956 Y103.55 E.02845
M73 P26 R1
G1 Z1.684 X115.092 Y103.55 E.08079
G1 Z1.685 X115.092 Y103.15 E.02845
M73 P26 R0
G1 Z1.685 X115.341 Y103.15 E.01771
G1 Z1.686 X115.341 Y103.55 E.02845
G1 Z1.694 X118.915 Y103.55 E.25419
G1 Z1.695 X118.915 Y103.15 E.02845
G1 Z1.695 X119.09 Y103.15 E.01246
G1 Z1.696 X119.09 Y103.55 E.02845
G1 Z1.698 X120.18 Y103.55 E.07752
G1 Z1.699 X120.18 Y103.15 E.02845
G1 Z1.699 X120.264 Y103.15 E.00596
G1 Z1.700 X120.264 Y103.55 E.02845
G1 Z1.703 X121.374 Y103.55 E.07894
M73 P27 R0
G1 Z1.703 X121.374 Y103.15 E.02845
G1 Z1.704 X121.719 Y103.15 E.0245
G1 Z1.705 X121.719 Y103.55 E.02845
G1 Z1.707 X122.659 Y103.55 E.06688
G1 Z1.708 X122.659 Y103.15 E.02845
G1 Z1.709 X122.906 Y103.15 E.01756
G1 Z1.709 X122.906 Y103.55 E.02845
G1 Z1.719 X127.559 Y103.55 E.33091
G1 Z1.720 X127.559 Y103.15 E.02845
G1 Z1.721 X127.903 Y103.15 E.0245
G1 Z1.722 X127.903 Y103.55 E.02845
G1 Z1.724 X128.844 Y103.55 E.06688
M73 P28 R0
G1 Z1.725 X128.844 Y103.15 E.02845
G1 Z1.725 X129.091 Y103.15 E.01756
G1 Z1.726 X129.091 Y103.55 E.02845
G1 Z1.731 X131.288 Y103.55 E.15627
G1 Z1.732 X131.288 Y103.15 E.02845
G1 Z1.732 X131.357 Y103.15 E.00494
G1 Z1.733 X131.357 Y103.55 E.02845
G1 Z1.742 X135.823 Y103.55 E.3176
G1 Z1.751 X138.618 Y106.345 E.28111
M73 P29 R0
G1 Z1.767 X138.618 Y114.055 E.54832
G1 Z1.776 X135.823 Y116.85 E.28111
G1 Z1.887 X84.177 Y116.85 E3.67298
M73 P30 R0
G1 Z1.895 X81.382 Y114.055 E.28111
G1 Z1.912 X81.382 Y106.345 E.54832
G1 Z1.920 X84.058 Y103.669 E.26914
; stop printing object OrcaToleranceTest.stl id:0 copy 0
;LAYER_CHANGE
;Z:2.24
;HEIGHT:0.32
;BEFORE_LAYER_CHANGE
;2.24
G92 E0

EXCLUDE_OBJECT_END NAME=OrcaToleranceTest.stl_id_0_copy_0
M73 P31 R0
G1 Z1.920 F21000
;AFTER_LAYER_CHANGE
;2.24
;_SET_FAN_SPEED_CHANGING_LAYER
; printing object OrcaToleranceTest.stl id:0 copy 0
EXCLUDE_OBJECT_START NAME=OrcaToleranceTest.stl_id_0_copy_0
G1 F7200
G1 Z1.920 X84.177 Y103.55 E.01197
G1 Z1.926 X86.658 Y103.55 E.17643
G1 Z1.926 X86.658 Y103.35 E.01422
G1 Z1.928 X87.153 Y103.35 E.03525
G1 Z1.928 X87.153 Y103.15 E.01422
G1 Z1.930 X88.208 Y103.15 E.07501
G1 Z1.931 X88.208 Y103.55 E.02845
G1 Z1.936 X90.419 Y103.55 E.15725
G1 Z1.937 X90.419 Y103.15 E.02845
G1 Z1.937 X90.496 Y103.15 E.00545
G1 Z1.938 X90.496 Y103.55 E.02845
G1 Z1.943 X92.659 Y103.55 E.15382
M73 P32 R0
G1 Z1.944 X92.659 Y103.15 E.02845
G1 Z1.944 X92.75 Y103.15 E.00649
G1 Z1.945 X92.75 Y103.55 E.02845
G1 Z1.982 X108.872 Y103.55 E1.1466
G1 Z1.983 X108.872 Y103.15 E.02845
G1 Z1.983 X109.009 Y103.15 E.00975
G1 Z1.984 X109.009 Y103.55 E.02845
G1 Z2.001 X116.422 Y103.55 E.52717
M73 P33 R0
G1 Z2.002 X116.422 Y103.15 E.02845
G1 Z2.003 X116.425 Y103.55 E.02845
G1 Z2.014 X121.274 Y103.55 E.34481
G1 Z2.015 X121.274 Y103.15 E.02845
G1 Z2.015 X121.411 Y103.15 E.00975
G1 Z2.016 X121.411 Y103.55 E.02845
G1 Z2.030 X127.459 Y103.55 E.43009
G1 Z2.030 X127.459 Y103.15 E.02845
G1 Z2.031 X127.596 Y103.15 E.00975
M73 P34 R0
G1 Z2.032 X127.596 Y103.55 E.02845
G1 Z2.040 X131.319 Y103.55 E.26481
G1 Z2.041 X131.319 Y103.15 E.02845
G1 Z2.041 X131.352 Y103.15 E.00232
G1 Z2.042 X131.352 Y103.55 E.02845
G1 Z2.052 X135.823 Y103.55 E.318
G1 Z2.061 X138.618 Y106.345 E.28111
G1 Z2.079 X138.618 Y114.055 E.54832
M73 P35 R0
G1 Z2.088 X135.823 Y116.85 E.28111
G1 Z2.205 X84.177 Y116.85 E3.67298
M73 P36 R0
G1 Z2.214 X81.382 Y114.055 E.28111
G1 Z2.231 X81.382 Y106.345 E.54832
G1 Z2.240 X84.058 Y103.669 E.26914
; stop printing object OrcaToleranceTest.stl id:0 copy 0
;LAYER_CHANGE
;Z:2.56
;HEIGHT:0.32
;BEFORE_LAYER_CHANGE
;2.56
G92 E0

EXCLUDE_OBJECT_END NAME=OrcaToleranceTest.stl_id_0_copy_0
G1 Z2.240 F21000
;AFTER_LAYER_CHANGE
;2.56
;_SET_FAN_SPEED_CHANGING_LAYER
; printing object OrcaToleranceTest.stl id:0 copy 0
EXCLUDE_OBJECT_START NAME=OrcaToleranceTest.stl_id_0_copy_0
G1 F7200
G1 Z2.240 X84.177 Y103.55 E.01197
G1 Z2.246 X86.563 Y103.55 E.16971
M73 P37 R0
G1 Z2.246 X86.563 Y103.35 E.01422
G1 Z2.249 X87.647 Y103.35 E.07707
G1 Z2.249 X87.647 Y103.15 E.01422
G1 Z2.251 X88.291 Y103.15 E.04582
G1 Z2.252 X88.291 Y103.55 E.02845
G1 Z2.262 X92.895 Y103.55 E.32739
G1 Z2.263 X92.895 Y103.15 E.02845
G1 Z2.263 X92.915 Y103.15 E.00145
G1 Z2.264 X92.915 Y103.55 E.02845
G1 Z2.300 X108.859 Y103.55 E1.13391
M73 P38 R0
G1 Z2.301 X108.859 Y103.15 E.02845
G1 Z2.303 X109.399 Y103.15 E.03843
;TYPE:Overhang wall
;WIDTH:0.430934
G1 F3000
G1 Z2.303 X109.732 Y103.16 E.01356
;TYPE:Outer wall
;WIDTH:0.7
G1 F7200
M106 S255
G1 Z2.304 X109.732 Y103.55 E.02774
G1 Z2.320 X116.442 Y103.55 E.47722
G1 Z2.320 X116.442 Y103.15 E.02845
G1 Z2.321 X116.486 Y103.15 E.00312
G1 Z2.321 X116.486 Y103.55 E.02845
G1 Z2.332 X121.261 Y103.55 E.33957
M73 P39 R0
G1 Z2.333 X121.261 Y103.15 E.02845
G1 Z2.335 X121.801 Y103.15 E.03843
;TYPE:Overhang wall
;WIDTH:0.430934
G1 F3000
G1 Z2.335 X122.133 Y103.16 E.01356
;TYPE:Outer wall
;WIDTH:0.7
G1 F7200
M106 S255
G1 Z2.336 X122.133 Y103.55 E.02774
G1 Z2.348 X127.445 Y103.55 E.37779
G1 Z2.349 X127.445 Y103.15 E.02845
G1 Z2.350 X127.986 Y103.15 E.03843
;TYPE:Overhang wall
;WIDTH:0.430934
G1 F3000
G1 Z2.351 X128.318 Y103.16 E.01356
;TYPE:Outer wall
;WIDTH:0.7
G1 F7200
M106 S255
G1 Z2.352 X128.318 Y103.55 E.02774
G1 Z2.357 X130.654 Y103.55 E.16616
M73 P40 R0
G1 Z2.358 X130.654 Y103.16 E.02774
;TYPE:Overhang wall
;WIDTH:0.430934
G1 F3000
G1 Z2.359 X130.929 Y103.15 E.01123
;TYPE:Outer wall
;WIDTH:0.7
G1 F7200
M106 S255
G1 Z2.359 X131.136 Y103.15 E.01473
G1 Z2.360 X131.136 Y103.55 E.02845
G1 Z2.371 X135.823 Y103.55 E.33331
G1 Z2.380 X138.618 Y106.345 E.28111
G1 Z2.398 X138.618 Y114.055 E.54832
M73 P41 R0
G1 Z2.407 X135.823 Y116.85 E.28111
G1 Z2.525 X84.177 Y116.85 E3.67298
M73 P42 R0
G1 Z2.534 X81.382 Y114.055 E.28111
G1 Z2.551 X81.382 Y106.345 E.54832
G1 Z2.560 X84.058 Y103.669 E.26914
; stop printing object OrcaToleranceTest.stl id:0 copy 0
;LAYER_CHANGE
;Z:2.88
;HEIGHT:0.32
;BEFORE_LAYER_CHANGE
;2.88
G92 E0

EXCLUDE_OBJECT_END NAME=OrcaToleranceTest.stl_id_0_copy_0
G1 Z2.560 F21000
;AFTER_LAYER_CHANGE
;2.88
;_SET_FAN_SPEED_CHANGING_LAYER
; printing object OrcaToleranceTest.stl id:0 copy 0
EXCLUDE_OBJECT_START NAME=OrcaToleranceTest.stl_id_0_copy_0
G1 F7200
G1 Z2.560 X84.177 Y103.55 E.01197
G1 Z2.565 X86.387 Y103.55 E.15716
G1 Z2.566 X86.387 Y103.15 E.02845
M73 P43 R0
G1 Z2.567 X86.599 Y103.15 E.01511
G1 Z2.567 X86.599 Y103.35 E.01422
G1 Z2.571 X88.116 Y103.35 E.1079
G1 Z2.571 X88.116 Y103.15 E.01422
G1 Z2.572 X88.314 Y103.15 E.01407
G1 Z2.573 X88.314 Y103.55 E.02845
