; HEADER_BLOCK_START
; generated by OrcaSlicer 1.9.0 on 2024-01-22 at 21:47:14
; total layer number: 32
; filament_density: 1.24
; filament_diameter: 1.75
; max_z_height: 6.40
; HEADER_BLOCK_END

; THUMBNAIL_BLOCK_START

;
; THUMBNAIL_BLOCK_END

; external perimeters extrusion width = 0.40mm
; perimeters extrusion width = 0.45mm
; infill extrusion width = 0.45mm
; solid infill extrusion width = 0.40mm
; top infill extrusion width = 0.40mm
; first layer extrusion width = 0.50mm

; EXECUTABLE_BLOCK_START
EXCLUDE_OBJECT_DEFINE NAME=OrcaToleranceTest.stl_id_0_copy_0 CENTER=110,110 POLYGON=[[81.0318,106.2],[84.0318,103.2],[85.3361,102.8],[134.083,102.8],[135.968,103.2],[138.968,106.2],[138.968,114.2],[135.968,117.2],[84.0318,117.2],[81.0318,114.2],[81.0318,106.2]]
M73 P0 R42
;TYPE:Custom
START_PRINT NOZZLE_TEMP=200  BED_TEMP=60 

G90
G21
M83 ; use relative distances for extrusion
; filament start gcode
M106 S0
;LAYER_CHANGE
;Z:0.2
;HEIGHT:0.2
;BEFORE_LAYER_CHANGE
;0.2
G92 E0

G1 E-.8 F1800
;AFTER_LAYER_CHANGE
;0.2
;_SET_FAN_SPEED_CHANGING_LAYER
SET_VELOCITY_LIMIT ACCEL=500 ACCEL_TO_DECEL=250
SET_VELOCITY_LIMIT SQUARE_CORNER_VELOCITY=8
; printing object OrcaToleranceTest.stl id:0 copy 0
EXCLUDE_OBJECT_START NAME=OrcaToleranceTest.stl_id_0_copy_0
G1 Z.4 F21000
G1 X135.815 Y107.646
G1 Z.4
G1 Z.2
G1 E.8 F1800
;TYPE:Inner wall
;WIDTH:0.499999
G1 F3000
G1 X135.59 Y107.508 E.00848
G1 X135.191 Y107.436 E.01306
G1 X130.894 Y107.436 E.13829
G1 X130.488 Y107.51 E.01326
G1 X130.155 Y107.707 E.01245
G1 X129.904 Y108.007 E.0126
G1 X128.116 Y111.104 E.11506
G1 X126.386 Y108.107 E.11135
G1 X126.111 Y107.787 E.0136
G1 X125.866 Y107.637 E.00924
G1 X125.397 Y107.536 E.01545
G1 X121.215 Y107.536 E.13457
G1 X120.824 Y107.605 E.01276
G1 X120.498 Y107.788 E.01204
G1 X120.225 Y108.107 E.01351
G1 X118.495 Y111.104 E.11135
G1 X116.823 Y108.207 E.10763
G1 X116.524 Y107.869 E.01452
G1 X116.303 Y107.737 E.00831
G1 X115.833 Y107.636 E.01545
G1 X111.767 Y107.636 E.13085
G1 X111.391 Y107.7 E.01228
G1 X111.073 Y107.871 E.01163
G1 X110.777 Y108.207 E.0144
G1 X109.105 Y111.104 E.10763
G1 X107.491 Y108.307 E.10392
G1 X107.169 Y107.952 E.01542
G1 X106.97 Y107.837 E.0074
G1 X106.501 Y107.736 E.01545
G1 X102.55 Y107.736 E.12714
G1 X102.189 Y107.795 E.01179
G1 X101.879 Y107.954 E.01121
G1 X101.561 Y108.307 E.0153
G1 X99.946 Y111.104 E.10392
G1 X98.349 Y108.338 E.10277
G1 X98.029 Y107.994 E.01512
G1 X97.84 Y107.887 E.00699
G1 X97.371 Y107.786 E.01545
G1 X93.478 Y107.786 E.12528
G1 X93.127 Y107.841 E.01143
G1 X92.823 Y107.992 E.01091
G1 X92.595 Y108.202 E.00998
G1 X92.488 Y108.357 E.00606
G1 X90.931 Y111.054 E.1002
G1 X89.336 Y108.305 E.10227
G1 X89.054 Y108.032 E.01262
G1 X88.883 Y107.937 E.00632
G1 X88.414 Y107.836 E.01545
G1 X84.578 Y107.836 E.12342
G1 X84.013 Y107.985 E.01881
G1 X83.589 Y108.407 E.01926
G1 X82.496 Y110.3 E.07033
G1 X82.496 Y106.682 E.11642
G1 X84.514 Y104.664 E.09184
G1 X135.486 Y104.664 E1.64031
G1 X137.504 Y106.682 E.09184
G1 X137.504 Y107.062 E.01223
G1 X137.504 Y110.3 E.10418
G1 X136.18 Y108.007 E.08519
G1 X135.965 Y107.738 E.01111
G1 X135.849 Y107.667 E.00437
G1 E-.8 F1800
G1 Z.6 F21000
G1 X84.325 Y104.207 Z.6
G1 Z.2
G1 E.8 F1800
G1 F3000
G1 X135.675 Y104.207 E1.6525
G1 X137.961 Y106.493 E.10403
G1 X137.961 Y107.062 E.01833
G1 X137.961 Y107.653 E.01899
;WIDTH:0.529972
G1 X137.946 Y111.95 E.14735
G1 X135.785 Y108.236 E.14735
;WIDTH:0.499999
G1 X135.655 Y108.074 E.00667
G1 X135.43 Y107.936 E.00848
G1 X135.191 Y107.893 E.00784
G1 X130.894 Y107.893 E.13829
G1 X130.65 Y107.938 E.00796
G1 X130.45 Y108.055 E.00747
G1 X130.242 Y108.336 E.01124
G1 X128.167 Y111.966 E.13457
;WIDTH:0.463366
G1 X128.116 Y112.161 E.00594
G1 X128.065 Y111.966 E.00594
;WIDTH:0.499999
G1 X125.99 Y108.336 E.13457
G1 X125.825 Y108.143 E.00816
G1 X125.678 Y108.053 E.00555
G1 X125.397 Y107.993 E.00927
G1 X121.215 Y107.993 E.13457
G1 X120.98 Y108.034 E.00766
G1 X120.785 Y108.144 E.00722
G1 X120.563 Y108.436 E.01178
G1 X118.546 Y111.966 E.13086
;WIDTH:0.463366
G1 X118.495 Y112.161 E.00594
G1 X118.444 Y111.966 E.00594
;WIDTH:0.499999
G1 X116.427 Y108.436 E.13086
G1 X116.385 Y108.372 E.00246
G1 X116.115 Y108.153 E.01118
G1 X115.833 Y108.093 E.00927
G1 X111.767 Y108.093 E.13085
G1 X111.541 Y108.131 E.00737
G1 X111.35 Y108.234 E.00698
G1 X111.116 Y108.536 E.0123
G1 X109.156 Y111.966 E.12714
;WIDTH:0.463366
G1 X109.105 Y112.161 E.00594
G1 X109.054 Y111.966 E.00594
;WIDTH:0.499999
G1 X107.095 Y108.536 E.12714
G1 X107.039 Y108.454 E.0032
G1 X106.782 Y108.253 E.01047
G1 X106.501 Y108.193 E.00927
G1 X102.55 Y108.193 E.12714
G1 X102.333 Y108.228 E.00707
G1 X102.147 Y108.324 E.00673
G1 X101.928 Y108.586 E.011
G1 X99.997 Y111.966 E.12528
;WIDTH:0.463365
G1 X99.946 Y112.161 E.00594
G1 X99.895 Y111.966 E.00594
;WIDTH:0.499999
G1 X97.964 Y108.586 E.12528
G1 X97.902 Y108.496 E.00352
G1 X97.652 Y108.303 E.01015
G1 X97.371 Y108.243 E.00927
G1 X93.478 Y108.243 E.12528
G1 X93.267 Y108.276 E.00686
G1 X93.085 Y108.367 E.00654
G1 X92.884 Y108.586 E.00957
G1 X90.937 Y111.957 E.12528
G1 X89.007 Y108.636 E.12362
G1 X88.967 Y108.574 E.00236
G1 X88.695 Y108.353 E.01128
G1 X88.414 Y108.293 E.00927
G1 X84.578 Y108.293 E.12342
G1 X84.239 Y108.383 E.01128
G1 X83.985 Y108.636 E.01156
;WIDTH:0.529972
G1 X82.054 Y111.95 E.13152
G1 X82.039 Y108.114 E.13152
;WIDTH:0.499999
G1 X82.039 Y106.493 E.05218
G1 X84.296 Y104.235 E.10274
G1 E-.56 F1800
;WIPE_START
G1 F3000
G1 X85.296 Y104.235 E-.24
;WIPE_END
G1 Z.6 F21000
G1 X85.296 Y104.186 Z.6
G1 X81.839 Y112.394
G1 X84.247 Y116.394
G1 X89.848 Y116.214
G1 X119.703 Y116.214
G1 X126.171 Y116.435
G1 X126.669 Y116.257
G1 X127.167 Y116.214
G1 X129.157 Y116.214
G1 X135.716 Y116.543
G1 X138.103 Y112.882
G1 X138.136 Y112.602
G1 X137.963 Y112.581
G1 Z.2
G1 E.8 F1800
;WIDTH:0.512802
G1 F3000
G1 X137.955 Y112.65 E.00231
;WIDTH:0.550436
G1 X137.936 Y113.213 E.02012
;WIDTH:0.588069
G1 X137.917 Y113.889 E.02595
G1 X137.621 Y114.215 E.01692
;WIDTH:0.544961
G1 X137.405 Y114.462 E.0116
;WIDTH:0.501853
G1 X137.188 Y114.709 E.0106
;WIDTH:0.458745
G1 X136.972 Y114.956 E.00961
;WIDTH:0.415637
G1 X136.756 Y115.203 E.00861
;WIDTH:0.417566
G1 X136.684 Y115.243 E.00217
;WIDTH:0.462603
G1 X136.612 Y115.283 E.00244
;WIDTH:0.50764
G1 X136.54 Y115.323 E.0027
;WIDTH:0.552677
G1 X136.468 Y115.363 E.00296
;WIDTH:0.597714
G1 X136.396 Y115.403 E.00322
G1 X136.416 Y115.323 E.00322
;WIDTH:0.552677
G1 X136.436 Y115.243 E.00296
;WIDTH:0.50764
G1 X136.456 Y115.164 E.0027
;WIDTH:0.462603
G1 X136.476 Y115.084 E.00244
;WIDTH:0.417566
G1 X136.497 Y115.004 E.00217
;WIDTH:0.415637
G1 X136.679 Y114.731 E.00861
;WIDTH:0.458745
G1 X136.861 Y114.458 E.00961
;WIDTH:0.501853
G1 X137.044 Y114.185 E.0106
;WIDTH:0.544961
G1 X137.226 Y113.912 E.0116
;WIDTH:0.588069
G1 X137.408 Y113.64 E.01259
G1 X137.674 Y113.143 E.02161
;WIDTH:0.550436
G1 X137.939 Y112.646 E.02012
;WIDTH:0.512802
G1 X137.949 Y112.618 E.00098
G1 E-.56 F1800
;WIPE_START
G1 F3000
G1 X137.955 Y112.65 E-.0078
G1 X137.936 Y113.213 E-.13516
G1 X137.925 Y113.617 E-.09704
;WIPE_END
G1 Z.6 F21000
G1 X137.984 Y113.618 Z.6
G1 X135.128 Y116.621
G1 X129.157 Y116.214
G1 X127.167 Y116.214
G1 X126.867 Y116.24
G1 X126.823 Y115.736
G1 Z.2
G1 E.8 F1800
;WIDTH:0.499999
G1 F3000
G1 X128.116 Y113.496 E.08322
G1 X129.409 Y115.736 E.08322
G1 X126.863 Y115.736 E.08193
G1 E-.8 F1800
G1 Z.6 F21000
G1 X128.116 Y112.439 Z.6
G1 Z.2
G1 E.8 F1800
;WIDTH:0.463366
G1 F3000
G1 X128.167 Y112.634 E.00594
;WIDTH:0.499999
G1 X130.201 Y116.193 E.13192
G1 X126.032 Y116.193 E.13417
G1 X128.065 Y112.634 E.13192
;WIDTH:0.463366
G1 X128.106 Y112.478 E.00476
G1 E-.56 F1800
;WIPE_START
G1 F3000
G1 X128.167 Y112.634 E-.04011
G1 X128.58 Y113.357 E-.19989
;WIPE_END
G1 Z.6 F21000
G1 X128.586 Y113.353 Z.6
G1 X128.564 Y113.316
G1 X128.213 Y112.3
G1 X128.572 Y111.272
G1 X130.51 Y107.914
G1 X135.574 Y107.914
G1 X135.732 Y108.187
G1 X135.346 Y108.41
G1 Z.2
M73 P0 R41
G1 E.8 F1800
;TYPE:Outer wall
;WIDTH:0.499999
G1 F3000
G1 X137.537 Y112.186 E.14048
G1 X137.548 Y112.394 E.00671
G1 X135.629 Y115.719 E.12355
;WIDTH:0.538102
G1 X135.565 Y115.868 E.00563
;WIDTH:0.576204
G1 X135.502 Y116.016 E.00606
;WIDTH:0.614306
G1 X135.438 Y116.164 E.00649
G1 X135.356 Y116.188 E.00345
;WIDTH:0.566691
G1 X135.273 Y116.212 E.00317
;WIDTH:0.519076
G1 X135.191 Y116.236 E.00288
;WIDTH:0.47146
G1 X130.894 Y116.236 E.12965
;WIDTH:0.499999
G1 X130.696 Y116.136 E.00714
G1 X128.522 Y112.349 E.1405
G1 X128.547 Y112.186 E.00533
G1 X130.696 Y108.464 E.13829
G1 X130.813 Y108.365 E.00494
G1 X130.894 Y108.35 E.00265
G1 X135.191 Y108.35 E.13829
G1 X135.308 Y108.396 E.00406
G1 E-.56 F1800
;WIPE_START
G1 F3000
G1 X135.815 Y109.258 E-.24
;WIPE_END
G1 Z.6 F21000
G1 X136.216 Y109.026 Z.6
G1 X137.513 Y111.272
G1 X137.655 Y111.708
G1 X137.782 Y112.017
G1 X137.946 Y111.95
G1 Z.2
G1 E.8 F1800
;TYPE:Inner wall
;WIDTH:0.529972
G1 F3000
G1 X137.97 Y112.125 E.00606
;WIDTH:0.48304
G1 X137.993 Y112.3 E.00548
;WIDTH:0.466267
G1 X137.978 Y112.44 E.00421
;WIDTH:0.496426
G1 X137.963 Y112.581 E.00451
G1 E-.56 F1800
;WIPE_START
G1 F3000
G1 X137.978 Y112.44 E-.0533
G1 X137.993 Y112.3 E-.0533
G1 X137.97 Y112.125 E-.0667
G1 X137.946 Y111.95 E-.0667
;WIPE_END
G1 Z.6 F21000
G1 X137.782 Y112.017 Z.6
G1 X137.898 Y112.3
G1 X137.513 Y113.328
G1 X136.84 Y114.493
G1 X136.581 Y114.861
G1 X136.032 Y115.579
G1 X135.72 Y115.917
G1 X135.339 Y116.279
G1 X130.745 Y116.279
G1 X125.969 Y115.842
G1 X125.574 Y116.229
G1 X121.037 Y116.229
G1 X120.214 Y115.517
G1 X118.974 Y113.369
G1 X118.965 Y113.341
G1 X118.495 Y113.496
G1 Z.2
G1 E.8 F1800
;WIDTH:0.499999
G1 F3000
G1 X119.788 Y115.736 E.08322
G1 X117.202 Y115.736 E.08322
G1 X118.475 Y113.531 E.08193
G1 E-.8 F1800
G1 Z.6 F21000
G1 X118.495 Y112.439 Z.6
G1 Z.2
G1 E.8 F1800
;WIDTH:0.463366
G1 F3000
G1 X118.546 Y112.634 E.00594
;WIDTH:0.499999
G1 X120.58 Y116.193 E.13192
G1 X116.395 Y116.193 E.13466
G1 X116.427 Y116.164 E.00137
G1 X117.453 Y114.388 E.06602
G1 X118.444 Y112.634 E.06483
;WIDTH:0.463366
G1 X118.485 Y112.478 E.00476
G1 E-.56 F1800
;WIPE_START
G1 F3000
G1 X118.546 Y112.634 E-.04011
G1 X118.959 Y113.357 E-.19989
;WIPE_END
G1 Z.6 F21000
G1 X118.112 Y113.083 Z.6
G1 X118.024 Y113.355
G1 X116.826 Y115.431
G1 X116.039 Y116.179
G1 X111.561 Y116.179
G1 X110.774 Y115.431
G1 X109.576 Y113.355
G1 X109.573 Y113.345
G1 X109.105 Y113.496
G1 Z.2
G1 E.8 F1800
;WIDTH:0.499999
G1 F3000
G1 X110.398 Y115.736 E.08322
G1 X107.812 Y115.736 E.08322
G1 X109.085 Y113.531 E.08193
G1 E-.8 F1800
G1 Z.6 F21000
G1 X109.105 Y112.439 Z.6
G1 Z.2
G1 E.8 F1800
;WIDTH:0.463366
G1 F3000
G1 X109.156 Y112.634 E.00594
;WIDTH:0.499999
G1 X111.173 Y116.164 E.13086
G1 X111.223 Y116.193 E.00184
G1 X106.952 Y116.193 E.13743
G1 X107.095 Y116.064 E.00617
G1 X109.054 Y112.634 E.12714
;WIDTH:0.463366
G1 X109.095 Y112.478 E.00476
G1 E-.56 F1800
;WIPE_START
G1 F3000
G1 X109.156 Y112.634 E-.04011
G1 X109.569 Y113.357 E-.19989
;WIPE_END
G1 Z.6 F21000
G1 X109.576 Y113.355 Z.6
G1 X109.202 Y112.3
G1 X109.576 Y111.245
G1 X111.384 Y108.114
G1 X116.217 Y108.114
G1 X116.409 Y108.446
G1 X116.031 Y108.664
G1 Z.2
G1 E.8 F1800
;TYPE:Outer wall
;WIDTH:0.499999
G1 F3000
G1 X118.064 Y112.186 E.13085
G1 X118.09 Y112.349 E.00533
G1 X116.031 Y115.936 E.13307
;WIDTH:0.547923
G1 X115.989 Y116.005 E.00287
;WIDTH:0.595846
G1 X115.947 Y116.074 E.00315
G1 X115.833 Y116.086 E.00445
;WIDTH:0.57146
G1 X111.767 Y116.086 E.15131
G1 X111.668 Y116.011 E.00462
;WIDTH:0.53573
G1 X111.569 Y115.936 E.00431
;WIDTH:0.499999
G1 X109.536 Y112.414 E.13085
G1 X109.511 Y112.251 E.00533
G1 X109.536 Y112.186 E.00224
G1 X111.569 Y108.664 E.13085
G1 X111.692 Y108.563 E.00512
G1 X111.767 Y108.55 E.00246
G1 X115.833 Y108.55 E.13085
G1 X115.972 Y108.597 E.00469
G1 X116.005 Y108.634 E.00162
G1 E-.56 F1800
;WIPE_START
G1 F3000
G1 X116.506 Y109.499 E-.24
;WIPE_END
G1 Z.6 F21000
G1 X116.889 Y109.278 Z.6
G1 X120.831 Y108.014
G1 X125.397 Y108.014
G1 X125.397 Y108.45
G1 Z.2
G1 E.8 F1800
G1 F3000
G1 X125.539 Y108.5 E.00487
G1 X125.594 Y108.564 E.00272
G1 X127.685 Y112.186 E.13457
G1 X127.711 Y112.349 E.00533
G1 X127.685 Y112.414 E.00224
G1 X126.678 Y114.159 E.06483
;WIDTH:0.502914
G1 X125.596 Y116.036 E.07018
;WIDTH:0.543539
G1 X125.499 Y116.15 E.00524
G1 X125.397 Y116.161 E.00364
;WIDTH:0.52146
G1 X121.215 Y116.161 E.14089
G1 X121.017 Y116.036 E.00789
;WIDTH:0.499999
G1 X118.926 Y112.414 E.13457
G1 X118.901 Y112.251 E.00533
G1 X121.026 Y108.55 E.13733
G1 X121.137 Y108.464 E.00451
G1 X121.215 Y108.45 E.00255
G1 X125.357 Y108.45 E.13328
G1 E-.56 F1800
;WIPE_START
G1 F3000
G1 X125.539 Y108.5 E-.0455
G1 X125.594 Y108.564 E-.02029
G1 X125.957 Y109.193 E-.17421
;WIPE_END
G1 Z.6 F21000
G1 X126.335 Y108.975 Z.6
G1 X125.78 Y108.014
G1 X120.831 Y108.014
G1 X118.974 Y111.231
G1 X118.592 Y112.3
G1 X118.626 Y112.39
G1 X118.495 Y112.439
G1 Z.2
G1 E.8 F1800
;TYPE:Inner wall
;WIDTH:0.416914
G1 F3000
G1 X118.495 Y112.161 E.00734
G1 E-.63272 F1800
;WIPE_START
G1 F3000
G1 X118.495 Y112.439 E-.16728
;WIPE_END
G1 Z.6 F21000
G1 X118.626 Y112.39 Z.6
G1 X118.974 Y113.369
G1 X120.214 Y115.517
G1 X121.037 Y116.229
G1 X125.574 Y116.229
M73 P1 R41
G1 X126.397 Y115.517
G1 X127.637 Y113.369
G1 X127.796 Y112.888
G1 X127.985 Y112.39
G1 X128.116 Y112.439
G1 Z.2
G1 E.8 F1800
G1 F3000
G1 X128.116 Y112.161 E.00734
G1 E-.63272 F1800
;WIPE_START
G1 F3000
G1 X128.116 Y112.439 E-.16728
;WIPE_END
G1 Z.6 F21000
G1 X127.985 Y112.39 Z.6
G1 X127.637 Y113.369
G1 X126.397 Y115.517
G1 X125.574 Y116.229
G1 X121.037 Y116.229
G1 X116.449 Y115.767
G1 X116.039 Y116.179
G1 X111.561 Y116.179
G1 X102.315 Y116.129
G1 X101.708 Y115.556
G1 X101.521 Y115.268
G1 X100.412 Y113.346
G1 X99.946 Y113.496
G1 Z.2
G1 E.8 F1800
;WIDTH:0.499999
G1 F3000
G1 X101.239 Y115.736 E.08322
G1 X98.653 Y115.736 E.08322
G1 X99.926 Y113.531 E.08193
G1 E-.8 F1800
G1 Z.6 F21000
G1 X99.946 Y112.439 Z.6
G1 Z.2
G1 E.8 F1800
;WIDTH:0.463365
G1 F3000
G1 X99.997 Y112.634 E.00594
;WIDTH:0.499999
G1 X101.956 Y116.064 E.12714
G1 X102.179 Y116.193 E.00828
G1 X97.767 Y116.193 E.14199
G1 X97.964 Y116.014 E.00857
G1 X99.895 Y112.634 E.12528
;WIDTH:0.463365
G1 X99.936 Y112.478 E.00476
G1 E-.56 F1800
;WIPE_START
G1 F3000
G1 X99.997 Y112.634 E-.04011
G1 X100.41 Y113.357 E-.19989
;WIPE_END
G1 Z.6 F21000
G1 X100.416 Y113.353 Z.6
G1 X100.412 Y113.346
G1 X100.043 Y112.3
G1 X100.409 Y111.259
G1 X102.167 Y108.214
G1 X106.501 Y108.214
G1 X106.501 Y108.65
G1 Z.2
G1 E.8 F1800
;TYPE:Outer wall
;WIDTH:0.499999
G1 F3000
G1 X106.635 Y108.693 E.00452
G1 X106.699 Y108.764 E.00308
G1 X108.674 Y112.186 E.12714
G1 X108.699 Y112.349 E.00533
G1 X106.699 Y115.836 E.12935
;WIDTH:0.549384
G1 X106.674 Y115.89 E.00211
;WIDTH:0.598769
G1 X106.65 Y115.944 E.00232
;WIDTH:0.648153
G1 X106.625 Y115.997 E.00252
G1 X106.501 Y116.011 E.00533
;WIDTH:0.62146
G1 X102.55 Y116.011 E.16092
G1 X102.484 Y115.952 E.00359
;WIDTH:0.580973
G1 X102.418 Y115.894 E.00334
;WIDTH:0.540486
G1 X102.352 Y115.836 E.00308
;WIDTH:0.499999
G1 X100.352 Y112.349 E.12935
G1 X100.377 Y112.186 E.00533
G1 X102.352 Y108.764 E.12714
G1 X102.478 Y108.662 E.00522
G1 X106.461 Y108.65 E.12818
G1 E-.56 F1800
;WIPE_START
G1 F3000
G1 X106.635 Y108.693 E-.04294
G1 X106.699 Y108.764 E-.023
G1 X107.061 Y109.392 E-.17406
;WIPE_END
G1 Z.6 F21000
G1 X109.105 Y112.439 Z.6
G1 Z.2
G1 E.8 F1800
;TYPE:Inner wall
;WIDTH:0.416914
G1 F3000
G1 X109.105 Y112.161 E.00734
G1 E-.63272 F1800
;WIPE_START
G1 F3000
G1 X109.105 Y112.439 E-.16728
;WIPE_END
G1 Z.6 F21000
G1 X108.974 Y112.39 Z.6
G1 X108.643 Y113.341
G1 X107.485 Y115.345
G1 X107.16 Y115.692
G1 X106.736 Y116.129
G1 X102.315 Y116.129
G1 X93.228 Y116.104
G1 X92.797 Y115.654
G1 X92.497 Y115.302
G1 X92.473 Y115.26
G1 X89.719 Y116.228
G1 X89.667 Y115.736
G1 Z.2
G1 E.8 F1800
;WIDTH:0.499999
G1 F3000
G1 X90.931 Y113.546 E.08136
G1 X92.195 Y115.736 E.08136
G1 X89.707 Y115.736 E.08008
G1 E-.8 F1800
G1 Z.6 F21000
G1 X88.684 Y116.221 Z.6
G1 Z.2
G1 E.8 F1800
;WIDTH:0.471921
G1 F3000
G1 X88.845 Y116.093 E.00624
;WIDTH:0.499999
G1 X89.007 Y115.964 E.00665
G1 X90.937 Y112.643 E.12362
G1 X92.884 Y116.014 E.12528
G1 X93.193 Y116.193 E.0115
G1 X89.139 Y116.193 E.13046
G1 X88.911 Y116.207 E.00735
;WIDTH:0.471921
G1 X88.724 Y116.219 E.00569
G1 E-.56 F1800
