; HEADER_BLOCK_START
; generated by OrcaSlicer 1.9.1 on 2024-02-19 at 10:42:39
; total layer number: 143
; filament_density: 1.24
; filament_diameter: 1.75
; max_z_height: 28.60
; HEADER_BLOCK_END

; THUMBNAIL_BLOCK_START

;
; THUMBNAIL_BLOCK_END

; external perimeters extrusion width = 0.40mm
; perimeters extrusion width = 0.45mm
; infill extrusion width = 0.45mm
; solid infill extrusion width = 0.40mm
; top infill extrusion width = 0.40mm
; first layer extrusion width = 0.50mm

; external perimeters extrusion width = 0.40mm
; perimeters extrusion width = 0.45mm
; infill extrusion width = 0.45mm
; solid infill extrusion width = 0.40mm
; top infill extrusion width = 0.40mm
; first layer extrusion width = 0.50mm

; external perimeters extrusion width = 0.40mm
; perimeters extrusion width = 0.45mm
; infill extrusion width = 0.45mm
; solid infill extrusion width = 0.40mm
; top infill extrusion width = 0.40mm
; first layer extrusion width = 0.50mm

; external perimeters extrusion width = 0.40mm
; perimeters extrusion width = 0.45mm
; infill extrusion width = 0.45mm
; solid infill extrusion width = 0.40mm
; top infill extrusion width = 0.40mm
; first layer extrusion width = 0.50mm

; EXECUTABLE_BLOCK_START
EXCLUDE_OBJECT_DEFINE NAME=Pi_Cam_Case.stl_id_0_copy_0 CENTER=121.998,121.774 POLYGON=[[107.248,107.526],[136.748,107.526],[136.748,136.021],[107.248,136.021],[107.248,107.526]]
EXCLUDE_OBJECT_DEFINE NAME=Pi_Cam_Lid.stl_id_1_copy_0 CENTER=121.998,94.7525 POLYGON=[[107.248,85.979],[109.248,83.979],[134.748,83.979],[136.748,85.979],[136.748,87.979],[126.596,105.526],[117.605,105.526],[107.248,87.979],[107.248,85.979]]
EXCLUDE_OBJECT_DEFINE NAME=20mm_mount_arm_90.stl_id_2_copy_0 CENTER=100.249,114.947 POLYGON=[[95.25,99.8973],[95.301,99.1853],[95.453,98.4883],[95.702,97.8203],[96.044,97.1943],[96.471,96.6233],[96.976,96.1183],[97.547,95.6913],[98.172,95.3493],[98.84,95.1003],[99.537,94.9483],[100.249,94.8973],[100.961,94.9483],[101.658,95.1003],[102.326,95.3493],[102.951,95.6913],[103.522,96.1183],[104.027,96.6233],[104.454,97.1943],[104.796,97.8203],[105.045,98.4883],[105.197,99.1853],[105.248,99.8973],[105.248,124.997],[104.848,134.997],[95.855,134.997],[95.25,124.997],[95.25,99.8973]]
EXCLUDE_OBJECT_DEFINE NAME=20mm_mount_arm.stl_id_3_copy_0 CENTER=88.251,114.656 POLYGON=[[83.252,104.606],[86.851,94.6062],[89.651,94.6062],[93.25,104.606],[93.25,124.706],[92.85,134.706],[83.857,134.706],[83.252,124.706],[83.252,104.606]]
M73 P0 R69
;TYPE:Custom
START_PRINT NOZZLE_TEMP=210  BED_TEMP=60 

G90
G21
M83 ; use relative distances for extrusion
; filament start gcode
M106 S0
;LAYER_CHANGE
;Z:0.2
;HEIGHT:0.2
;BEFORE_LAYER_CHANGE
;0.2
G92 E0

G1 E-.4 F1800
;AFTER_LAYER_CHANGE
;0.2
;_SET_FAN_SPEED_CHANGING_LAYER
SET_VELOCITY_LIMIT ACCEL=500 ACCEL_TO_DECEL=250
; printing object Pi_Cam_Lid.stl id:1 copy 0
EXCLUDE_OBJECT_START NAME=Pi_Cam_Lid.stl_id_1_copy_0
G1 X119.799 Y94.677 F21000
G1 Z.4
G1 Z.2
G1 E.4 F1800
;TYPE:Inner wall
;WIDTH:0.499999
G1 F3000
G1 X119.769 Y94.699 E.00139
G1 X119.556 Y94.996 E.01361
;WIDTH:0.5351
G1 X119.499 Y95.166 E.00718
;WIDTH:0.570201
G1 X119.442 Y95.335 E.00769
;WIDTH:0.605302
G1 X119.384 Y95.505 E.0082
G1 X119.384 Y100.237 E.21686
G1 X118.822 Y100.237 E.02577
G1 X118.822 Y95.505 E.21686
G1 X118.764 Y95.335 E.0082
;WIDTH:0.570201
G1 X118.707 Y95.166 E.00769
;WIDTH:0.5351
G1 X118.65 Y94.996 E.00718
;WIDTH:0.499999
G1 X118.437 Y94.699 E.01361
G1 X118.164 Y94.586 E.01101
G1 X118.164 Y87.958 E.24687
G1 X118.118 Y87.638 E.01204
G1 X117.936 Y87.272 E.01523
G1 X117.559 Y86.949 E.01847
;WIDTH:0.535767
G1 X117.38 Y86.887 E.00763
;WIDTH:0.571535
G1 X117.201 Y86.824 E.00818
;WIDTH:0.607302
G1 X117.021 Y86.761 E.00873
G1 X111.742 Y86.761 E.2428
G1 X112.001 Y86.388 E.02091
G1 X112.033 Y86.197 E.0089
G1 X117.021 Y86.197 E.22941
G1 X117.268 Y86.179 E.01136
;WIDTH:0.571535
G1 X117.514 Y86.161 E.01064
;WIDTH:0.535767
G1 X117.761 Y86.143 E.00992
;WIDTH:0.499999
G1 X126.235 Y86.143 E.31564
;WIDTH:0.535767
G1 X126.482 Y86.161 E.00992
;WIDTH:0.571535
G1 X126.728 Y86.179 E.01064
;WIDTH:0.6073
G1 X126.975 Y86.197 E.01136
G1 X131.963 Y86.197 E.22941
G1 X131.995 Y86.388 E.0089
G1 X132.254 Y86.761 E.02091
;WIDTH:0.607302
G1 X126.975 Y86.761 E.2428
;WIDTH:0.618505
G1 X126.767 Y86.774 E.00976
G1 X126.657 Y86.832 E.00585
;WIDTH:0.579003
G1 X126.547 Y86.891 E.00544
;WIDTH:0.539501
G1 X126.437 Y86.949 E.00504
;WIDTH:0.499999
G1 X126.06 Y87.272 E.01847
G1 X125.878 Y87.638 E.01523
G1 X125.832 Y87.958 E.01204
G1 X125.832 Y94.723 E.25199
G1 X125.675 Y94.799 E.00648
G1 X125.511 Y95.087 E.01236
;WIDTH:0.534933
G1 X125.467 Y95.226 E.00585
;WIDTH:0.569867
G1 X125.423 Y95.365 E.00626
;WIDTH:0.604801
G1 X125.379 Y95.505 E.00668
G1 X125.379 Y100.237 E.21668
G1 X124.818 Y100.237 E.02573
G1 X124.818 Y95.505 E.21668
G1 X124.774 Y95.365 E.00668
;WIDTH:0.569867
G1 X124.73 Y95.226 E.00626
;WIDTH:0.534933
G1 X124.686 Y95.087 E.00585
;WIDTH:0.499999
G1 X124.522 Y94.799 E.01236
G1 X124.214 Y94.527 E.01529
G1 X123.898 Y94.396 E.01275
G1 X123.622 Y94.362 E.01035
G1 X120.58 Y94.362 E.11334
G1 X120.334 Y94.388 E.00919
G1 X120.054 Y94.49 E.0111
G1 X119.831 Y94.653 E.01029
G1 X120.108 Y95.01 F21000
G1 F3000
G1 X120.093 Y95.021 E.0007
G1 X119.966 Y95.199 E.00816
G1 X119.894 Y95.505 E.01167
G1 X119.894 Y100.746 E.19524
G1 X118.312 Y100.746 E.05892
G1 X118.312 Y95.505 E.19524
G1 X118.24 Y95.199 E.01167
G1 X118.113 Y95.021 E.00816
G1 X117.707 Y94.852 E.01637
G1 X117.707 Y87.958 E.25681
G1 X117.68 Y87.766 E.00722
G1 X117.57 Y87.546 E.00914
G1 X117.344 Y87.353 E.01108
G1 X117.021 Y87.272 E.01239
G1 X111.569 Y87.272 E.20309
;WIDTH:0.53219
G1 X111.219 Y87.256 E.01396
;WIDTH:0.564381
G1 X110.869 Y87.24 E.01488
G1 X107.987 Y87.24 E.12247
G1 X107.987 Y86.718 E.02216
G1 X110.869 Y86.718 E.12247
;WIDTH:0.571795
G1 X110.994 Y86.711 E.00538
G1 X111.149 Y86.621 E.00773
;WIDTH:0.535897
G1 X111.304 Y86.531 E.0072
;WIDTH:0.499999
G1 X111.518 Y86.222 E.01398
G1 X111.555 Y85.686 E.02002
G1 X132.441 Y85.686 E.77792
G1 X132.478 Y86.222 E.02002
G1 X132.692 Y86.531 E.01398
;WIDTH:0.53219
G1 X132.909 Y86.625 E.00944
;WIDTH:0.56438
G1 X133.127 Y86.718 E.01006
G1 X136.009 Y86.718 E.12247
G1 X136.009 Y86.979 E.01108
G1 X136.009 Y87.24 E.01108
G1 X133.127 Y87.24 E.12247
G1 X132.777 Y87.256 E.01488
;WIDTH:0.53219
G1 X132.427 Y87.272 E.01396
;WIDTH:0.499999
G1 X126.975 Y87.272 E.20309
G1 X126.652 Y87.353 E.01239
G1 X126.426 Y87.546 E.01108
G1 X126.316 Y87.766 E.00914
G1 X126.289 Y87.958 E.00722
G1 X126.289 Y94.958 E.26074
G1 X126.035 Y95.081 E.01051
G1 X125.936 Y95.254 E.00742
G1 X125.889 Y95.505 E.00949
G1 X125.889 Y100.746 E.19524
G1 X124.308 Y100.746 E.05888
G1 X124.308 Y95.505 E.19524
G1 X124.261 Y95.254 E.00949
G1 X124.162 Y95.081 E.00742
G1 X123.977 Y94.918 E.00918
G1 X123.622 Y94.819 E.01373
G1 X120.58 Y94.819 E.11334
G1 X120.264 Y94.896 E.01209
G1 X120.14 Y94.987 E.00572
G1 X120.417 Y95.343 F21000
;TYPE:Outer wall
G1 F3000
G1 X120.351 Y95.505 E.00649
G1 X120.351 Y101.204 E.21227
G1 X117.855 Y101.204 E.09297
G1 X117.855 Y95.505 E.21227
G1 X117.789 Y95.343 E.00649
G1 X117.626 Y95.276 E.00654
G1 X117.25 Y95.276 E.01402
G1 X117.25 Y87.958 E.27258
G1 X117.204 Y87.82 E.00538
G1 X117.021 Y87.729 E.00761
G1 X107.498 Y87.729 E.35471
G1 X107.498 Y86.229 E.05587
G1 X110.869 Y86.229 E.12557
G1 X111.014 Y86.177 E.00573
G1 X111.098 Y86 E.00728
G1 X111.098 Y85.229 E.02873
G1 X132.898 Y85.229 E.81197
G1 X132.898 Y86 E.02873
G1 X132.982 Y86.177 E.00728
G1 X133.127 Y86.229 E.00573
G1 X136.498 Y86.229 E.12557
G1 X136.498 Y86.979 E.02793
G1 X136.498 Y87.729 E.02793
G1 X126.975 Y87.729 E.35471
G1 X126.935 Y87.732 E.00148
G1 X126.792 Y87.82 E.00626
G1 X126.746 Y87.958 E.00538
G1 X126.746 Y95.276 E.27258
G1 X126.575 Y95.276 E.00639
G1 X126.395 Y95.363 E.00745
G1 X126.346 Y95.505 E.00556
G1 X126.346 Y101.204 E.21227
G1 X123.851 Y101.204 E.09293
G1 X123.851 Y95.505 E.21227
G1 X123.835 Y95.421 E.00316
G1 X123.741 Y95.309 E.00546
G1 X123.622 Y95.276 E.00458
G1 X120.58 Y95.276 E.11334
G1 X120.454 Y95.328 E.00505
G1 E-.28 F1800
;WIPE_START
G1 F3000
G1 X120.351 Y95.505 E-.02454
G1 X120.351 Y96.3 E-.09546
;WIPE_END
G1 X124.449 Y89.861 Z.6 F21000
G1 X126.382 Y86.822 Z.6
G1 Z.2
G1 E.4 F1800
;TYPE:Bottom surface
;WIDTH:0.512338
G1 F6300
G1 X126.046 Y86.486 E.0182
G1 X125.382 Y86.486 E.02539
G1 X125.879 Y86.983 E.02689
G1 X125.786 Y87.063 E.00471
G1 X125.622 Y87.39 E.01398
G1 X124.718 Y86.486 E.0489
G1 X124.054 Y86.486 E.02539
G1 X125.493 Y87.924 E.0778
G1 X125.489 Y88.584 E.02526
G1 X123.391 Y86.486 E.11352
G1 X122.727 Y86.486 E.02539
G1 X125.489 Y89.248 E.14943
G1 X125.489 Y89.912 E.02539
G1 X122.063 Y86.486 E.18534
G1 X121.399 Y86.486 E.02539
G1 X125.489 Y90.576 E.22126
G1 X125.489 Y91.24 E.02539
G1 X120.735 Y86.486 E.25717
G1 X120.071 Y86.486 E.02539
G1 X125.489 Y91.904 E.29308
G1 X125.489 Y92.568 E.02539
G1 X119.407 Y86.486 E.32899
G1 X118.744 Y86.486 E.02539
G1 X125.489 Y93.231 E.3649
G1 X125.489 Y93.895 E.02539
G1 X118.08 Y86.486 E.40082
G1 X117.769 Y86.486 E.01188
G1 X117.512 Y86.523 E.00992
G1 X117.508 Y86.558 E.00133
G1 X117.727 Y86.649 E.00909
G1 X118.21 Y87.063 E.02433
G1 X118.428 Y87.498 E.0186
G1 X125.472 Y94.542 E.38108
G1 X125.414 Y94.571 E.00248
G1 X125.204 Y94.938 E.01618
G1 X118.507 Y88.241 E.36228
G1 X118.507 Y88.905 E.02539
G1 X123.621 Y94.019 E.27666
G1 X122.957 Y94.019 E.02539
G1 X118.507 Y89.569 E.24075
G1 X118.507 Y90.233 E.02539
G1 X122.293 Y94.019 E.20483
G1 X121.63 Y94.019 E.02539
G1 X118.507 Y90.896 E.16892
G1 X118.507 Y91.56 E.02539
G1 X120.966 Y94.019 E.13301
G1 X120.573 Y94.019 E.01501
G1 X120.328 Y94.046 E.00942
G1 X118.507 Y92.224 E.09854
G1 X118.507 Y92.888 E.02539
G1 X119.842 Y94.223 E.07224
G1 X119.525 Y94.457 E.01508
G1 X119.478 Y94.522 E.00309
G1 X118.507 Y93.552 E.0525
G1 X118.507 Y94.216 E.02539
G1 X119.374 Y95.082 E.04688
; stop printing object Pi_Cam_Lid.stl id:1 copy 0
; printing object Pi_Cam_Case.stl id:0 copy 0
G1 E-.28 F1800
;WIPE_START
G1 F6300
G1 X118.667 Y94.375 E-.12
;WIPE_END
EXCLUDE_OBJECT_END NAME=Pi_Cam_Lid.stl_id_1_copy_0
EXCLUDE_OBJECT_START NAME=Pi_Cam_Case.stl_id_0_copy_0
G1 X121.61 Y101.418 Z.6 F21000
G1 X135.584 Y134.857 Z.6
G1 Z.2
G1 E.4 F1800
;TYPE:Inner wall
;WIDTH:0.499999
G1 F3000
G1 X108.412 Y134.857 E1.01204
G1 X108.412 Y108.69 E.97461
G1 X135.584 Y108.69 E1.01204
G1 X135.584 Y113.995 E.1976
G1 X135.584 Y134.817 E.77552
G1 X136.041 Y135.314 F21000
G1 F3000
G1 X107.955 Y135.314 E1.04609
G1 X107.955 Y108.233 E1.00866
G1 X136.041 Y108.233 E1.04609
G1 X136.041 Y113.995 E.21462
G1 X136.041 Y135.274 E.79255
G1 X136.498 Y135.771 F21000
;TYPE:Outer wall
G1 F3000
G1 X107.498 Y135.771 E1.08014
G1 X107.498 Y107.776 E1.04271
G1 X136.498 Y107.776 E1.08014
G1 X136.498 Y113.995 E.23164
G1 X136.498 Y135.731 E.80957
G1 E-.28 F1800
;WIPE_START
G1 F3000
G1 X135.498 Y135.732 E-.12
;WIPE_END
G1 X129.108 Y131.559 Z.6 F21000
G1 X126.848 Y130.083 Z.6
G1 Z.2
G1 E.4 F1800
;TYPE:Inner wall
G1 F3000
G1 X126.769 Y130.09 E.00295
G1 X117.227 Y130.09 E.35544
G1 X116.971 Y130.061 E.00959
G1 X116.734 Y129.978 E.00935
G1 X116.367 Y129.7 E.01715
G1 X116.164 Y129.367 E.01454
G1 X116.084 Y128.947 E.0159
G1 X116.084 Y119.405 E.35544
G1 X116.138 Y119.058 E.01306
G1 X116.285 Y118.757 E.01247
G1 X116.491 Y118.53 E.01144
G1 X116.743 Y118.369 E.01113
G1 X117.058 Y118.274 E.01226
G1 X117.227 Y118.262 E.00628
G1 X126.769 Y118.262 E.35544
G1 X127.1 Y118.311 E.01246
G1 X127.391 Y118.446 E.01195
G1 X127.613 Y118.634 E.01082
G1 X127.795 Y118.9 E.012
G1 X127.898 Y119.228 E.01283
G1 X127.912 Y119.405 E.00659
G1 X127.912 Y128.947 E.35544
G1 X127.832 Y129.367 E.0159
G1 X127.629 Y129.7 E.01454
G1 X127.262 Y129.978 E.01715
G1 X126.967 Y130.073 E.01156
G1 X126.888 Y130.08 E.00294
G1 X126.868 Y129.611 F21000
G1 F3000
G1 X126.769 Y129.633 E.00377
G1 X117.227 Y129.633 E.35544
G1 X116.931 Y129.566 E.0113
G1 X116.711 Y129.399 E.01029
G1 X116.589 Y129.199 E.00872
G1 X116.541 Y128.947 E.00954
G1 X116.541 Y119.405 E.35544
G1 X116.611 Y119.102 E.01158
G1 X116.785 Y118.88 E.0105
G1 X117.028 Y118.748 E.01028
G1 X117.227 Y118.719 E.00748
G1 X126.769 Y118.719 E.35544
G1 X127.06 Y118.783 E.01107
G1 X127.276 Y118.942 E.00999
G1 X127.423 Y119.197 E.01095
G1 X127.455 Y119.405 E.00783
G1 X127.455 Y128.947 E.35544
G1 X127.407 Y129.199 E.00954
G1 X127.285 Y129.399 E.00872
G1 X127.065 Y129.566 E.01029
G1 X126.907 Y129.602 E.00604
G1 X126.769 Y129.176 F21000
;TYPE:Outer wall
G1 F3000
G1 X117.227 Y129.176 E.35544
G1 X117.087 Y129.129 E.00548
G1 X117.001 Y128.987 E.00617
G1 X116.998 Y128.947 E.00148
G1 X116.998 Y119.405 E.35544
G1 X117.058 Y119.25 E.00616
G1 X117.227 Y119.176 E.00687
G1 X126.769 Y119.176 E.35544
G1 X126.917 Y119.23 E.00583
G1 X126.995 Y119.369 E.00597
G1 X126.998 Y119.405 E.00132
G1 X126.998 Y128.947 E.35544
G1 X126.941 Y129.098 E.00599
G1 X126.809 Y129.172 E.00565
G1 E-.28 F1800
;WIPE_START
G1 F3000
G1 X125.809 Y129.173 E-.12
;WIPE_END
G1 X128.811 Y122.155 Z.6 F21000
G1 X134.513 Y108.827 Z.6
G1 Z.2
G1 E.4 F1800
;TYPE:Bottom surface
;WIDTH:0.504558
G1 F6300
G1 X135.241 Y109.555 E.03873
G1 X135.241 Y110.208 E.02456
G1 X134.066 Y109.033 E.06252
G1 X133.413 Y109.033 E.02456
G1 X135.241 Y110.861 E.09725
G1 X135.241 Y111.514 E.02456
G1 X132.76 Y109.033 E.13198
G1 X132.107 Y109.033 E.02456
G1 X135.241 Y112.167 E.16671
G1 X135.241 Y112.82 E.02456
G1 X131.454 Y109.033 E.20144
G1 X130.802 Y109.033 E.02456
G1 X135.241 Y113.472 E.23617
G1 X135.241 Y114.125 E.02456
G1 X130.149 Y109.033 E.2709
G1 X129.496 Y109.033 E.02456
G1 X135.241 Y114.778 E.30564
G1 X135.241 Y115.431 E.02456
G1 X128.843 Y109.033 E.34037
G1 X128.19 Y109.033 E.02456
G1 X135.241 Y116.084 E.3751
G1 X135.241 Y116.737 E.02456
G1 X127.537 Y109.033 E.40983
G1 X126.884 Y109.033 E.02456
G1 X135.241 Y117.389 E.44456
G1 X135.241 Y118.042 E.02456
G1 X126.232 Y109.033 E.47929
G1 X125.579 Y109.033 E.02456
G1 X135.241 Y118.695 E.51403
G1 X135.241 Y119.348 E.02456
G1 X124.926 Y109.033 E.54876
G1 X124.273 Y109.033 E.02456
G1 X135.241 Y120.001 E.58349
G1 X135.241 Y120.654 E.02456
G1 X123.62 Y109.033 E.61822
G1 X122.967 Y109.033 E.02456
G1 X135.241 Y121.307 E.65295
G1 X135.241 Y121.959 E.02456
G1 X122.315 Y109.033 E.68768
G1 X121.662 Y109.033 E.02456
G1 X135.241 Y122.612 E.72241
G1 X135.241 Y123.265 E.02456
G1 X121.009 Y109.033 E.75715
G1 X120.356 Y109.033 E.02456
G1 X135.241 Y123.918 E.79188
G1 X135.241 Y124.571 E.02456
G1 X119.703 Y109.033 E.82661
G1 X119.05 Y109.033 E.02456
G1 X135.241 Y125.224 E.86134
G1 X135.241 Y125.877 E.02456
G1 X118.397 Y109.033 E.89607
G1 X117.745 Y109.033 E.02456
G1 X126.631 Y117.919 E.47273
G1 X125.978 Y117.919 E.02456
G1 X117.092 Y109.033 E.47273
G1 X116.439 Y109.033 E.02456
G1 X125.325 Y117.919 E.47273
G1 X124.672 Y117.919 E.02456
G1 X115.786 Y109.033 E.47273
G1 X115.133 Y109.033 E.02456
G1 X124.019 Y117.919 E.47273
G1 X123.366 Y117.919 E.02456
G1 X114.48 Y109.033 E.47273
G1 X113.827 Y109.033 E.02456
G1 X122.713 Y117.919 E.47273
G1 X122.061 Y117.919 E.02456
G1 X113.175 Y109.033 E.47273
G1 X112.522 Y109.033 E.02456
G1 X121.408 Y117.919 E.47273
G1 X120.755 Y117.919 E.02456
G1 X111.869 Y109.033 E.47273
G1 X111.216 Y109.033 E.02456
G1 X120.102 Y117.919 E.47273
G1 X119.449 Y117.919 E.02456
G1 X110.563 Y109.033 E.47273
G1 X109.91 Y109.033 E.02456
G1 X118.796 Y117.919 E.47273
G1 X118.143 Y117.919 E.02456
G1 X109.257 Y109.033 E.47273
G1 X108.755 Y109.033 E.0189
G1 X108.755 Y109.183 E.00566
G1 X117.491 Y117.919 E.46473
G1 X117.222 Y117.919 E.01009
G1 X116.882 Y117.963 E.01291
G1 X108.755 Y109.836 E.43235
M73 P1 R69
G1 X108.755 Y110.489 E.02456
G1 X116.43 Y118.164 E.40832
G1 X116.273 Y118.265 E.00702
G1 X116.079 Y118.466 E.01051
G1 X108.755 Y111.142 E.38964
G1 X108.755 Y111.795 E.02456
G1 X115.84 Y118.88 E.37694
G1 X115.758 Y119.175 E.01152
G1 X115.741 Y119.434 E.00974
G1 X108.755 Y112.448 E.37165
G1 X108.755 Y113.1 E.02456
G1 X115.741 Y120.087 E.37165
G1 X115.741 Y120.739 E.02456
G1 X108.755 Y113.753 E.37165
G1 X108.755 Y114.406 E.02456
G1 X115.741 Y121.392 E.37165
G1 X115.741 Y122.045 E.02456
G1 X108.755 Y115.059 E.37165
G1 X108.755 Y115.712 E.02456
G1 X115.741 Y122.698 E.37165
G1 X115.741 Y123.351 E.02456
