; HEADER_BLOCK_START
; generated by OrcaSlicer 1.9.0 on 2024-01-24 at 12:26:58
; total layer number: 107
; filament_density: 1.24
; filament_diameter: 1.75
; max_z_height: 21.45
; HEADER_BLOCK_END

; THUMBNAIL_BLOCK_START

;
; THUMBNAIL_BLOCK_END

; external perimeters extrusion width = 0.40mm
; perimeters extrusion width = 0.45mm
; infill extrusion width = 0.45mm
; solid infill extrusion width = 0.40mm
; top infill extrusion width = 0.40mm
; first layer extrusion width = 0.48mm

; EXECUTABLE_BLOCK_START
EXCLUDE_OBJECT_DEFINE NAME=retraction_tower.stl_id_0_copy_0 CENTER=110,110 POLYGON=[[90,105.5],[90.1022,104.724],[90.4019,104],[90.8787,103.379],[91.5,102.902],[92.2235,102.602],[93,102.5],[127,102.5],[127.776,102.602],[128.5,102.902],[129.121,103.379],[129.598,104],[129.898,104.724],[130,105.5],[130,114.5],[129.898,115.276],[129.598,116],[129.121,116.621],[128.5,117.098],[127.776,117.398],[127,117.5],[93,117.5],[92.2235,117.398],[91.5,117.098],[90.8787,116.621],[90.4019,116],[90.1022,115.276],[90,114.5],[90,105.5]]
M73 P0 R16
;TYPE:Custom
START_PRINT NOZZLE_TEMP=210  BED_TEMP=60 

G90
G21
M83 ; use relative distances for extrusion
; filament start gcode
M106 S0
;LAYER_CHANGE
;Z:0.25
;HEIGHT:0.25
;BEFORE_LAYER_CHANGE
;0.25
G92 E0

G1 E-.4 F1800
;AFTER_LAYER_CHANGE
;0.25
;_SET_FAN_SPEED_CHANGING_LAYER
; Calib_Retraction_tower: Z_HEIGHT: 0.25, length:0
SET_VELOCITY_LIMIT ACCEL=500 ACCEL_TO_DECEL=250
SET_VELOCITY_LIMIT SQUARE_CORNER_VELOCITY=8
; printing object retraction_tower.stl id:0 copy 0
EXCLUDE_OBJECT_START NAME=retraction_tower.stl_id_0_copy_0
G1 Z.4 F21000
G1 X129.249 Y104.897
G1 Z.4
G1 Z.25
G1 E.4 F1800
;TYPE:Inner wall
;WIDTH:0.479999
G1 X129.334 Y105.71 E.0355
G1 X129.334 Y114.456 E.37981
G1 X129.249 Y115.103 E.0283
G1 X129.016 Y115.664 E.02639
G1 X128.646 Y116.146 E.02639
G1 X128.164 Y116.516 E.02639
G1 X127.603 Y116.749 E.02639
G1 X126.956 Y116.834 E.0283
G1 X93.044 Y116.834 E1.47274
G1 X92.397 Y116.749 E.0283
G1 X91.836 Y116.516 E.02639
G1 X91.354 Y116.146 E.02639
G1 X90.984 Y115.664 E.02639
G1 X90.751 Y115.103 E.02639
G1 X90.666 Y114.456 E.0283
G1 X90.666 Y105.544 E.38705
G1 X90.751 Y104.897 E.0283
G1 X90.984 Y104.336 E.02639
G1 X91.354 Y103.854 E.02639
G1 X91.836 Y103.484 E.02639
G1 X92.397 Y103.251 E.02639
G1 X93.044 Y103.166 E.0283
G1 X126.956 Y103.166 E1.47274
G1 X127.603 Y103.251 E.0283
G1 X128.164 Y103.484 E.02639
G1 X128.646 Y103.854 E.02639
G1 X129.016 Y104.336 E.02639
G1 X129.233 Y104.861 E.02465
G1 X129.274 Y104.696 F21000
;TYPE:Outer wall
G1 F1800
G1 X129.664 Y104.786
G1 X129.76 Y105.71 E.04035
G1 X129.76 Y114.484 E.38103
G1 X129.664 Y115.214 E.03196
G1 X129.388 Y115.879 E.03127
G1 X128.95 Y116.45 E.03127
G1 X128.379 Y116.888 E.03127
G1 X127.714 Y117.164 E.03127
G1 X126.984 Y117.26 E.03196
G1 X93.016 Y117.26 E1.47517
G1 X92.286 Y117.164 E.03196
G1 X91.621 Y116.888 E.03127
G1 X91.05 Y116.45 E.03127
G1 X90.612 Y115.879 E.03127
G1 X90.336 Y115.214 E.03127
G1 X90.24 Y114.484 E.03196
G1 X90.24 Y105.516 E.38948
G1 X90.336 Y104.786 E.03196
G1 X90.612 Y104.121 E.03127
G1 X91.05 Y103.55 E.03127
G1 X91.621 Y103.112 E.03127
G1 X92.286 Y102.836 E.03127
G1 X93.016 Y102.74 E.03196
G1 X126.984 Y102.74 E1.47517
G1 X127.714 Y102.836 E.03196
G1 X128.379 Y103.112 E.03127
G1 X128.95 Y103.55 E.03127
G1 X129.388 Y104.121 E.03127
G1 X129.649 Y104.749 E.02953
G1 X129.606 Y104.842
G1 X127.813 Y103.477 F21000
;TYPE:Bottom surface
;WIDTH:0.483852
G1 F6300
G1 X128.419 Y104.083 E.03754
G1 X128.737 Y104.497 E.02289
G1 X128.937 Y104.981 E.02294
G1 X128.972 Y105.244 E.01164
G1 X127.256 Y103.528 E.10634
G1 X126.935 Y103.486 E.01416
G1 X126.605 Y103.486 E.01447
G1 X129.014 Y105.895 E.14927
G1 X129.014 Y106.503 E.02666
G1 X125.997 Y103.486 E.18697
G1 X125.388 Y103.486 E.02666
G1 X129.014 Y107.112 E.22468
G1 X129.014 Y107.72 E.02666
G1 X124.78 Y103.486 E.26238
G1 X124.172 Y103.486 E.02666
G1 X129.014 Y108.328 E.30008
G1 X129.014 Y108.937 E.02666
G1 X123.563 Y103.486 E.33779
G1 X122.955 Y103.486 E.02666
G1 X129.014 Y109.545 E.37549
M73 P1 R16
G1 X129.014 Y110.154 E.02666
G1 X122.346 Y103.486 E.41319
G1 X121.738 Y103.486 E.02666
G1 X129.014 Y110.762 E.45089
G1 X129.014 Y111.37 E.02666
G1 X121.13 Y103.486 E.4886
G1 X120.521 Y103.486 E.02666
G1 X129.014 Y111.979 E.5263
G1 X129.014 Y112.587 E.02666
G1 X119.913 Y103.486 E.564
G1 X119.304 Y103.486 E.02666
G1 X129.014 Y113.196 E.60171
G1 X129.014 Y113.804 E.02666
G1 X118.696 Y103.486 E.63941
G1 X118.088 Y103.486 E.02666
G1 X129.014 Y114.412 E.67711
G1 X128.946 Y114.953 E.02386
G1 X117.479 Y103.486 E.71059
G1 X116.871 Y103.486 E.02666
G1 X128.781 Y115.396 E.73808
G1 X128.737 Y115.503 E.00505
G1 X128.538 Y115.762 E.01431
G1 X116.262 Y103.486 E.76073
G1 X115.654 Y103.486 E.02666
G1 X128.23 Y116.062 E.77935
G1 X128.003 Y116.237 E.01256
G1 X127.857 Y116.297 E.00693
G1 X115.046 Y103.486 E.79391
G1 X114.437 Y103.486 E.02666
G1 X127.403 Y116.452 E.80352
G1 X126.857 Y116.514 E.02411
G1 X113.829 Y103.486 E.80734
G1 X113.22 Y103.486 E.02666
G1 X126.248 Y116.514 E.80734
G1 X125.64 Y116.514 E.02666
G1 X112.612 Y103.486 E.80734
G1 X112.004 Y103.486 E.02666
G1 X125.031 Y116.514 E.80734
G1 X124.423 Y116.514 E.02666
G1 X111.395 Y103.486 E.80734
G1 X110.787 Y103.486 E.02666
G1 X123.815 Y116.514 E.80734
G1 X123.206 Y116.514 E.02666
G1 X110.178 Y103.486 E.80734
G1 X109.57 Y103.486 E.02666
G1 X122.598 Y116.514 E.80734
G1 X121.989 Y116.514 E.02666
G1 X108.962 Y103.486 E.80734
G1 X108.353 Y103.486 E.02666
G1 X121.381 Y116.514 E.80734
G1 X120.773 Y116.514 E.02666
G1 X107.745 Y103.486 E.80734
G1 X107.136 Y103.486 E.02666
G1 X120.164 Y116.514 E.80734
G1 X119.556 Y116.514 E.02666
G1 X106.528 Y103.486 E.80734
M73 P2 R16
G1 X105.92 Y103.486 E.02666
G1 X118.947 Y116.514 E.80734
G1 X118.339 Y116.514 E.02666
G1 X105.311 Y103.486 E.80734
G1 X104.703 Y103.486 E.02666
G1 X117.731 Y116.514 E.80734
G1 X117.122 Y116.514 E.02666
G1 X104.094 Y103.486 E.80734
G1 X103.486 Y103.486 E.02666
G1 X116.514 Y116.514 E.80734
G1 X115.905 Y116.514 E.02666
G1 X102.878 Y103.486 E.80734
G1 X102.269 Y103.486 E.02666
G1 X115.297 Y116.514 E.80734
G1 X114.689 Y116.514 E.02666
G1 X101.661 Y103.486 E.80734
G1 X101.052 Y103.486 E.02666
G1 X114.08 Y116.514 E.80734
G1 X113.472 Y116.514 E.02666
G1 X100.444 Y103.486 E.80734
G1 X99.836 Y103.486 E.02666
G1 X112.863 Y116.514 E.80734
G1 X112.255 Y116.514 E.02666
G1 X99.227 Y103.486 E.80734
M73 P2 R15
G1 X98.619 Y103.486 E.02666
G1 X111.647 Y116.514 E.80734
G1 X111.038 Y116.514 E.02666
G1 X98.01 Y103.486 E.80734
G1 X97.402 Y103.486 E.02666
G1 X110.43 Y116.514 E.80734
G1 X109.821 Y116.514 E.02666
G1 X96.794 Y103.486 E.80734
G1 X96.185 Y103.486 E.02666
G1 X109.213 Y116.514 E.80734
G1 X108.605 Y116.514 E.02666
G1 X95.577 Y103.486 E.80734
G1 X94.968 Y103.486 E.02666
G1 X107.996 Y116.514 E.80734
G1 X107.388 Y116.514 E.02666
G1 X94.36 Y103.486 E.80734
G1 X93.752 Y103.486 E.02666
G1 X106.779 Y116.514 E.80734
G1 X106.171 Y116.514 E.02666
G1 X93.143 Y103.486 E.80734
G1 X93.065 Y103.486 E.00345
G1 X92.597 Y103.548 E.02069
G1 X105.563 Y116.514 E.80352
G1 X104.954 Y116.514 E.02666
G1 X92.143 Y103.703 E.79391
G1 X91.997 Y103.763 E.00692
G1 X91.77 Y103.938 E.01256
G1 X104.346 Y116.514 E.77935
M73 P3 R15
G1 X103.737 Y116.514 E.02666
G1 X91.462 Y104.238 E.76072
G1 X91.263 Y104.497 E.0143
G1 X91.219 Y104.604 E.00506
G1 X103.129 Y116.514 E.73807
G1 X102.521 Y116.514 E.02666
G1 X91.054 Y105.047 E.71059
G1 X90.986 Y105.588 E.02386
G1 X101.912 Y116.514 E.67711
G1 X101.304 Y116.514 E.02666
G1 X90.986 Y106.196 E.6394
G1 X90.986 Y106.804 E.02666
G1 X100.696 Y116.514 E.6017
G1 X100.087 Y116.514 E.02666
G1 X90.986 Y107.413 E.564
G1 X90.986 Y108.021 E.02666
G1 X99.479 Y116.514 E.52629
G1 X98.87 Y116.514 E.02666
G1 X90.986 Y108.63 E.48859
G1 X90.986 Y109.238 E.02666
G1 X98.262 Y116.514 E.45089
G1 X97.654 Y116.514 E.02666
G1 X90.986 Y109.846 E.41319
G1 X90.986 Y110.455 E.02666
G1 X97.045 Y116.514 E.37548
G1 X96.437 Y116.514 E.02666
G1 X90.986 Y111.063 E.33778
G1 X90.986 Y111.672 E.02666
G1 X95.828 Y116.514 E.30008
G1 X95.22 Y116.514 E.02666
G1 X90.986 Y112.28 E.26237
G1 X90.986 Y112.888 E.02666
G1 X94.612 Y116.514 E.22467
G1 X94.003 Y116.514 E.02666
G1 X90.986 Y113.497 E.18697
G1 X90.986 Y114.105 E.02666
G1 X93.395 Y116.514 E.14926
G1 X93.065 Y116.514 E.01446
G1 X92.744 Y116.472 E.01417
G1 X91.028 Y114.756 E.10633
G1 X91.063 Y115.019 E.01163
G1 X91.263 Y115.503 E.02294
G1 X91.582 Y115.918 E.02292
G1 X92.187 Y116.523 E.03751
; stop printing object retraction_tower.stl id:0 copy 0
M106 S255
;LAYER_CHANGE
;Z:0.45
;HEIGHT:0.2
;BEFORE_LAYER_CHANGE
;0.45
G92 E0

;WIPE_START
G1 F6300
G1 X91.582 Y115.918
G1 X91.494 Y115.803
;WIPE_END
EXCLUDE_OBJECT_END NAME=retraction_tower.stl_id_0_copy_0
;AFTER_LAYER_CHANGE
;0.45
;_SET_FAN_SPEED_CHANGING_LAYER
; Calib_Retraction_tower: Z_HEIGHT: 0.45, length:0
SET_VELOCITY_LIMIT SQUARE_CORNER_VELOCITY=1
M140 S60 ; set bed temperature
; printing object retraction_tower.stl id:0 copy 0
SET_VELOCITY_LIMIT SQUARE_CORNER_VELOCITY=8
EXCLUDE_OBJECT_START NAME=retraction_tower.stl_id_0_copy_0
G1 X129.331 Y104.875 Z.45 F21000
SET_VELOCITY_LIMIT SQUARE_CORNER_VELOCITY=1
;TYPE:Inner wall
;WIDTH:0.449999
G1 F7200
G1 X129.418 Y105.71 E.02785
G1 X129.418 Y114.462 E.2903
G1 X129.331 Y115.125 E.02217
G1 X129.09 Y115.706 E.02089
G1 X128.706 Y116.206 E.02089
G1 X128.206 Y116.59 E.02089
G1 X127.625 Y116.831 E.0209
G1 X126.962 Y116.918 E.02217
G1 X93.038 Y116.918 E1.12531
G1 X92.376 Y116.831 E.02217
G1 X91.794 Y116.59 E.0209
G1 X91.294 Y116.206 E.02089
G1 X90.91 Y115.706 E.02089
G1 X90.669 Y115.125 E.0209
G1 X90.582 Y114.462 E.02217
G1 X90.582 Y105.538 E.29601
G1 X90.669 Y104.876 E.02217
G1 X90.91 Y104.294 E.0209
G1 X91.294 Y103.794 E.02089
G1 X91.794 Y103.41 E.02089
G1 X92.376 Y103.169 E.0209
G1 X93.038 Y103.082 E.02217
G1 X126.962 Y103.082 E1.12531
G1 X127.625 Y103.169 E.02217
G1 X128.206 Y103.41 E.0209
G1 X128.706 Y103.794 E.02089
G1 X129.09 Y104.294 E.02089
G1 X129.315 Y104.839 E.01957
SET_VELOCITY_LIMIT SQUARE_CORNER_VELOCITY=8
G1 X129.313 Y104.686 F21000
SET_VELOCITY_LIMIT SQUARE_CORNER_VELOCITY=1
;TYPE:Outer wall
;WIDTH:0.399999
G1 F7200
G1 X129.703 Y104.776
G1 X129.8 Y105.71 E.02734
G1 X129.8 Y114.487 E.25537
G1 X129.703 Y115.224 E.02164
G1 X129.423 Y115.899 E.02126
G1 X128.979 Y116.479 E.02126
G1 X128.399 Y116.923 E.02126
G1 X127.724 Y117.203 E.02126
G1 X126.987 Y117.3 E.02164
M73 P4 R15
G1 X93.013 Y117.3 E.98855
G1 X92.276 Y117.203 E.02164
G1 X91.601 Y116.923 E.02126
G1 X91.021 Y116.479 E.02126
G1 X90.577 Y115.899 E.02126
G1 X90.297 Y115.224 E.02126
G1 X90.2 Y114.487 E.02164
G1 X90.2 Y105.513 E.26111
G1 X90.297 Y104.776 E.02164
G1 X90.577 Y104.101 E.02126
G1 X91.021 Y103.521 E.02126
G1 X91.601 Y103.077 E.02126
G1 X92.276 Y102.797 E.02126
G1 X93.013 Y102.7 E.02164
G1 X126.987 Y102.7 E.98855
G1 X127.724 Y102.797 E.02164
G1 X128.399 Y103.077 E.02126
G1 X128.979 Y103.521 E.02126
G1 X129.423 Y104.101 E.02126
G1 X129.688 Y104.739 E.02009
G1 X129.645 Y104.831
SET_VELOCITY_LIMIT SQUARE_CORNER_VELOCITY=8
G1 X127.25 Y116.759 F21000
;TYPE:Internal solid infill
;WIDTH:0.400329
G1 F10072.494
G1 X129.073 Y114.936 E.07509
G1 X129.138 Y114.366 E.01672
G1 X126.866 Y116.638 E.09357
G1 X126.36 Y116.638 E.01472
G1 X129.138 Y113.86 E.11439
G1 X129.138 Y113.355 E.01472
G1 X125.855 Y116.638 E.13521
G1 X125.35 Y116.638 E.01472
G1 X129.138 Y112.85 E.15602
G1 X129.138 Y112.344 E.01472
G1 X124.844 Y116.638 E.17684
G1 X124.339 Y116.638 E.01472
G1 X129.138 Y111.839 E.19766
G1 X129.138 Y111.333 E.01472
G1 X123.833 Y116.638 E.21848
G1 X123.328 Y116.638 E.01472
G1 X129.138 Y110.828 E.2393
G1 X129.138 Y110.322 E.01472
G1 X122.822 Y116.638 E.26012
G1 X122.317 Y116.638 E.01472
G1 X129.138 Y109.817 E.28094
G1 X129.138 Y109.311 E.01472
G1 X121.811 Y116.638 E.30175
G1 X121.306 Y116.638 E.01472
G1 X129.138 Y108.806 E.32257
G1 X129.138 Y108.3 E.01472
G1 X120.8 Y116.638 E.34339
G1 X120.295 Y116.638 E.01472
G1 X129.138 Y107.795 E.36421
G1 X129.138 Y107.29 E.01472
G1 X119.79 Y116.638 E.38503
G1 X119.284 Y116.638 E.01472
G1 X129.138 Y106.784 E.40585
G1 X129.138 Y106.279 E.01472
G1 X118.779 Y116.638 E.42667
G1 X118.273 Y116.638 E.01472
G1 X129.138 Y105.773 E.44748
G1 X129.138 Y105.557 E.00631
G1 X129.104 Y105.301 E.0075
G1 X117.768 Y116.638 E.46692
G1 X117.262 Y116.638 E.01472
G1 X129.026 Y104.873 E.48454
G1 X128.878 Y104.516 E.01127
G1 X116.757 Y116.638 E.49926
G1 X116.251 Y116.638 E.01472
G1 X128.675 Y104.214 E.51171
G1 X128.506 Y103.994 E.00808
G1 X128.44 Y103.943 E.00242
G1 X115.746 Y116.638 E.52286
G1 X115.24 Y116.638 E.01472
G1 X128.154 Y103.724 E.5319
G1 X128.065 Y103.655 E.00328
G1 X127.819 Y103.553 E.00775
G1 X114.735 Y116.638 E.53891
M73 P5 R15
G1 X114.23 Y116.638 E.01472
G1 X127.439 Y103.428 E.54409
G1 X126.993 Y103.369 E.01312
G1 X113.724 Y116.638 E.54651
G1 X113.219 Y116.638 E.01472
G1 X126.494 Y103.362 E.54678
G1 X125.988 Y103.362 E.01472
G1 X112.713 Y116.638 E.54678
G1 X112.208 Y116.638 E.01472
G1 X125.483 Y103.362 E.54678
G1 X124.978 Y103.362 E.01472
G1 X111.702 Y116.638 E.54678
G1 X111.197 Y116.638 E.01472
G1 X124.472 Y103.362 E.54678
G1 X123.967 Y103.362 E.01472
G1 X110.691 Y116.638 E.54678
G1 X110.186 Y116.638 E.01472
G1 X123.461 Y103.362 E.54678
G1 X122.956 Y103.362 E.01472
G1 X109.68 Y116.638 E.54678
G1 X109.175 Y116.638 E.01472
G1 X122.45 Y103.362 E.54678
G1 X121.945 Y103.362 E.01472
G1 X108.67 Y116.638 E.54678
G1 X108.164 Y116.638 E.01472
G1 X121.439 Y103.362 E.54678
G1 X120.934 Y103.362 E.01472
G1 X107.659 Y116.638 E.54678
G1 X107.153 Y116.638 E.01472
G1 X120.428 Y103.362 E.54678
G1 X119.923 Y103.362 E.01472
G1 X106.648 Y116.638 E.54678
G1 X106.142 Y116.638 E.01472
G1 X119.418 Y103.362 E.54678
G1 X118.912 Y103.362 E.01472
G1 X105.637 Y116.638 E.54678
G1 X105.131 Y116.638 E.01472
G1 X118.407 Y103.362 E.54678
G1 X117.901 Y103.362 E.01472
G1 X104.626 Y116.638 E.54678
G1 X104.121 Y116.638 E.01472
G1 X117.396 Y103.362 E.54678
G1 X116.89 Y103.362 E.01472
G1 X103.615 Y116.638 E.54678
G1 X103.11 Y116.638 E.01472
G1 X116.385 Y103.362 E.54678
G1 X115.879 Y103.362 E.01472
G1 X102.604 Y116.638 E.54678
G1 X102.099 Y116.638 E.01472
G1 X115.374 Y103.362 E.54678
M73 P6 R15
G1 X114.868 Y103.362 E.01472
G1 X101.593 Y116.638 E.54678
G1 X101.088 Y116.638 E.01472
G1 X114.363 Y103.362 E.54678
G1 X113.858 Y103.362 E.01472
G1 X100.582 Y116.638 E.54678
G1 X100.077 Y116.638 E.01472
G1 X113.352 Y103.362 E.54678
G1 X112.847 Y103.362 E.01472
G1 X99.571 Y116.638 E.54678
G1 X99.066 Y116.638 E.01472
G1 X112.341 Y103.362 E.54678
G1 X111.836 Y103.362 E.01472
G1 X98.561 Y116.638 E.54678
G1 X98.055 Y116.638 E.01472
G1 X111.33 Y103.362 E.54678
G1 X110.825 Y103.362 E.01472
G1 X97.55 Y116.638 E.54678
G1 X97.044 Y116.638 E.01472
G1 X110.319 Y103.362 E.54678
G1 X109.814 Y103.362 E.01472
G1 X96.539 Y116.638 E.54678
G1 X96.033 Y116.638 E.01472
G1 X109.308 Y103.362 E.54678
G1 X108.803 Y103.362 E.01472
G1 X95.528 Y116.638 E.54678
G1 X95.022 Y116.638 E.01472
G1 X108.298 Y103.362 E.54678
G1 X107.792 Y103.362 E.01472
G1 X94.517 Y116.638 E.54678
G1 X94.011 Y116.638 E.01472
G1 X107.287 Y103.362 E.54678
G1 X106.781 Y103.362 E.01472
G1 X93.506 Y116.638 E.54678
G1 X93.007 Y116.631 E.01453
G1 X106.276 Y103.362 E.54651
G1 X105.77 Y103.362 E.01472
G1 X92.56 Y116.572 E.54409
G1 X92.449 Y116.558 E.00328
G1 X92.181 Y116.447 E.00845
G1 X105.265 Y103.362 E.53891
G1 X104.759 Y103.362 E.01472
G1 X91.846 Y116.276 E.5319
G1 X91.56 Y116.057 E.0105
G1 X104.254 Y103.362 E.52286
G1 X103.749 Y103.362 E.01472
G1 X91.325 Y115.786 E.51171
G1 X91.155 Y115.565 E.00811
G1 X91.122 Y115.484 E.00256
G1 X103.243 Y103.362 E.49926
G1 X102.738 Y103.362 E.01472
G1 X90.974 Y115.126 E.48454
G1 X90.942 Y115.051 E.00237
G1 X90.896 Y114.699 E.01036
G1 X102.232 Y103.362 E.46691
M73 P7 R15
G1 X101.727 Y103.362 E.01472
G1 X90.862 Y114.227 E.44748
G1 X90.862 Y113.721 E.01472
G1 X101.221 Y103.362 E.42666
G1 X100.716 Y103.362 E.01472
G1 X90.862 Y113.216 E.40584
G1 X90.862 Y112.71 E.01472
G1 X100.21 Y103.362 E.38502
G1 X99.705 Y103.362 E.01472
G1 X90.862 Y112.205 E.3642
G1 X90.862 Y111.699 E.01472
G1 X99.199 Y103.362 E.34339
G1 X98.694 Y103.362 E.01472
G1 X90.862 Y111.194 E.32257
