; HEADER_BLOCK_START
; generated by OrcaSlicer 1.9.1 on 2024-02-18 at 20:33:05
; total layer number: 230
; filament_density: 1.24
; filament_diameter: 1.75
; max_z_height: 28.80
; HEADER_BLOCK_END

; THUMBNAIL_BLOCK_START

;
; THUMBNAIL_BLOCK_END

; external perimeters extrusion width = 0.40mm
; perimeters extrusion width = 0.45mm
; infill extrusion width = 0.45mm
; solid infill extrusion width = 0.40mm
; top infill extrusion width = 0.40mm
; support material extrusion width = 0.40mm
; first layer extrusion width = 0.50mm

; external perimeters extrusion width = 0.40mm
; perimeters extrusion width = 0.45mm
; infill extrusion width = 0.45mm
; solid infill extrusion width = 0.40mm
; top infill extrusion width = 0.40mm
; support material extrusion width = 0.40mm
; first layer extrusion width = 0.50mm

; external perimeters extrusion width = 0.40mm
; perimeters extrusion width = 0.45mm
; infill extrusion width = 0.45mm
; solid infill extrusion width = 0.40mm
; top infill extrusion width = 0.40mm
; support material extrusion width = 0.40mm
; first layer extrusion width = 0.50mm

; external perimeters extrusion width = 0.40mm
; perimeters extrusion width = 0.45mm
; infill extrusion width = 0.45mm
; solid infill extrusion width = 0.40mm
; top infill extrusion width = 0.40mm
; support material extrusion width = 0.40mm
; first layer extrusion width = 0.50mm

; EXECUTABLE_BLOCK_START
EXCLUDE_OBJECT_DEFINE NAME=RPI_WW_CAM_Case_Edit_Ender_5_Front.stl_id_0_copy_0 CENTER=131.872,130.655 POLYGON=[[116.972,118.849],[116.975,118.729],[116.987,118.577],[117.005,118.447],[117.032,118.308],[117.048,118.239],[117.072,118.15],[117.116,118.015],[117.167,117.882],[117.216,117.773],[117.255,117.695],[117.313,117.59],[117.364,117.506],[117.458,117.369],[117.469,117.353],[117.543,117.259],[117.564,117.234],[117.6,117.193],[117.681,117.105],[117.783,117.006],[117.907,116.899],[117.985,116.839],[118.074,116.776],[118.232,116.679],[118.246,116.671],[118.318,116.632],[118.396,116.593],[118.505,116.544],[118.638,116.493],[118.772,116.449],[118.931,116.409],[119.102,116.377],[119.2,116.364],[119.319,116.354],[121.872,116.162],[141.872,116.162],[144.337,116.35],[144.728,116.391],[144.979,116.453],[145.209,116.531],[145.249,116.548],[145.309,116.574],[145.368,116.602],[145.615,116.741],[145.694,116.795],[145.922,116.974],[146.01,117.059],[146.235,117.301],[146.434,117.601],[146.469,117.656],[146.605,117.956],[146.708,118.292],[146.751,118.545],[146.772,118.849],[146.772,142.649],[146.751,142.951],[146.727,143.091],[146.669,143.359],[146.591,143.58],[146.465,143.846],[146.367,144.013],[146.332,144.065],[146.155,144.293],[145.857,144.579],[145.812,144.615],[145.606,144.763],[145.545,144.8],[145.503,144.825],[145.426,144.866],[145.348,144.905],[145.269,144.942],[145.178,144.979],[145.065,145.02],[144.951,145.055],[144.856,145.08],[144.77,145.099],[144.685,145.115],[144.598,145.128],[144.533,145.135],[144.468,145.141],[144.37,145.147],[144.272,145.149],[119.472,145.149],[119.167,145.129],[119.07,145.116],[118.859,145.07],[118.679,145.019],[118.597,144.99],[118.241,144.824],[118.167,144.779],[117.872,144.567],[117.751,144.462],[117.564,144.264],[117.526,144.217],[117.431,144.092],[117.341,143.955],[117.133,143.529],[117.009,143.064],[117,143.018],[116.972,142.649],[116.972,118.849]]
EXCLUDE_OBJECT_DEFINE NAME=RPI_WW_CAM_Case_Edit_Ender_5_Holder.stl_id_1_copy_0 CENTER=113.849,112.609 POLYGON=[[96.3487,95.1087],[131.349,95.1087],[131.349,100.609],[101.849,130.109],[96.3487,130.109],[96.3487,95.1087]]
EXCLUDE_OBJECT_DEFINE NAME=RPI_WW_Ribbon_Clip_Ender_5.stl_id_2_copy_0 CENTER=124.074,83.9799 POLYGON=[[101.375,78.402],[101.375,78.28],[101.421,77.644],[101.508,77.162],[101.575,76.92],[101.623,76.75],[101.804,76.296],[101.919,76.078],[102.099,75.775],[102.419,75.395],[102.734,75.14],[103.021,74.977],[103.301,74.884],[103.545,74.851],[144.554,74.851],[144.957,74.918],[145.307,75.067],[145.539,75.224],[145.842,75.5151],[146.045,75.7791],[146.18,75.9841],[146.377,76.3611],[146.527,76.7511],[146.715,77.5931],[146.737,77.7121],[146.772,78.2231],[146.772,78.3451],[146.762,78.7281],[146.325,88.8701],[146.314,88.9581],[138.074,93.1089],[131.853,93.1087],[116.297,93.1083],[110.075,93.1082],[101.832,88.957],[101.825,88.869],[101.375,78.402]]
EXCLUDE_OBJECT_DEFINE NAME=RPI_WW_CAM_Case_Edit_Ender_5_Back.stl_id_3_copy_0 CENTER=83.7888,114.678 POLYGON=[[73.2401,126.02],[73.2409,126.006],[73.2444,125.942],[74.5265,102.769],[74.5272,102.758],[74.5274,102.755],[79.6993,99.7863],[79.7,99.7864],[80.2475,99.8177],[80.4302,99.8468],[80.4734,99.8562],[80.5396,99.8739],[80.6654,99.9169],[80.748,99.9515],[80.9451,100.064],[80.9602,100.073],[81.1177,100.197],[81.1456,100.224],[94.3375,113.416],[94.095,117.408],[79.6476,129.175],[79.5032,129.293],[79.3567,129.381],[79.2292,129.448],[79.1328,129.482],[78.9073,129.545],[78.8533,129.554],[78.6045,129.569],[78.592,129.57],[78.0537,129.541],[78.0531,129.541],[73.2401,126.02]]
M73 P0 R100
;TYPE:Custom
START_PRINT NOZZLE_TEMP=210  BED_TEMP=60 

G90
G21
M83 ; use relative distances for extrusion
; filament start gcode
M106 S0
;LAYER_CHANGE
;Z:0.2
;HEIGHT:0.2
;BEFORE_LAYER_CHANGE
;0.2
G92 E0

G1 E-.4 F1800
;AFTER_LAYER_CHANGE
;0.2
;_SET_FAN_SPEED_CHANGING_LAYER
SET_VELOCITY_LIMIT ACCEL=500 ACCEL_TO_DECEL=250
; printing object RPI_WW_Ribbon_Clip_Ender_5.stl id:2 copy 0
EXCLUDE_OBJECT_START NAME=RPI_WW_Ribbon_Clip_Ender_5.stl_id_2_copy_0
G1 X138.94 Y74.72 F21000
G1 Z.4
G1 Z.2
G1 E.4 F1800
;TYPE:Brim
;WIDTH:0.5
G1 F3000
G1 X139.263 Y74.136 E.02487
G1 X140 Y72.958 E.05173
G1 X140.5 Y72.432 E.02704
G1 X140.908 Y72.057 E.02062
G1 X141.473 Y71.66 E.02573
G1 X142.324 Y71.214 E.03579
G1 X143.147 Y70.939 E.03233
G1 X143.814 Y70.827 E.02519
G1 X144.426 Y70.768 E.02287
G1 X145.34 Y70.826 E.03412
G1 X146.037 Y70.975 E.02656
G1 X146.634 Y71.189 E.02361
G1 X147.125 Y71.409 E.02005
G1 X147.711 Y71.756 E.02535
G1 X148.472 Y72.348 E.03591
G1 X148.737 Y72.605 E.01374
G1 X149.318 Y73.295 E.03362
G1 X149.833 Y74.108 E.03585
G1 X150.162 Y74.762 E.02725
G1 X150.378 Y75.294 E.02139
G1 X150.562 Y75.843 E.02158
G1 X150.678 Y76.345 E.01918
G1 X150.811 Y77.133 E.02977
G1 X150.869 Y77.677 E.02037
G1 X150.85 Y78.514 E.03117
G1 X150.792 Y79.02 E.01896
G1 X150.694 Y79.765 E.02801
G1 X150.497 Y80.679 E.0348
G1 X150.308 Y81.219 E.02131
G1 X150.188 Y81.635 E.01615
G1 X149.782 Y82.432 E.03329
G1 X149.675 Y82.598 E.00736
G1 X149.283 Y83.116 E.02422
G1 X148.828 Y83.562 E.02373
G1 X147.984 Y84.124 E.03776
G1 X147.4 Y84.383 E.02381
G1 X146.785 Y84.553 E.02377
G1 X145.863 Y84.637 E.03449
G1 X145.163 Y84.627 E.02605
G1 X143.264 Y84.655 E.07077
G1 X142.615 Y84.617 E.02422
G1 X141.987 Y84.485 E.0239
G1 X141.385 Y84.262 E.02388
G1 X140.776 Y83.923 E.02595
G1 X140.26 Y83.539 E.02397
G1 X139.807 Y83.085 E.0239
G1 X139.425 Y82.568 E.02393
G1 X139.142 Y82.044 E.02219
G1 X138.7 Y81.067 E.03995
G1 X138.607 Y80.821 E.00978
G1 X138.369 Y79.936 E.03413
G1 X138.241 Y79.235 E.02654
G1 X138.165 Y78.55 E.02568
G1 X138.185 Y77.867 E.02547
G1 X138.288 Y76.908 E.03591
G1 X138.397 Y76.288 E.02346
G1 X138.662 Y75.327 E.03712
G1 X138.923 Y74.756 E.02338
G1 X139.339 Y74.947 F21000
G1 F3000
G1 X139.351 Y74.921 E.00105
G1 X139.659 Y74.364 E.0237
G1 X140.372 Y73.23 E.04992
G1 X140.818 Y72.762 E.02407
G1 X141.203 Y72.409 E.01944
G1 X141.72 Y72.047 E.0235
G1 X142.494 Y71.641 E.03258
G1 X143.248 Y71.387 E.02963
G1 X143.87 Y71.281 E.02349
G1 X144.422 Y71.227 E.02068
G1 X145.267 Y71.279 E.03153
G1 X145.903 Y71.413 E.02418
G1 X146.458 Y71.612 E.02196
G1 X146.921 Y71.82 E.01891
G1 X147.46 Y72.14 E.02334
G1 X148.166 Y72.689 E.03332
G1 X148.407 Y72.922 E.01248
G1 X148.953 Y73.574 E.03168
G1 X149.438 Y74.34 E.03377
G1 X149.748 Y74.956 E.02568
G1 X149.95 Y75.456 E.02011
G1 X150.119 Y75.961 E.01983
G1 X150.23 Y76.439 E.01826
G1 X150.358 Y77.191 E.02844
G1 X150.411 Y77.687 E.01857
G1 X150.393 Y78.476 E.0294
G1 X150.338 Y78.965 E.01832
G1 X150.242 Y79.693 E.02733
G1 X150.058 Y80.546 E.03252
G1 X149.755 Y81.479 E.03654
G1 X149.389 Y82.197 E.03002
G1 X148.946 Y82.804 E.02798
G1 X148.528 Y83.213 E.02178
G1 X147.773 Y83.715 E.03379
G1 X147.255 Y83.948 E.02115
G1 X146.69 Y84.103 E.02181
G1 X145.838 Y84.18 E.03187
G1 X145.155 Y84.17 E.02545
G1 X143.269 Y84.198 E.07025
G1 X142.686 Y84.163 E.02176
G1 X142.124 Y84.046 E.02138
G1 X141.568 Y83.84 E.02209
G1 X141.033 Y83.543 E.0228
G1 X140.568 Y83.199 E.02154
G1 X140.161 Y82.793 E.02137
G1 X139.807 Y82.314 E.02219
G1 X139.55 Y81.837 E.0202
G1 X139.124 Y80.895 E.03851
G1 X139.04 Y80.673 E.00881
G1 X138.815 Y79.83 E.03251
G1 X138.694 Y79.174 E.02486
G1 X138.624 Y78.541 E.0237
G1 X138.642 Y77.893 E.02418
G1 X138.74 Y76.977 E.03431
G1 X138.845 Y76.382 E.02249
G1 X139.098 Y75.474 E.0351
G1 X139.323 Y74.983 E.02011
G1 X139.738 Y75.174 F21000
G1 F3000
G1 X139.762 Y75.123 E.0021
G1 X140.055 Y74.594 E.02253
G1 X140.745 Y73.502 E.0481
G1 X141.135 Y73.091 E.02111
G1 X141.483 Y72.772 E.01757
G1 X141.965 Y72.435 E.02194
G1 X142.665 Y72.068 E.02942
G1 X143.35 Y71.835 E.02695
G1 X143.926 Y71.736 E.02176
G1 X144.42 Y71.687 E.01849
G1 X145.196 Y71.733 E.02896
G1 X145.769 Y71.852 E.02181
G1 X146.282 Y72.034 E.02027
G1 X146.717 Y72.23 E.01776
G1 X147.208 Y72.524 E.02133
G1 X147.86 Y73.03 E.03074
G1 X148.076 Y73.239 E.01121
G1 X148.588 Y73.852 E.02972
G1 X149.042 Y74.571 E.0317
G1 X149.333 Y75.15 E.02412
G1 X149.52 Y75.611 E.01852
G1 X149.677 Y76.079 E.0184
G1 X149.782 Y76.533 E.01733
G1 X149.904 Y77.25 E.0271
G1 X149.952 Y77.698 E.01678
G1 X149.937 Y78.439 E.02762
G1 X149.884 Y78.911 E.01767
G1 X149.791 Y79.62 E.02664
G1 X149.617 Y80.42 E.03049
G1 X149.327 Y81.313 E.03499
G1 X149.003 Y81.947 E.02651
G1 X148.606 Y82.495 E.02519
G1 X148.229 Y82.863 E.01965
G1 X147.561 Y83.308 E.02987
G1 X147.109 Y83.512 E.01846
G1 X146.596 Y83.652 E.01981
G1 X145.814 Y83.722 E.02927
G1 X145.146 Y83.713 E.02486
G1 X143.274 Y83.74 E.06974
G1 X142.756 Y83.709 E.01933
G1 X142.261 Y83.608 E.01883
G1 X141.769 Y83.427 E.0195
G1 X141.288 Y83.162 E.02046
G1 X140.875 Y82.857 E.01913
G1 X140.516 Y82.502 E.01882
G1 X140.19 Y82.06 E.02043
G1 X139.958 Y81.63 E.01821
G1 X139.548 Y80.723 E.03706
G1 X139.474 Y80.526 E.00784
G1 X139.26 Y79.724 E.03092
G1 X139.147 Y79.112 E.02318
G1 X139.083 Y78.532 E.02173
G1 X139.099 Y77.918 E.02288
G1 X139.193 Y77.045 E.03269
G1 X139.293 Y76.477 E.0215
G1 X139.533 Y75.622 E.03308
G1 X139.722 Y75.21 E.01685
G1 X140.137 Y75.402 F21000
G1 F3000
G1 X140.172 Y75.325 E.00315
G1 X140.447 Y74.83 E.02106
G1 X141.1 Y73.796 E.04556
G1 X141.453 Y73.421 E.01918
G1 X141.763 Y73.136 E.01569
G1 X142.211 Y72.822 E.02038
G1 X142.836 Y72.494 E.02628
G1 X143.453 Y72.283 E.02428
G1 X143.982 Y72.19 E.02002
G1 X144.418 Y72.146 E.0163
G1 X145.125 Y72.187 E.02639
G1 X145.654 Y72.296 E.02012
G1 X146.106 Y72.457 E.01786
G1 X146.498 Y72.633 E.01599
G1 X146.956 Y72.907 E.01991
G1 X147.554 Y73.371 E.02819
G1 X147.746 Y73.557 E.00994
G1 X148.223 Y74.129 E.02776
G1 X148.64 Y74.791 E.02915
G1 X148.914 Y75.334 E.02264
G1 X149.089 Y75.766 E.01736
G1 X149.238 Y76.21 E.01747
G1 X149.335 Y76.627 E.01592
G1 X149.45 Y77.308 E.02576
G1 X149.494 Y77.709 E.015
G1 X149.481 Y78.403 E.02585
G1 X149.43 Y78.857 E.01701
G1 X149.339 Y79.547 E.02592
G1 X149.177 Y80.294 E.02846
G1 X148.898 Y81.147 E.03344
G1 X148.617 Y81.698 E.02304
G1 X148.266 Y82.185 E.02237
G1 X147.929 Y82.514 E.01751
G1 X147.348 Y82.9 E.026
G1 X146.964 Y83.076 E.01574
G1 X146.503 Y83.202 E.0178
G1 X145.789 Y83.265 E.02667
G1 X145.138 Y83.256 E.02427
G1 X143.279 Y83.282 E.06923
G1 X142.825 Y83.256 E.01694
G1 X142.396 Y83.169 E.01631
G1 X141.969 Y83.014 E.01691
G1 X141.543 Y82.78 E.0181
G1 X141.181 Y82.515 E.01673
G1 X140.87 Y82.209 E.01625
G1 X140.572 Y81.806 E.01865
G1 X140.366 Y81.423 E.01621
G1 X139.969 Y80.544 E.03592
G1 X139.908 Y80.38 E.00653
G1 X139.705 Y79.618 E.02934
G1 X139.601 Y79.05 E.02152
G1 X139.542 Y78.522 E.01978
G1 X139.556 Y77.943 E.02158
G1 X139.645 Y77.114 E.03105
G1 X139.741 Y76.572 E.02051
G1 X139.968 Y75.77 E.03105
G1 X140.12 Y75.438 E.0136
G1 X140.536 Y75.63 F21000
G1 F3000
G1 X140.583 Y75.527 E.00421
G1 X140.838 Y75.067 E.0196
G1 X141.455 Y74.088 E.04308
G1 X141.771 Y73.75 E.01723
G1 X142.043 Y73.499 E.01379
G1 X142.457 Y73.209 E.01882
G1 X143.008 Y72.92 E.02317
G1 X143.557 Y72.73 E.02164
G1 X144.04 Y72.644 E.01826
G1 X144.417 Y72.606 E.01412
G1 X145.055 Y72.64 E.02382
G1 X145.54 Y72.741 E.01842
G1 X145.93 Y72.879 E.01545
G1 X146.279 Y73.035 E.01421
G1 X146.705 Y73.29 E.01848
G1 X147.248 Y73.712 E.02564
G1 X147.415 Y73.874 E.00865
G1 X147.857 Y74.406 E.02578
G1 X148.239 Y75.011 E.02662
G1 X148.495 Y75.518 E.02116
G1 X148.662 Y75.928 E.0165
G1 X148.799 Y76.341 E.01621
G1 X148.887 Y76.721 E.01451
G1 X148.997 Y77.367 E.02443
G1 X149.035 Y77.721 E.01324
G1 X149.024 Y78.367 E.02409
G1 X148.977 Y78.803 E.01633
G1 X148.887 Y79.474 E.0252
G1 X148.737 Y80.167 E.02643
G1 X148.47 Y80.981 E.03189
G1 X148.231 Y81.45 E.01961
G1 X147.925 Y81.876 E.01953
G1 X147.63 Y82.164 E.01535
G1 X147.134 Y82.494 E.02219
G1 X146.818 Y82.64 E.01299
G1 X146.41 Y82.751 E.01574
G1 X145.765 Y82.807 E.02409
G1 X145.13 Y82.799 E.02369
G1 X143.285 Y82.825 E.06873
G1 X142.894 Y82.802 E.01458
G1 X142.53 Y82.73 E.01381
G1 X142.168 Y82.6 E.01432
G1 X141.797 Y82.398 E.01574
G1 X141.486 Y82.172 E.01433
G1 X141.224 Y81.916 E.01364
G1 X140.955 Y81.552 E.01685
G1 X140.775 Y81.216 E.0142
G1 X140.394 Y80.374 E.03442
G1 X140.151 Y79.513 E.03334
G1 X140.054 Y78.988 E.01988
G1 X140 Y78.512 E.01784
G1 X140.013 Y77.968 E.02027
G1 X140.097 Y77.183 E.02939
G1 X140.189 Y76.668 E.0195
G1 X140.402 Y75.919 E.02901
G1 X140.519 Y75.666 E.01036
G1 X140.932 Y75.836 F21000
G1 F3000
G1 X140.958 Y75.773 E.00255
G1 X141.318 Y75.127 E.02756
G1 X141.723 Y74.491 E.02807
G1 X141.959 Y74.196 E.01406
G1 X142.292 Y73.884 E.01702
G1 X142.697 Y73.595 E.01851
G1 X143.32 Y73.286 E.02588
G1 X143.754 Y73.155 E.01691
G1 X144.283 Y73.075 E.01993
G1 X144.958 Y73.095 E.02512
G1 X145.671 Y73.272 E.02739
G1 X146.264 Y73.555 E.02446
G1 X146.702 Y73.849 E.01965
G1 X146.867 Y73.98 E.00785
G1 X147.384 Y74.536 E.02827
G1 X147.86 Y75.268 E.03253
G1 X148.33 Y76.399 E.04561
G1 X148.378 Y76.563 E.00639
G1 X148.578 Y77.936 E.05166
G1 X148.548 Y78.566 E.02349
G1 X148.347 Y79.868 E.04906
G1 X148.059 Y80.778 E.03557
G1 X147.731 Y81.381 E.02555
G1 X147.34 Y81.813 E.02171
G1 X147.135 Y81.966 E.00952
G1 X146.904 Y82.102 E.01002
G1 X146.42 Y82.278 E.01918
G1 X145.864 Y82.352 E.02088
G1 X145.158 Y82.342 E.02628
G1 X143.268 Y82.369 E.0704
G1 X142.75 Y82.303 E.01948
G1 X142.321 Y82.164 E.01678
G1 X142.061 Y82.023 E.01103
G1 X141.765 Y81.803 E.01374
G1 X141.568 Y81.606 E.01036
G1 X141.398 Y81.385 E.01038
G1 X140.909 Y80.421 E.04027
G1 X140.638 Y79.619 E.03152
G1 X140.483 Y78.748 E.03295
G1 X140.459 Y78.253 E.01845
G1 X140.59 Y76.974 E.04789
G1 X140.762 Y76.248 E.02781
G1 X140.917 Y75.873 E.01509
G1 X141.337 Y76.042 F21000
G1 F3000
G1 X141.353 Y76.003 E.00159
G1 X141.719 Y75.346 E.02801
G1 X142.112 Y74.731 E.02717
G1 X142.318 Y74.479 E.01212
G1 X142.606 Y74.216 E.01454
G1 X142.966 Y73.965 E.01634
G1 X143.441 Y73.727 E.01976
G1 X143.896 Y73.59 E.01771
G1 X144.356 Y73.526 E.0173
G1 X144.843 Y73.537 E.01815
G1 X145.467 Y73.681 E.02385
G1 X146.001 Y73.929 E.02194
G1 X146.452 Y74.232 E.02023
G1 X146.585 Y74.34 E.00636
G1 X147.054 Y74.852 E.02588
G1 X147.481 Y75.523 E.02962
G1 X147.908 Y76.576 E.04234
G1 X147.939 Y76.689 E.00435
G1 X148.128 Y78.013 E.04981
G1 X148.092 Y78.539 E.01965
G1 X147.894 Y79.807 E.0478
G1 X147.621 Y80.649 E.03294
G1 X147.33 Y81.161 E.02194
G1 X147.068 Y81.446 E.01441
G1 X146.91 Y81.568 E.00746
G1 X146.661 Y81.715 E.01076
G1 X146.368 Y81.824 E.01166
G1 X145.88 Y81.895 E.01833
G1 X145.16 Y81.885 E.02682
G1 X143.252 Y81.913 E.07109
G1 X142.803 Y81.849 E.01688
G1 X142.54 Y81.763 E.01033
G1 X142.334 Y81.657 E.00864
G1 X142.087 Y81.479 E.01134
G1 X141.935 Y81.333 E.00781
G1 X141.752 Y81.096 E.01118
G1 X141.315 Y80.211 E.03675
G1 X141.09 Y79.55 E.02602
G1 X140.932 Y78.66 E.03366
G1 X140.916 Y78.227 E.01611
G1 X141.045 Y77.014 E.04544
G1 X141.183 Y76.427 E.02247
G1 X141.322 Y76.079 E.01396
G1 X141.744 Y76.243 F21000
G1 F3000
