; G-Code originally generated by Simplify3D(R) Version 4.1.2
; This calibration test gcode modified by the Teaching Tech Calibration website: https://teachingtechyt.github.io/calibration.html
;M80 ; power supply on
G90
M82
M106 S0
M140 S60 ; custom bed temp
M190 S60 ; custom bed temp
M104 S150 T0 ; custom hot end temp minus 50 degrees
G28 ; home all axes
;G29 ; probe ABL
;M420 S1 ; restore ABL mesh
M109 S200 T0 ; custom hot end temp 
; custom start gcode
START_PRINT NOZZLE_TEMP=210  BED_TEMP=70
G0 Z3; fix for delta printers that home at max
M220 S100 ; custom speed A - 200 mm/sec
;layer 1, Z = 0.120
T0
G92 E0.0000
G1 E-.4 F1800 ; custom retraction
;fan1;
G1 Z0.120 F1200
G1 X91.9770 Y86.1870 F20000 ; custom feedrate
G1 E0 F1800 ; custom un-retraction/prime
G92 E0.0000
G1 X93.4680 Y84.4320 E0.0596 F6000 ; custom feedrate
G1 X93.5750 Y84.3190 E0.0636
G1 X95.2460 Y82.7360 E0.1231
G1 X95.3650 Y82.6350 E0.1271
G1 X97.1980 Y81.2420 E0.1867
G1 X97.3260 Y81.1550 E0.1907
G1 X99.2990 Y79.9680 E0.2503
G1 X99.4360 Y79.8950 E0.2543
G1 X101.5260 Y78.9280 E0.3138
G1 X101.6710 Y78.8700 E0.3178
G1 X103.8530 Y78.1350 E0.3774
G1 X104.0020 Y78.0940 E0.3814
G1 X106.2510 Y77.5990 E0.4410
G1 X106.4040 Y77.5740 E0.4450
G1 X108.6940 Y77.3250 E0.5045
G1 X108.8490 Y77.3160 E0.5086
G1 X111.1510 Y77.3160 E0.5681
G1 X111.3060 Y77.3250 E0.5721
G1 X113.5960 Y77.5740 E0.6317
G1 X113.7490 Y77.5990 E0.6357
G1 X115.9980 Y78.0940 E0.6953
G1 X116.1470 Y78.1350 E0.6993
G1 X118.3290 Y78.8700 E0.7588
G1 X118.4740 Y78.9280 E0.7628
G1 X120.5640 Y79.8950 E0.8224
G1 X120.7010 Y79.9680 E0.8264
G1 X122.6740 Y81.1550 E0.8860
G1 X122.8020 Y81.2420 E0.8900
G1 X124.6350 Y82.6350 E0.9495
G1 X124.7540 Y82.7360 E0.9535
G1 X126.4250 Y84.3190 E1.0131
G1 X126.5320 Y84.4320 E1.0171
G1 X128.0230 Y86.1870 E1.0767
G1 X128.1170 Y86.3110 E1.0807
G1 X129.4090 Y88.2170 E1.1402
G1 X129.4890 Y88.3500 E1.1443
G1 X130.5680 Y90.3840 E1.2038
G1 X130.6330 Y90.5250 E1.2078
G1 X131.4850 Y92.6640 E1.2674
G1 X131.5350 Y92.8110 E1.2714
G1 X132.1510 Y95.0300 E1.3310
G1 X132.1840 Y95.1820 E1.3350
G1 X132.5570 Y97.4540 E1.3945
G1 X132.5740 Y97.6080 E1.3985
G1 X132.6960 Y99.8690 E1.4571
G1 X132.6980 Y99.9460 E1.4591
G1 X132.6980 Y102.2960 E1.5199
G1 X131.1270 Y103.9540 E1.5789
G1 X129.4700 Y104.0420 E1.6219
G1 X128.7820 Y104.1400 E1.6398
G1 X128.1470 Y104.3000 E1.6568
G1 X127.5060 Y104.5360 E1.6744
G1 X126.9210 Y104.8250 E1.6913
G1 X126.3560 Y105.1820 E1.7086
G1 X125.8330 Y105.5960 E1.7258
G1 X125.3570 Y106.0640 E1.7431
G1 X124.9330 Y106.5790 E1.7604
G1 X124.5660 Y107.1360 E1.7776
G1 X124.2600 Y107.7280 E1.7949
G1 X124.0180 Y108.3500 E1.8121
G1 X123.8430 Y108.9940 E1.8294
G1 X123.7380 Y109.6490 E1.8465
G1 X123.7030 Y110.3430 E1.8645
G1 X123.7370 Y110.9840 E1.8811
G1 X123.8430 Y111.6430 E1.8984
G1 X124.0180 Y112.2880 E1.9157
G1 X124.2500 Y112.8860 E1.9322
G1 X124.5830 Y113.5290 E1.9510
G1 X124.9330 Y114.0590 E1.9674
G1 X125.3460 Y114.5610 E1.9842
G1 X125.8350 Y115.0420 E2.0019
G1 X126.3560 Y115.4550 E2.0191
G1 X126.9210 Y115.8120 E2.0364
G1 X127.5060 Y116.1020 E2.0533
G1 X128.1470 Y116.3370 E2.0710
G1 X128.7820 Y116.4970 E2.0879
G1 X129.4700 Y116.5950 E2.1059
G1 X131.1270 Y116.6840 E2.1488
G1 X132.6980 Y118.3410 E2.2079
G1 X132.6980 Y121.1530 E2.2806
G1 X132.2620 Y122.2060 E2.3101
G1 X124.8160 Y129.6520 E2.5824
G1 X132.2620 Y137.0980 E2.8548
G1 X132.6980 Y138.1510 E2.8842
G1 X132.6980 Y141.0060 E2.9581
G1 X131.0210 Y142.6840 E3.0194
G1 X127.0600 Y142.6840 E3.1219
G1 X126.5830 Y142.2980 E3.1377
G1 X126.1060 Y142.6840 E3.1536
G1 X119.2490 Y142.6840 E3.3309
G1 X118.4170 Y142.3390 E3.3542
G1 X117.5840 Y142.6840 E3.3775
G1 X114.9630 Y142.6840 E3.4453
G1 X114.8880 Y142.6820 E3.4473
G1 X114.2700 Y142.6490 E3.4633
G1 X114.1210 Y142.6340 E3.4672
G1 X113.4730 Y142.5310 E3.4841
G1 X113.3260 Y142.5000 E3.4880
G1 X112.6920 Y142.3300 E3.5050
G1 X112.5500 Y142.2840 E3.5088
G1 X111.9370 Y142.0490 E3.5258
G1 X111.8000 Y141.9880 E3.5297
G1 X111.2480 Y141.7060 E3.5457
G1 X111.1250 Y141.6360 E3.5494
G1 X110.5470 Y141.2650 E3.5672
G1 X110.4180 Y141.1720 E3.5713
G1 X109.9050 Y140.7560 E3.5883
G1 X109.7930 Y140.6560 E3.5922
G1 X109.3290 Y140.1920 E3.6092
G1 X109.2290 Y140.0810 E3.6131
G1 X108.8390 Y139.5990 E3.6291
G1 X108.7550 Y139.4850 E3.6328
G1 X108.3770 Y138.9110 E3.6505
G1 X108.2980 Y138.7730 E3.6546
G1 X107.9980 Y138.1850 E3.6717
G1 X107.9370 Y138.0480 E3.6756
G1 X107.7020 Y137.4360 E3.6926
G1 X107.6550 Y137.2930 E3.6964
G1 X107.4860 Y136.6590 E3.7134
G1 X107.4540 Y136.5130 E3.7173
G1 X107.3520 Y135.8650 E3.7343
G1 X107.3360 Y135.7150 E3.7381
G1 X107.3040 Y135.0980 E3.7541
G1 X107.3020 Y135.0230 E3.7561
G1 X107.3020 Y125.0600 E4.0137
G1 X107.2850 Y124.7450 E4.0219
G1 X107.2480 Y124.5080 E4.0281
G1 X107.1850 Y124.2750 E4.0343
G1 X107.0990 Y124.0510 E4.0406
G1 X106.9900 Y123.8360 E4.0468
G1 X106.8590 Y123.6350 E4.0530
G1 X106.7080 Y123.4480 E4.0592
G1 X106.5380 Y123.2780 E4.0654
G1 X106.3510 Y123.1260 E4.0717
G1 X106.1490 Y122.9950 E4.0779
G1 X105.9350 Y122.8860 E4.0841
G1 X105.7100 Y122.8000 E4.0903
G1 X105.4780 Y122.7380 E4.0965
G1 X105.2400 Y122.7000 E4.1028
G1 X104.9250 Y122.6840 E4.1109
G1 X88.9790 Y122.6840 E4.5233
G1 X87.3020 Y121.0060 E4.5847
G1 X87.3020 Y99.9470 E5.1293
G1 X87.3040 Y99.8690 E5.1314
G1 X87.4260 Y97.6080 E5.1899
G1 X87.4430 Y97.4540 E5.1939
G1 X87.8160 Y95.1820 E5.2535
G1 X87.8490 Y95.0300 E5.2575
G1 X88.4650 Y92.8110 E5.3170
G1 X88.5150 Y92.6640 E5.3211
G1 X89.3670 Y90.5250 E5.3806
G1 X89.4320 Y90.3840 E5.3846
G1 X90.5110 Y88.3500 E5.4442
G1 X90.5910 Y88.2170 E5.4482
G1 X91.8830 Y86.3110 E5.5078
G1 X91.9770 Y86.1870 E5.5118
G92 E0.0000
G1 E-.4 F1800 ; custom retraction
;zhop1
G1 X92.4260 Y86.5480 F20000 ; custom feedrate
G1 Z0.120 F1200
G1 E0 F1800 ; custom un-retraction/prime
G92 E0.0000
G1 X93.8970 Y84.8170 E0.0588 F6000 ; custom feedrate
G1 X93.9820 Y84.7270 E0.0620
G1 X95.6310 Y83.1650 E0.1207
G1 X95.7260 Y83.0840 E0.1239
G1 X97.5340 Y81.7100 E0.1827
G1 X97.6370 Y81.6400 E0.1859
G1 X99.5830 Y80.4690 E0.2446
G1 X99.6930 Y80.4110 E0.2478
G1 X101.7540 Y79.4570 E0.3066
G1 X101.8690 Y79.4110 E0.3098
G1 X104.0220 Y78.6860 E0.3685
G1 X104.1410 Y78.6530 E0.3717
G1 X106.3600 Y78.1650 E0.4305
G1 X106.4820 Y78.1440 E0.4337
G1 X108.7400 Y77.8990 E0.4924
G1 X108.8640 Y77.8920 E0.4956
G1 X111.1360 Y77.8920 E0.5544
G1 X111.2600 Y77.8990 E0.5576
G1 X113.5180 Y78.1440 E0.6164
G1 X113.6400 Y78.1650 E0.6196
G1 X115.8590 Y78.6530 E0.6783
G1 X115.9780 Y78.6860 E0.6815
G1 X118.1310 Y79.4110 E0.7403
G1 X118.2460 Y79.4570 E0.7435
G1 X120.3070 Y80.4110 E0.8022
G1 X120.4170 Y80.4690 E0.8054
G1 X122.3630 Y81.6400 E0.8642
G1 X122.4660 Y81.7100 E0.8674
G1 X124.2740 Y83.0840 E0.9261
G1 X124.3690 Y83.1650 E0.9293
G1 X126.0180 Y84.7270 E0.9881
G1 X126.1030 Y84.8170 E0.9913
G1 X127.5740 Y86.5480 E1.0500
G1 X127.6490 Y86.6470 E1.0532
G1 X128.9240 Y88.5270 E1.1120
G1 X128.9880 Y88.6330 E1.1152
G1 X130.0520 Y90.6400 E1.1740
G1 X130.1040 Y90.7530 E1.1772
G1 X130.9440 Y92.8630 E1.2359
G1 X130.9840 Y92.9800 E1.2391
G1 X131.5920 Y95.1690 E1.2979
G1 X131.6180 Y95.2900 E1.3011
G1 X131.9860 Y97.5320 E1.3598
G1 X131.9990 Y97.6550 E1.3630
G1 X132.1210 Y99.8920 E1.4210
G1 X132.1220 Y99.9540 E1.4226
G1 X132.1220 Y102.0670 E1.4772
G1 X130.8670 Y103.3910 E1.5244
G1 X129.4140 Y103.4680 E1.5620
G1 X128.6700 Y103.5740 E1.5815
G1 X127.9760 Y103.7490 E1.6000
G1 X127.2790 Y104.0060 E1.6192
G1 X126.6380 Y104.3220 E1.6377
G1 X126.0220 Y104.7120 E1.6565
G1 X125.4520 Y105.1640 E1.6753
G1 X124.9320 Y105.6740 E1.6942
G1 X124.4690 Y106.2360 E1.7130
G1 X124.0680 Y106.8440 E1.7318
G1 X123.7340 Y107.4910 E1.7507
G1 X123.4700 Y108.1700 E1.7695
G1 X123.2790 Y108.8720 E1.7883
G1 X123.1640 Y109.5890 E1.8071
G1 X123.1260 Y110.3440 E1.8267
G1 X123.1640 Y111.0450 E1.8448
G1 X123.2790 Y111.7650 E1.8637
G1 X123.4700 Y112.4690 E1.8825
G1 X123.7240 Y113.1240 E1.9007
G1 X124.0860 Y113.8210 E1.9210
G1 X124.4690 Y114.4010 E1.9390
G1 X124.9200 Y114.9500 E1.9574
G1 X125.4530 Y115.4740 E1.9767
G1 X126.0220 Y115.9260 E1.9955
G1 X126.6380 Y116.3150 E2.0144
G1 X127.2790 Y116.6310 E2.0328
G1 X127.9760 Y116.8890 E2.0521
G1 X128.6700 Y117.0630 E2.0706
G1 X129.4140 Y117.1690 E2.0900
G1 X130.8670 Y117.2470 E2.1276
G1 X132.1220 Y118.5710 E2.1748
G1 X132.1220 Y121.0380 E2.2386
G1 X131.7740 Y121.8790 E2.2622
G1 X124.0010 Y129.6520 E2.5465
G1 X131.7740 Y137.4250 E2.8308
G1 X132.1220 Y138.2660 E2.8543
G1 X132.1220 Y140.7670 E2.9190
G1 X130.7820 Y142.1080 E2.9680
G1 X127.2640 Y142.1080 E3.0590
G1 X126.5830 Y141.5580 E3.0816
G1 X125.9030 Y142.1080 E3.1043
G1 X119.3640 Y142.1080 E3.2734
G1 X118.5230 Y141.7590 E3.2969
G1 X118.4170 Y141.6530 E3.3008
G1 X118.3110 Y141.7590 E3.3047
G1 X117.4700 Y142.1080 E3.3282
G1 X114.9700 Y142.1080 E3.3929
G1 X114.9100 Y142.1060 E3.3944
G1 X114.3150 Y142.0750 E3.4098
G1 X114.1960 Y142.0620 E3.4129
G1 X113.5780 Y141.9640 E3.4291
G1 X113.4610 Y141.9390 E3.4322
G1 X112.8560 Y141.7780 E3.4484
G1 X112.7420 Y141.7400 E3.4515
G1 X112.1580 Y141.5160 E3.4677
G1 X112.0480 Y141.4670 E3.4708
G1 X111.5220 Y141.1990 E3.4861
G1 X111.4240 Y141.1430 E3.4890
G1 X110.8710 Y140.7890 E3.5060
G1 X110.7680 Y140.7140 E3.5093
G1 X110.2790 Y140.3180 E3.5255
G1 X110.1900 Y140.2380 E3.5286
G1 X109.7470 Y139.7960 E3.5448
G1 X109.6670 Y139.7070 E3.5479
G1 X109.2950 Y139.2470 E3.5632
G1 X109.2290 Y139.1560 E3.5661
G1 X108.8670 Y138.6070 E3.5831
G1 X108.8040 Y138.4980 E3.5864
G1 X108.5180 Y137.9370 E3.6027
G1 X108.4690 Y137.8270 E3.6058
G1 X108.2450 Y137.2430 E3.6220
G1 X108.2080 Y137.1290 E3.6251
G1 X108.0460 Y136.5250 E3.6413
G1 X108.0210 Y136.4080 E3.6444
G1 X107.9230 Y135.7890 E3.6605
G1 X107.9100 Y135.6700 E3.6636
G1 X107.8790 Y135.0750 E3.6790
G1 X107.8780 Y135.0150 E3.6806
G1 X107.8780 Y125.0450 E3.9385
G1 X107.8590 Y124.6850 E3.9478
G1 X107.8120 Y124.3880 E3.9556
G1 X107.7340 Y124.0970 E3.9634
G1 X107.6260 Y123.8160 E3.9711
G1 X107.4890 Y123.5480 E3.9789
G1 X107.3260 Y123.2960 E3.9867
G1 X107.1360 Y123.0620 E3.9945
G1 X106.9230 Y122.8490 E4.0023
G1 X106.6900 Y122.6600 E4.0100
G1 X106.4370 Y122.4960 E4.0178
G1 X106.1690 Y122.3590 E4.0256
G1 X105.8880 Y122.2510 E4.0334
G1 X105.5980 Y122.1740 E4.0412
G1 X105.3000 Y122.1260 E4.0490
G1 X104.9400 Y122.1080 E4.0583
G1 X89.2180 Y122.1080 E4.4649
G1 X87.8780 Y120.7670 E4.5139
G1 X87.8780 Y99.9540 E5.0522
G1 X87.8790 Y99.8920 E5.0538
G1 X88.0010 Y97.6550 E5.1118
G1 X88.0140 Y97.5320 E5.1150
G1 X88.3820 Y95.2900 E5.1737
G1 X88.4080 Y95.1690 E5.1769
G1 X89.0160 Y92.9800 E5.2357
G1 X89.0560 Y92.8630 E5.2389
G1 X89.8960 Y90.7530 E5.2976
G1 X89.9480 Y90.6400 E5.3008
G1 X91.0120 Y88.6330 E5.3596
G1 X91.0760 Y88.5270 E5.3628
G1 X92.3510 Y86.6470 E5.4215
G1 X92.4260 Y86.5480 E5.4248
G92 E0.0000
G1 E-.4 F1800 ; custom retraction
;zhop1
G1 X94.4400 Y88.1570 F20000 ; custom feedrate
G1 Z0.120 F1200
G1 E0 F1800 ; custom un-retraction/prime
G92 E0.0000
G1 X95.8100 Y86.5440 E0.0547 F6000 ; custom feedrate
G1 X97.2630 Y85.1670 E0.1065
G1 X97.3460 Y85.0880 E0.1095
G1 X99.0310 Y83.8070 E0.1642
G1 X100.8450 Y82.7160 E0.2189
G1 X102.7650 Y81.8280 E0.2737
G1 X104.7710 Y81.1520 E0.3284
G1 X106.8380 Y80.6970 E0.3832
G1 X108.9420 Y80.4680 E0.4379
G1 X111.0580 Y80.4680 E0.4926
G1 X113.1620 Y80.6970 E0.5474
G1 X115.2290 Y81.1520 E0.6021
G1 X117.2350 Y81.8280 E0.6568
G1 X119.1550 Y82.7160 E0.7116
G1 X120.9690 Y83.8070 E0.7663
G1 X122.6540 Y85.0880 E0.8210
G1 X124.1900 Y86.5440 E0.8758
G1 X125.4860 Y88.0700 E0.9276
G1 X125.5600 Y88.1570 E0.9305
G1 X126.7480 Y89.9080 E0.9853
G1 X127.7390 Y91.7780 E1.0400
G1 X128.5230 Y93.7440 E1.0947
G1 X129.0890 Y95.7830 E1.1495
G1 X129.4310 Y97.8720 E1.2042
G1 X129.5460 Y99.9930 E1.2591
G1 X129.5460 Y100.8810 E1.2821
G1 X129.1630 Y100.9020 E1.2920
G1 X128.1730 Y101.0430 E1.3179
G1 X127.2140 Y101.2840 E1.3435
G1 X126.2600 Y101.6360 E1.3698
G1 X125.3760 Y102.0720 E1.3953
G1 X124.5300 Y102.6080 E1.4212
G1 X123.7450 Y103.2300 E1.4471
G1 X123.0300 Y103.9310 E1.4730
G1 X122.3940 Y104.7040 E1.4989
G1 X121.8420 Y105.5400 E1.5248
G1 X121.3830 Y106.4300 E1.5507
G1 X121.0200 Y107.3630 E1.5766
G1 X120.7570 Y108.3300 E1.6025
G1 X120.5990 Y109.3190 E1.6284
G1 X120.5470 Y110.3480 E1.6550
G1 X120.5990 Y111.3190 E1.6802
G1 X120.7570 Y112.3080 E1.7061
G1 X121.0200 Y113.2740 E1.7320
G1 X121.3730 Y114.1850 E1.7572
G1 X121.8610 Y115.1270 E1.7847
G1 X122.3940 Y115.9330 E1.8097
G1 X123.0160 Y116.6910 E1.8350
G1 X123.7450 Y117.4080 E1.8615
G1 X124.5300 Y118.0300 E1.8874
G1 X125.3760 Y118.5650 E1.9133
G1 X126.2600 Y119.0010 E1.9388
G1 X127.2140 Y119.3530 E1.9651
G1 X128.1730 Y119.5940 E1.9906
G1 X129.1630 Y119.7350 E2.0165
G1 X129.5460 Y119.7560 E2.0264
G1 X129.5460 Y120.4640 E2.0447
G1 X120.3580 Y129.6520 E2.3808
G1 X129.5460 Y138.8400 E2.7169
G1 X129.5460 Y139.5320 E2.7347
G1 X128.3050 Y139.5320 E2.7668
G1 X128.2840 Y139.4330 E2.7694
G1 X128.1670 Y139.1550 E2.7773
G1 X128.0060 Y138.9030 E2.7850
G1 X127.8060 Y138.6810 E2.7927
G1 X127.5720 Y138.4950 E2.8004
G1 X127.3100 Y138.3510 E2.8082
G1 X127.0270 Y138.2530 E2.8159
G1 X126.7300 Y138.2030 E2.8237
G1 X126.4330 Y138.2040 E2.8314
G1 X126.1290 Y138.2570 E2.8394
G1 X125.8570 Y138.3510 E2.8468
G1 X125.5950 Y138.4950 E2.8545
G1 X125.3640 Y138.6780 E2.8622
G1 X125.1600 Y138.9020 E2.8700
G1 X125.0000 Y139.1550 E2.8777
G1 X124.8820 Y139.4330 E2.8855
G1 X124.8610 Y139.5320 E2.8882
G1 X123.6200 Y139.5320 E2.9202
G1 X123.6200 Y138.1980 E2.9547
G1 X121.3800 Y138.1980 E3.0127
G1 X121.3800 Y139.5320 E3.0472
G1 X119.9380 Y139.5320 E3.0845
G1 X118.4170 Y138.0100 E3.1401
G1 X116.8950 Y139.5320 E3.1957
G1 X115.0080 Y139.5320 E3.2446
G1 X114.5250 Y139.5060 E3.2571
G1 X114.0550 Y139.4320 E3.2694
G1 X113.5950 Y139.3090 E3.2817
G1 X113.1510 Y139.1380 E3.2940
G1 X112.7540 Y138.9360 E3.3055
G1 X112.3270 Y138.6620 E3.3186
G1 X111.9580 Y138.3640 E3.3309
G1 X111.6220 Y138.0270 E3.3432
G1 X111.3420 Y137.6810 E3.3547
G1 X111.0630 Y137.2570 E3.3678
G1 X110.8470 Y136.8340 E3.3801
G1 X110.6770 Y136.3900 E3.3924
G1 X110.5530 Y135.9300 E3.4047
G1 X110.4790 Y135.4610 E3.4170
G1 X110.4540 Y134.9780 E3.4295
G1 X110.4540 Y124.9780 E3.6882
G1 X110.4240 Y124.4150 E3.7027
G1 X110.3350 Y123.8510 E3.7175
G1 X110.1870 Y123.3000 E3.7323
G1 X109.9830 Y122.7670 E3.7470
G1 X109.7230 Y122.2580 E3.7618
G1 X109.4120 Y121.7790 E3.7766
G1 X109.0530 Y121.3360 E3.7913
G1 X108.6500 Y120.9320 E3.8061
G1 X108.2060 Y120.5730 E3.8209
G1 X107.7270 Y120.2620 E3.8356
G1 X107.2180 Y120.0030 E3.8504
G1 X106.6850 Y119.7980 E3.8652
G1 X106.1340 Y119.6500 E3.8799
G1 X105.5700 Y119.5610 E3.8947
G1 X105.0080 Y119.5320 E3.9093
G1 X90.4540 Y119.5320 E4.2857
G1 X90.4540 Y99.9930 E4.7910
G1 X90.5690 Y97.8720 E4.8459
G1 X90.9110 Y95.7830 E4.9007
G1 X91.4770 Y93.7440 E4.9554
G1 X92.2610 Y91.7780 E5.0101
G1 X93.2520 Y89.9080 E5.0649
G1 X94.4400 Y88.1570 E5.1196
G1 X120.7140 Y84.0570 F20000 ; custom feedrate
G92 E0.0000
G1 X125.8370 Y89.1800 E0.1874 F4800 ; custom feedrate
G1 X126.4510 Y90.0870 E0.2157
G1 X127.0410 Y91.1990 E0.2483
G1 X118.7530 Y82.9110 E0.5514
G1 X117.2370 Y82.2090 E0.5946
G1 X127.7390 Y92.7120 E0.9788
G1 X128.1950 Y93.8550 E1.0106
G1 X128.2440 Y94.0310 E1.0153
G1 X115.9840 Y81.7710 E1.4637
G1 X115.1370 Y81.4850 E1.4869
G1 X114.8120 Y81.4140 E1.4955
G1 X128.5570 Y95.1590 E1.9982
G1 X128.7510 Y95.8580 E2.0169
G1 X128.8110 Y96.2280 E2.0266
G1 X113.7680 Y81.1840 E2.5769
G1 X113.1060 Y81.0390 E2.5944
G1 X112.7710 Y81.0020 E2.6031
G1 X128.9710 Y97.2020 E3.1957
G1 X129.0870 Y97.9100 E3.2142
G1 X129.1000 Y98.1460 E3.2203
G1 X111.8570 Y80.9030 E3.8510
G1 X111.0390 Y80.8140 E3.8723
G1 X110.9540 Y80.8140 E3.8745
G1 X129.1470 Y99.0070 E4.5399
G1 X129.1930 Y99.8680 E4.5622
G1 X110.1390 Y80.8140 E5.2592
G1 X109.3240 Y80.8140 E5.2802
G1 X129.0760 Y100.5650 E6.0026
G1 X128.3630 Y100.6670 E6.0213
G1 X108.5540 Y80.8580 E6.7458
G1 X107.8190 Y80.9380 E6.7649
G1 X127.6900 Y100.8080 E7.4917
G1 X127.1120 Y100.9540 E7.5071
G1 X127.0450 Y100.9780 E7.5089
G1 X107.0850 Y81.0180 E8.2390
G1 X106.8940 Y81.0390 E8.2440
G1 X106.4000 Y81.1470 E8.2571
G1 X126.4500 Y101.1980 E8.9904
G1 X126.1240 Y101.3180 E8.9994
G1 X125.8770 Y101.4400 E9.0065
G1 X105.7320 Y81.2940 E9.7434
G1 X105.0640 Y81.4410 E9.7610
G1 X125.3320 Y101.7090 E10.5023
G1 X125.2070 Y101.7710 E10.5059
G1 X124.8220 Y102.0140 E10.5177
G1 X104.4370 Y81.6290 E11.2633
G1 X103.8280 Y81.8340 E11.2799
G1 X124.3240 Y102.3300 E12.0296
G1 X123.8690 Y102.6900 E12.0446
G1 X103.2190 Y82.0400 E12.7999
G1 X102.8930 Y82.1490 E12.8088
G1 X102.6340 Y82.2690 E12.8162
G1 X123.4240 Y103.0600 E13.5766
G1 X123.0130 Y103.4630 E13.5915
G1 X102.0770 Y82.5270 E14.3573
G1 X101.5200 Y82.7850 E14.3731
G1 X122.6200 Y103.8850 E15.1449
G1 X122.2530 Y104.3320 E15.1599
G1 X100.9670 Y83.0460 E15.9384
G1 X100.4580 Y83.3520 E15.9538
G1 X121.9120 Y104.8060 E16.7385
G1 X121.5890 Y105.2970 E16.7537
G1 X99.9500 Y83.6580 E17.5451
G1 X99.4410 Y83.9640 E17.5605
G1 X121.3050 Y105.8280 E18.3602
G1 X121.0670 Y106.2880 E18.3735
G1 X121.0340 Y106.3720 E18.3759
G1 X98.9590 Y84.2960 E19.1833
G1 X98.4960 Y84.6480 E19.1983
G1 X120.8060 Y106.9580 E20.0144
G1 X120.6910 Y107.2550 E20.0226
G1 X120.6050 Y107.5720 E20.0311
G1 X98.0330 Y85.0000 E20.8567
G1 X97.5710 Y85.3520 E20.8717
G1 X120.4310 Y108.2120 E21.7078
G1 X120.4190 Y108.2570 E21.7090
G1 X120.3140 Y108.9100 E21.7261
G1 X97.1520 Y85.7480 E22.5733
G1 X96.7340 Y86.1440 E22.5882
G1 X120.2360 Y109.6470 E23.4478
G1 X120.2010 Y110.3490 E23.4660
G1 X120.2050 Y110.4300 E23.4681
G1 X96.3160 Y86.5410 E24.3419
G1 X96.0610 Y86.7820 E24.3510
G1 X95.9150 Y86.9540 E24.3568
G1 X120.2510 Y111.2910 E25.2469
G1 X120.2550 Y111.3560 E25.2486
G1 X120.3990 Y112.2530 E25.2721
G1 X95.5400 Y87.3950 E26.1813
G1 X95.1660 Y87.8350 E26.1963
G1 X120.6820 Y113.3510 E27.1296
G1 X120.6910 Y113.3820 E27.1304
G1 X121.0580 Y114.3280 E27.1566
G1 X121.2870 Y114.7710 E27.1695
G1 X94.7920 Y88.2760 E28.1386
G1 X94.7150 Y88.3660 E28.1417
G1 X94.4540 Y88.7520 E28.1537
G1 X127.6120 Y121.9100 E29.3665
G1 X127.2050 Y122.3170 E29.3814
G1 X94.1250 Y89.2370 E30.5913
G1 X93.7960 Y89.7230 E30.6065
G1 X126.7970 Y122.7240 E31.8136
G1 X126.3900 Y123.1320 E31.8285
G1 X93.4780 Y90.2200 E33.0322
G1 X93.1960 Y90.7520 E33.0478
G1 X125.9830 Y123.5390 E34.2470
G1 X125.5750 Y123.9460 E34.2619
G1 X92.9140 Y91.2840 E35.4566
G1 X92.6310 Y91.8170 E35.4721
G1 X125.1680 Y124.3530 E36.6622
G1 X124.7610 Y124.7610 E36.6771
G1 X92.3890 Y92.3890 E37.8611
G1 X92.1570 Y92.9720 E37.8773
G1 X124.3530 Y125.1680 E39.0549
G1 X123.9460 Y125.5750 E39.0698
G1 X91.9250 Y93.5540 E40.2410
G1 X91.8050 Y93.8550 E40.2494
G1 X91.7200 Y94.1630 E40.2577
G1 X123.5390 Y125.9830 E41.4215
G1 X123.1320 Y126.3900 E41.4364
G1 X91.5430 Y94.8010 E42.5918
G1 X91.3660 Y95.4390 E42.6089
G1 X122.7240 Y126.7970 E43.7559
G1 X122.3170 Y127.2050 E43.7708
G1 X91.2100 Y96.0970 E44.9086
G1 X91.0950 Y96.7970 E44.9269
G1 X121.9100 Y127.6120 E46.0540
G1 X121.5020 Y128.0190 E46.0689
G1 X90.9800 Y97.4970 E47.1852
G1 X90.9130 Y97.9100 E47.1961
G1 X90.8960 Y98.2270 E47.2043
G1 X121.0950 Y128.4260 E48.3088
G1 X120.6880 Y128.8340 E48.3237
G1 X90.8540 Y99.0000 E49.4150
G1 X90.8120 Y99.7720 E49.4350
G1 X120.2810 Y129.2410 E50.5128
G1 X119.8730 Y129.6480 E50.5277
G1 X90.7990 Y100.5740 E51.5911
G1 X90.7990 Y101.3890 E51.6122
G1 X127.4420 Y138.0310 E52.9524
G1 X127.1130 Y137.9170 E52.9614
G1 X126.7590 Y137.8580 E52.9707
G1 X126.4540 Y137.8580 E52.9786
G1 X90.7990 Y102.2040 E54.2827
G1 X90.7990 Y103.0180 E54.3038
G1 X107.5810 Y119.7990 E54.9175
G1 X107.3590 Y119.6870 E54.9240
G1 X106.7920 Y119.4690 E54.9397
G1 X106.3050 Y119.3380 E54.9527
G1 X90.7990 Y103.8330 E55.5199
G1 X90.7990 Y104.6470 E55.5409
G1 X105.3560 Y119.2040 E56.0733
G1 X105.0170 Y119.1860 E56.0821
G1 X104.5230 Y119.1860 E56.0949
G1 X90.7990 Y105.4620 E56.5969
G1 X90.7990 Y106.2760 E56.6179
G1 X103.7090 Y119.1860 E57.0901
G1 X102.8940 Y119.1860 E57.1112
G1 X90.7990 Y107.0910 E57.5535
G1 X90.7990 Y107.9060 E57.5746
G1 X102.0800 Y119.1860 E57.9872
G1 X101.2650 Y119.1860 E58.0083
G1 X90.7990 Y108.7200 E58.3911
G1 X90.7990 Y109.5350 E58.4121
G1 X100.4500 Y119.1860 E58.7651
G1 X99.6360 Y119.1860 E58.7862
G1 X90.7990 Y110.3490 E59.1094
G1 X90.7990 Y111.1640 E59.1305
G1 X98.8210 Y119.1860 E59.4239
G1 X98.0070 Y119.1860 E59.4450
G1 X90.7990 Y111.9790 E59.7086
G1 X90.7990 Y112.7930 E59.7296
G1 X97.1920 Y119.1860 E59.9635
G1 X96.3780 Y119.1860 E59.9845
G1 X90.7990 Y113.6080 E60.1886
G1 X90.7990 Y114.4220 E60.2096
G1 X95.5630 Y119.1860 E60.3839
G1 X94.7480 Y119.1860 E60.4049
G1 X90.7990 Y115.2370 E60.5494
G1 X90.7990 Y116.0520 E60.5704
G1 X93.9340 Y119.1860 E60.6851
G1 X93.1190 Y119.1860 E60.7061
G1 X90.7990 Y116.8660 E60.7910
G1 X90.7990 Y117.6810 E60.8121
G1 X92.3050 Y119.1860 E60.8671
G1 X91.4900 Y119.1860 E60.8882
G1 X90.7990 Y118.4950 E60.9135
G1 X95.9380 Y119.5320 F20000 ; custom feedrate
G1 X105.0080 Y119.5320
G1 X105.5700 Y119.5610
G1 X106.1340 Y119.6500
G1 X106.6850 Y119.7980
G1 X107.2180 Y120.0030
G1 X107.7270 Y120.2620
G1 X108.2060 Y120.5730
G1 X108.6500 Y120.9320
G1 X109.0530 Y121.3360
G1 X109.4120 Y121.7790
G1 X109.7230 Y122.2580
G1 X109.7540 Y122.3180
G1 X110.1860 Y122.4050
G92 E0.0000
G1 X125.7900 Y138.0090 E0.5707 F4800 ; custom feedrate
G1 X125.7160 Y138.0350 E0.5728
G1 X125.4040 Y138.2060 E0.5820
G1 X125.2750 Y138.3080 E0.5862
G1 X110.6470 Y123.6800 E1.1212
G1 X110.6730 Y123.7790 E1.1239
G1 X110.7680 Y124.3790 E1.1396
G1 X110.7820 Y124.6300 E1.1461
G1 X124.8690 Y138.7170 E1.6613
G1 X124.6930 Y138.9930 E1.6698
G1 X124.6120 Y139.1860 E1.6752
G1 X124.5230 Y139.1860 E1.6775
G1 X123.9660 Y138.6290 E1.6979
G1 X123.9660 Y137.8530 E1.7180
G1 X123.1900 Y137.8530 E1.7380
G1 X110.7990 Y125.4620 E2.1912
G1 X110.7990 Y126.2760 E2.2123
G1 X122.3760 Y137.8530 E2.6357
G1 X121.5610 Y137.8530 E2.6568
G1 X110.7990 Y127.0910 E3.0504
G1 X110.7990 Y127.9060 E3.0715
G1 X121.0340 Y138.1400 E3.4458
G1 X121.0340 Y138.9550 E3.4669
G1 X110.7990 Y128.7200 E3.8412
G1 X110.7990 Y129.5350 E3.8623
G1 X120.4500 Y139.1860 E4.2153
G1 X120.0810 Y139.1860 E4.2248
G1 X118.4170 Y137.5220 E4.2857
G1 X118.1940 Y137.7440 E4.2939
G1 X110.7990 Y130.3490 E4.5643
G1 X110.7990 Y131.1640 E4.5854
G1 X117.7870 Y138.1510 E4.8410
G1 X117.3790 Y138.5590 E4.8559
G1 X110.7990 Y131.9790 E5.0965
G1 X110.7990 Y132.7930 E5.1176
G1 X116.9720 Y138.9660 E5.3434
G1 X116.7520 Y139.1860 E5.3514
G1 X116.3780 Y139.1860 E5.3611
G1 X110.7990 Y133.6080 E5.5651
G1 X110.7990 Y134.4220 E5.5862
G1 X115.5630 Y139.1860 E5.7604
G1 X115.0170 Y139.1860 E5.7746
G1 X114.7340 Y139.1710 E5.7819
G1 X110.8140 Y135.2520 E5.9253
G1 X110.8230 Y135.4240 E5.9297
G1 X110.8920 Y135.8580 E5.9411
G1 X110.9970 Y136.2490 E5.9515
G1 X113.7370 Y138.9890 E6.0518
G1 X117.4070 Y139.0200 F20000 ; custom feedrate
G1 X118.4170 Y138.0100
G1 X119.4440 Y139.0370
G1 X121.3800 Y139.0540
G1 X121.3800 Y138.1980
G1 X123.6200 Y138.1980
G1 X123.6200 Y139.0730
G1 X125.0440 Y139.0850
G1 X125.1600 Y138.9020
G1 X125.3640 Y138.6780
G1 X125.5950 Y138.4950
G1 X125.8570 Y138.3510
G1 X126.1290 Y138.2570
G1 X126.4330 Y138.2040
G1 X126.7300 Y138.2030
G1 X127.0270 Y138.2530
G1 X127.3100 Y138.3510
G1 X127.5720 Y138.4950
G1 X127.8060 Y138.6810
G1 X128.0060 Y138.9030
G1 X128.1390 Y139.1110
G1 X128.5250 Y139.1150
G92 E0.0000
G1 X128.5960 Y139.1860 E0.0026 F4800 ; custom feedrate
G1 X128.6250 Y137.9190 F20000 ; custom feedrate
G1 X120.3580 Y129.6520
G1 X129.0040 Y121.0060
G1 X129.0250 Y120.0650
G92 E0.0000
G1 X129.2010 Y120.2400 E0.0064 F4800 ; custom feedrate
G1 X129.2010 Y120.3210 E0.0085
G1 X128.8340 Y120.6880 E0.0219
G1 X128.0710 Y119.9250 E0.0498
G1 X127.1120 Y119.6840 E0.0754
G1 X126.9580 Y119.6270 E0.0796
G1 X128.4260 Y121.0950 E0.1333
G1 X128.0190 Y121.5020 E0.1482
G1 X125.5560 Y119.0390 E0.2383
;layer 2, Z = 0.240
M106 S255; custom fan 100% from layer 2
G1 X125.4100 Y118.5040 F20000 ; custom feedrate
G92 E0.0000
G1 X126.2590 Y118.9250 Z0.121 E0.0103 F12000 ; custom feedrate
G1 X127.2340 Y119.2870 Z0.121 E0.0216
G1 X128.1610 Y119.5210 Z0.122 E0.0320
G1 X129.1460 Y119.6640 Z0.122 E0.0430
G1 X129.6150 Y119.6890 Z0.123 E0.0482
G1 X129.6150 Y120.4930 Z0.123 E0.0570
G1 X120.4560 Y129.6520 Z0.131 E0.2094
G1 X129.6150 Y138.8110 Z0.139 E0.3709
G1 X129.6150 Y139.6010 Z0.139 E0.3807
G1 X128.2480 Y139.6010 Z0.140 E0.3979
G1 X128.2190 Y139.4550 Z0.140 E0.3998
G1 X128.1110 Y139.1980 Z0.140 E0.4033
G1 X127.9520 Y138.9450 Z0.141 E0.4071
G1 X127.7590 Y138.7310 Z0.141 E0.4107
G1 X127.5330 Y138.5530 Z0.141 E0.4144
G1 X127.2820 Y138.4150 Z0.141 E0.4180
G1 X127.0100 Y138.3200 Z0.141 E0.4217
G1 X126.7270 Y138.2730 Z0.141 E0.4253
G1 X126.4380 Y138.2730 Z0.142 E0.4290
G1 X126.1250 Y138.3310 Z0.142 E0.4330
G1 X125.8850 Y138.4150 Z0.142 E0.4363
G1 X125.6340 Y138.5530 Z0.142 E0.4399
G1 X125.4170 Y138.7230 Z0.142 E0.4435
G1 X125.2160 Y138.9440 Z0.142 E0.4473
G1 X125.0610 Y139.1870 Z0.143 E0.4510
G1 X124.9480 Y139.4550 Z0.143 E0.4547
G1 X124.9180 Y139.6010 Z0.143 E0.4566
G1 X123.5510 Y139.6010 Z0.144 E0.4743
G1 X123.5510 Y138.2670 Z0.145 E0.4916
G1 X121.4490 Y138.2670 Z0.146 E0.5191
G1 X121.4490 Y139.6010 Z0.147 E0.5367
G1 X119.9090 Y139.6010 Z0.148 E0.5570
G1 X118.4170 Y138.1080 Z0.149 E0.5853
G1 X116.9240 Y139.6010 Z0.150 E0.6137
G1 X115.0060 Y139.6010 Z0.151 E0.6398
G1 X114.5180 Y139.5750 Z0.152 E0.6464
G1 X114.0400 Y139.5000 Z0.152 E0.6530
G1 X113.5740 Y139.3750 Z0.152 E0.6596
G1 X113.1230 Y139.2010 Z0.152 E0.6662
G1 X112.7750 Y139.0240 Z0.153 E0.6716
G1 X112.2860 Y138.7180 Z0.153 E0.6795
G1 X111.9120 Y138.4150 Z0.153 E0.6861
G1 X111.5700 Y138.0730 Z0.154 E0.6928
G1 X111.3240 Y137.7700 Z0.154 E0.6982
G1 X111.0020 Y137.2910 Z0.154 E0.7062
G1 X110.7840 Y136.8620 Z0.154 E0.7129
G1 X110.6110 Y136.4110 Z0.155 E0.7196
G1 X110.4860 Y135.9450 Z0.155 E0.7263
G1 X110.4100 Y135.4680 Z0.155 E0.7330
G1 X110.3850 Y134.9790 Z0.156 E0.7399
G1 X110.3850 Y124.9790 Z0.162 E0.8851
G1 X110.3550 Y124.4220 Z0.162 E0.8932
G1 X110.2670 Y123.8660 Z0.162 E0.9014
G1 X110.1210 Y123.3210 Z0.163 E0.9096
G1 X109.9190 Y122.7950 Z0.163 E0.9179
G1 X109.6630 Y122.2930 Z0.163 E0.9262
G1 X109.3560 Y121.8200 Z0.164 E0.9345
G1 X109.0020 Y121.3820 Z0.164 E0.9428
G1 X108.6030 Y120.9840 Z0.164 E0.9511
G1 X108.1650 Y120.6290 Z0.165 E0.9594
G1 X107.6920 Y120.3220 Z0.165 E0.9678
G1 X107.1900 Y120.0660 Z0.165 E0.9762
G1 X106.6640 Y119.8640 Z0.166 E0.9845
G1 X106.1200 Y119.7180 Z0.166 E0.9930
G1 X105.5630 Y119.6300 Z0.166 E1.0014
G1 X105.0060 Y119.6010 Z0.167 E1.0097
G1 X90.3850 Y119.6010 Z0.176 E1.2403
G1 X90.3850 Y99.9920 Z0.187 E1.5705
G1 X90.5000 Y97.8650 Z0.189 E1.6066
G1 X90.8440 Y95.7690 Z0.190 E1.6429
G1 X91.4120 Y93.7220 Z0.191 E1.6794
G1 X92.1980 Y91.7490 Z0.193 E1.7161
G1 X93.1930 Y89.8730 Z0.194 E1.7531
G1 X94.3850 Y88.1150 Z0.195 E1.7903
G1 X95.7600 Y86.4960 Z0.196 E1.8278
G1 X97.0280 Y85.2950 Z0.198 E1.8588
G1 X97.3020 Y85.0350 Z0.198 E1.8655
G1 X98.9920 Y83.7500 Z0.199 E1.9034
G1 X100.8120 Y82.6550 Z0.200 E1.9417
G1 X102.7400 Y81.7630 Z0.202 E1.9801
G1 X104.7520 Y81.0850 Z0.203 E2.0188
G1 X106.8270 Y80.6290 Z0.204 E2.0578
G1 X108.9380 Y80.3990 Z0.205 E2.0969
G1 X111.0620 Y80.3990 Z0.207 E2.1364
G1 X113.1730 Y80.6290 Z0.208 E2.1761
G1 X115.2480 Y81.0850 Z0.209 E2.2160
G1 X117.2600 Y81.7630 Z0.211 E2.2562
G1 X119.1880 Y82.6550 Z0.212 E2.2966
G1 X121.0080 Y83.7500 Z0.213 E2.3372
G1 X122.6980 Y85.0350 Z0.214 E2.3781
G1 X124.2400 Y86.4960 Z0.216 E2.4193
G1 X125.3710 Y87.8280 Z0.217 E2.4533
G1 X125.6150 Y88.1150 Z0.217 E2.4606
G1 X126.8070 Y89.8730 Z0.218 E2.5023
G1 X127.8020 Y91.7490 Z0.220 E2.5442
G1 X128.5880 Y93.7220 Z0.221 E2.5863
G1 X129.1560 Y95.7690 Z0.222 E2.6287
G1 X129.5000 Y97.8650 Z0.223 E2.6713
G1 X129.6150 Y99.9920 Z0.225 E2.7143
G1 X129.6150 Y100.9480 Z0.225 E2.7336
G1 X129.1460 Y100.9730 Z0.226 E2.7431
G1 X128.1610 Y101.1160 Z0.226 E2.7634
G1 X127.2340 Y101.3510 Z0.227 E2.7828
G1 X126.2590 Y101.7120 Z0.227 E2.8041
G1 X125.4100 Y102.1330 Z0.228 E2.8235
G1 X124.5700 Y102.6640 Z0.229 E2.8439
G1 X123.7910 Y103.2820 Z0.229 E2.8643
G1 X123.0810 Y103.9780 Z0.230 E2.8848
G1 X122.4490 Y104.7450 Z0.230 E2.9054
G1 X121.9020 Y105.5750 Z0.231 E2.9260
G1 X121.4460 Y106.4580 Z0.232 E2.9467
G1 X121.0850 Y107.3850 Z0.232 E2.9674
G1 X120.8250 Y108.3440 Z0.233 E2.9882
G1 X120.6680 Y109.3270 Z0.233 E3.0091
G1 X120.6170 Y110.4070 Z0.234 E3.0318
G1 X120.6680 Y111.3120 Z0.235 E3.0509
G1 X120.8250 Y112.2930 Z0.235 E3.0719
G1 X121.0850 Y113.2520 Z0.236 E3.0929
G1 X121.4170 Y114.1110 Z0.236 E3.1125
G1 X121.8660 Y114.9970 Z0.237 E3.1336
G1 X121.9630 Y115.1590 Z0.237 E3.1376
G1 X122.4490 Y115.8920 Z0.238 E3.1564
G1 X123.0810 Y116.6600 Z0.238 E3.1777
G1 X123.7910 Y117.3560 Z0.239 E3.1990
G1 X124.5700 Y117.9730 Z0.239 E3.2203
G1 X125.4100 Y118.5040 Z0.240 E3.2418
;layer 3, Z = 0.360
G92 E0.0000
G1 X126.2320 Y118.9080 Z0.241 E0.0197 F12000 ; custom feedrate
G1 X127.2370 Y119.2790 Z0.241 E0.0428
G1 X128.1380 Y119.5030 Z0.242 E0.0628
G1 X129.1240 Y119.6450 Z0.242 E0.0843
G1 X129.6340 Y119.6710 Z0.243 E0.0953
G1 X129.6370 Y120.2490 Z0.243 E0.1078
G1 X129.6370 Y120.5010 Z0.243 E0.1132
G1 X120.4860 Y129.6520 Z0.251 E0.3921
G1 X129.6370 Y138.8030 Z0.259 E0.6710
G1 X129.6370 Y139.6220 Z0.259 E0.6887
G1 X128.2300 Y139.6220 Z0.260 E0.7190
G1 X128.1990 Y139.4630 Z0.260 E0.7225
G1 X128.0960 Y139.2160 Z0.260 E0.7283
G1 X127.9350 Y138.9590 Z0.261 E0.7348
G1 X127.7630 Y138.7650 Z0.261 E0.7404
G1 X127.5260 Y138.5740 Z0.261 E0.7469
G1 X127.2730 Y138.4340 Z0.261 E0.7532
G1 X127.0050 Y138.3410 Z0.261 E0.7593
G1 X126.7250 Y138.2940 Z0.261 E0.7654
G1 X126.4380 Y138.2940 Z0.262 E0.7716
G1 X126.1090 Y138.3580 Z0.262 E0.7788
G1 X125.8930 Y138.4340 Z0.262 E0.7838
G1 X125.6460 Y138.5700 Z0.262 E0.7898
G1 X125.4380 Y138.7330 Z0.262 E0.7955
G1 X125.2320 Y138.9570 Z0.262 E0.8021
G1 X125.0700 Y139.2160 Z0.263 E0.8087
G1 X124.9680 Y139.4630 Z0.263 E0.8144
G1 X124.9360 Y139.6220 Z0.263 E0.8179
G1 X123.5300 Y139.6220 Z0.264 E0.8482
G1 X123.5300 Y138.2890 Z0.265 E0.8770
G1 X121.4700 Y138.2890 Z0.266 E0.9214
G1 X121.4700 Y139.6220 Z0.267 E0.9501
G1 X119.9010 Y139.6220 Z0.268 E0.9839
G1 X118.4170 Y138.1380 Z0.269 E1.0292
G1 X116.9330 Y139.6220 Z0.270 E1.0744
G1 X115.0060 Y139.6220 Z0.271 E1.1159
G1 X114.5150 Y139.5960 Z0.272 E1.1265
G1 X114.0360 Y139.5200 Z0.272 E1.1370
G1 X113.5670 Y139.3950 Z0.272 E1.1474
G1 X113.1140 Y139.2210 Z0.272 E1.1579
G1 X112.8110 Y139.0660 Z0.273 E1.1652
G1 X112.6820 Y139.0000 Z0.273 E1.1683
G1 X112.2750 Y138.7360 Z0.273 E1.1788
G1 X111.8980 Y138.4310 Z0.273 E1.1893
G1 X111.5550 Y138.0880 Z0.274 E1.1997
G1 X111.3400 Y137.8230 Z0.274 E1.2071
G1 X111.2490 Y137.7100 Z0.274 E1.2102
G1 X110.9850 Y137.3030 Z0.274 E1.2206
G1 X110.7650 Y136.8710 Z0.275 E1.2311
G1 X110.5910 Y136.4180 Z0.275 E1.2416
G1 X110.4650 Y135.9490 Z0.275 E1.2520
G1 X110.3890 Y135.4700 Z0.275 E1.2625
G1 X110.3630 Y134.9790 Z0.276 E1.2731
G1 X110.3630 Y124.9790 Z0.282 E1.4886
G1 X110.3340 Y124.4250 Z0.282 E1.5006
G1 X110.2470 Y123.8700 Z0.282 E1.5127
G1 X110.1010 Y123.3280 Z0.283 E1.5248
G1 X109.9000 Y122.8040 Z0.283 E1.5369
G1 X109.6450 Y122.3030 Z0.283 E1.5490
G1 X109.3390 Y121.8330 Z0.284 E1.5611
G1 X108.9860 Y121.3960 Z0.284 E1.5732
G1 X108.5890 Y120.9990 Z0.284 E1.5853
G1 X108.1530 Y120.6460 Z0.285 E1.5974
G1 X107.6820 Y120.3400 Z0.285 E1.6095
G1 X107.1820 Y120.0850 Z0.285 E1.6216
G1 X106.6570 Y119.8840 Z0.286 E1.6337
G1 X106.1150 Y119.7390 Z0.286 E1.6458
G1 X105.5610 Y119.6510 Z0.286 E1.6579
G1 X105.0060 Y119.6220 Z0.287 E1.6698
G1 X90.3630 Y119.6220 Z0.296 E1.9854
G1 X90.3630 Y99.9920 Z0.308 E2.4085
G1 X90.4790 Y97.8620 Z0.309 E2.4545
G1 X90.8230 Y95.7640 Z0.310 E2.5003
G1 X91.3920 Y93.7150 Z0.311 E2.5461
G1 X92.1790 Y91.7400 Z0.313 E2.5919
G1 X93.1750 Y89.8620 Z0.314 E2.6378
G1 X94.3680 Y88.1020 Z0.315 E2.6836
G1 X95.7440 Y86.4820 Z0.316 E2.7294
G1 X96.8260 Y85.4570 Z0.317 E2.7615
G1 X97.2880 Y85.0190 Z0.318 E2.7752
G1 X98.9800 Y83.7330 Z0.319 E2.8211
G1 X100.8020 Y82.6360 Z0.320 E2.8669
G1 X102.7320 Y81.7440 Z0.322 E2.9127
G1 X104.7470 Y81.0650 Z0.323 E2.9585
G1 X106.8230 Y80.6080 Z0.324 E3.0044
G1 X108.9370 Y80.3780 Z0.325 E3.0502
G1 X111.0630 Y80.3780 Z0.327 E3.0960
G1 X113.1770 Y80.6080 Z0.328 E3.1418
G1 X115.2530 Y81.0650 Z0.329 E3.1877
G1 X117.2680 Y81.7440 Z0.331 E3.2335
G1 X119.1980 Y82.6360 Z0.332 E3.2793
G1 X121.0200 Y83.7330 Z0.333 E3.3251
G1 X122.7120 Y85.0190 Z0.334 E3.3710
G1 X124.2560 Y86.4820 Z0.336 E3.4168
G1 X125.6320 Y88.1020 Z0.337 E3.4626
G1 X126.8250 Y89.8620 Z0.338 E3.5084
G1 X127.8210 Y91.7400 Z0.340 E3.5543
G1 X128.6080 Y93.7150 Z0.341 E3.6001
G1 X129.1770 Y95.7640 Z0.342 E3.6459
G1 X129.5210 Y97.8620 Z0.343 E3.6917
G1 X129.6370 Y99.9920 Z0.345 E3.7377
G1 X129.6370 Y100.9690 Z0.345 E3.7587
G1 X129.1250 Y100.9960 Z0.346 E3.7698
G1 X128.1400 Y101.1420 Z0.346 E3.7913
G1 X127.2400 Y101.3710 Z0.347 E3.8113
G1 X126.2390 Y101.7440 Z0.347 E3.8343
G1 X125.4200 Y102.1510 Z0.348 E3.8540
G1 X124.5820 Y102.6810 Z0.349 E3.8754
G1 X123.8050 Y103.2970 Z0.349 E3.8967
G1 X123.0970 Y103.9920 Z0.350 E3.9181
G1 X122.4660 Y104.7580 Z0.350 E3.9395
G1 X121.9200 Y105.5860 Z0.351 E3.9609
G1 X121.4650 Y106.4670 Z0.352 E3.9823
G1 X121.1050 Y107.3920 Z0.352 E4.0036
G1 X120.8460 Y108.3490 Z0.353 E4.0250
G1 X120.6890 Y109.3280 Z0.353 E4.0464
G1 X120.6360 Y110.3180 Z0.354 E4.0678
G1 X120.6770 Y111.1630 Z0.355 E4.0860
G1 X120.7100 Y111.4670 Z0.355 E4.0926
G1 X120.8200 Y112.1520 Z0.355 E4.1075
G1 X120.8860 Y112.4500 Z0.355 E4.1141
G1 X121.1060 Y113.2460 Z0.356 E4.1319
G1 X121.4650 Y114.1700 Z0.356 E4.1533
G1 X121.8620 Y114.9470 Z0.357 E4.1721
G1 X122.0200 Y115.2090 Z0.357 E4.1787
G1 X122.4670 Y115.8800 Z0.358 E4.1960
G1 X123.0970 Y116.6450 Z0.358 E4.2174
G1 X123.8050 Y117.3400 Z0.359 E4.2388
G1 X124.5820 Y117.9560 Z0.359 E4.2602
G1 X125.4200 Y118.4860 Z0.360 E4.2815
;layer 4, Z = 0.480
G92 E0.0000
G1 X126.2120 Y118.8760 Z0.361 E0.0190 F12000 ; custom feedrate
G1 X127.2420 Y119.2580 Z0.361 E0.0427
G1 X128.1160 Y119.4770 Z0.362 E0.0621
G1 X129.1030 Y119.6220 Z0.362 E0.0836
G1 X129.6550 Y119.6500 Z0.363 E0.0955
G1 X129.6580 Y120.2170 Z0.363 E0.1078
G1 X129.6580 Y120.5100 Z0.363 E0.1141
G1 X120.5160 Y129.6520 Z0.371 E0.3927
G1 X129.6580 Y138.7940 Z0.379 E0.6714
G1 X129.6580 Y139.6430 Z0.379 E0.6897
G1 X128.2210 Y139.6430 Z0.380 E0.7206
G1 X128.1770 Y139.4650 Z0.380 E0.7246
G1 X128.0810 Y139.2340 Z0.380 E0.7300
G1 X127.9190 Y138.9720 Z0.381 E0.7366
G1 X127.7550 Y138.7880 Z0.381 E0.7419
G1 X127.5170 Y138.5930 Z0.381 E0.7486
G1 X127.2650 Y138.4540 Z0.381 E0.7548
G1 X127.0000 Y138.3610 Z0.381 E0.7608
G1 X126.7230 Y138.3150 Z0.381 E0.7669
G1 X126.4390 Y138.3150 Z0.382 E0.7730
G1 X126.0940 Y138.3850 Z0.382 E0.7806
G1 X125.9010 Y138.4540 Z0.382 E0.7850
G1 X125.6570 Y138.5880 Z0.382 E0.7910
G1 X125.4590 Y138.7420 Z0.382 E0.7964
G1 X125.2490 Y138.9700 Z0.382 E0.8031
G1 X125.0840 Y139.2360 Z0.383 E0.8098
G1 X124.9720 Y139.5290 Z0.383 E0.8166
G1 X124.9520 Y139.6430 Z0.383 E0.8191
G1 X123.5090 Y139.6430 Z0.384 E0.8502
G1 X123.5090 Y138.3100 Z0.385 E0.8789
G1 X121.4910 Y138.3100 Z0.386 E0.9224
G1 X121.4910 Y139.6430 Z0.387 E0.9512
G1 X119.8920 Y139.6430 Z0.388 E0.9856
G1 X118.4170 Y138.1680 Z0.389 E1.0306
G1 X116.9420 Y139.6430 Z0.390 E1.0756
G1 X115.0060 Y139.6430 Z0.391 E1.1173
G1 X114.5130 Y139.6170 Z0.392 E1.1279
G1 X114.0320 Y139.5410 Z0.392 E1.1384
G1 X113.5610 Y139.4150 Z0.392 E1.1489
G1 X113.1060 Y139.2400 Z0.392 E1.1594
G1 X112.8560 Y139.1130 Z0.393 E1.1655
G1 X112.6710 Y139.0190 Z0.393 E1.1699
G1 X112.2630 Y138.7530 Z0.393 E1.1804
G1 X111.8840 Y138.4460 Z0.393 E1.1909
G1 X111.5390 Y138.1020 Z0.394 E1.2015
G1 X111.3620 Y137.8840 Z0.394 E1.2075
G1 X111.2320 Y137.7230 Z0.394 E1.2120
G1 X110.9670 Y137.3140 Z0.394 E1.2225
G1 X110.7450 Y136.8800 Z0.395 E1.2330
G1 X110.5710 Y136.4250 Z0.395 E1.2435
G1 X110.4440 Y135.9540 Z0.395 E1.2540
G1 X110.3680 Y135.4720 Z0.395 E1.2645
G1 X110.3420 Y134.9790 Z0.396 E1.2751
G1 X110.3420 Y124.9790 Z0.402 E1.4907
G1 X110.3130 Y124.4270 Z0.402 E1.5026
G1 X110.2260 Y123.8750 Z0.402 E1.5146
G1 X110.0810 Y123.3340 Z0.403 E1.5267
G1 X109.8810 Y122.8120 Z0.403 E1.5387
G1 X109.6270 Y122.3140 Z0.403 E1.5508
G1 X109.3220 Y121.8450 Z0.404 E1.5628
G1 X108.9700 Y121.4100 Z0.404 E1.5749
G1 X108.5750 Y121.0150 Z0.404 E1.5869
G1 X108.1400 Y120.6630 Z0.405 E1.5990
G1 X107.6710 Y120.3590 Z0.405 E1.6111
G1 X107.1730 Y120.1050 Z0.405 E1.6231
G1 X106.6510 Y119.9040 Z0.406 E1.6352
G1 X106.1110 Y119.7590 Z0.406 E1.6472
G1 X105.5580 Y119.6720 Z0.406 E1.6593
G1 X105.0060 Y119.6430 Z0.407 E1.6712
G1 X90.3420 Y119.6430 Z0.416 E1.9872
G1 X90.3420 Y99.9920 Z0.428 E2.4108
G1 X90.4580 Y97.8600 Z0.429 E2.4568
G1 X90.8020 Y95.7600 Z0.430 E2.5026
G1 X91.3720 Y93.7090 Z0.431 E2.5485
G1 X92.1590 Y91.7310 Z0.433 E2.5944
G1 X93.1560 Y89.8510 Z0.434 E2.6403
G1 X94.3510 Y88.0890 Z0.435 E2.6861
G1 X95.7290 Y86.4670 Z0.437 E2.7320
G1 X96.6230 Y85.6200 Z0.437 E2.7586
G1 X97.2740 Y85.0030 Z0.438 E2.7779
G1 X98.9680 Y83.7150 Z0.439 E2.8238
G1 X100.7920 Y82.6180 Z0.440 E2.8696
G1 X102.7240 Y81.7240 Z0.442 E2.9155
G1 X104.7410 Y81.0440 Z0.443 E2.9614
G1 X106.8200 Y80.5870 Z0.444 E3.0073
G1 X108.9360 Y80.3570 Z0.446 E3.0531
G1 X111.0640 Y80.3570 Z0.447 E3.0990
G1 X113.1800 Y80.5870 Z0.448 E3.1449
G1 X115.2590 Y81.0440 Z0.449 E3.1908
G1 X117.2760 Y81.7240 Z0.451 E3.2366
G1 X119.2080 Y82.6180 Z0.452 E3.2825
G1 X121.0310 Y83.7150 Z0.453 E3.3284
G1 X122.7260 Y85.0030 Z0.454 E3.3742
G1 X124.2710 Y86.4670 Z0.456 E3.4201
G1 X125.6490 Y88.0890 Z0.457 E3.4660
G1 X126.8440 Y89.8510 Z0.458 E3.5119
G1 X127.8410 Y91.7310 Z0.460 E3.5577
G1 X128.6280 Y93.7090 Z0.461 E3.6036
G1 X129.1980 Y95.7600 Z0.462 E3.6495
G1 X129.5420 Y97.8600 Z0.463 E3.6954
G1 X129.6580 Y99.9920 Z0.465 E3.7414
G1 X129.6580 Y100.9900 Z0.465 E3.7629
G1 X129.1040 Y101.0200 Z0.466 E3.7748
G1 X128.1180 Y101.1680 Z0.466 E3.7963
G1 X127.2460 Y101.3910 Z0.467 E3.8157
G1 X126.2190 Y101.7760 Z0.468 E3.8394
G1 X125.4300 Y102.1700 Z0.468 E3.8584
G1 X124.5940 Y102.6990 Z0.469 E3.8797
G1 X123.8190 Y103.3130 Z0.469 E3.9010
G1 X123.1120 Y104.0060 Z0.470 E3.9223
G1 X122.4830 Y104.7700 Z0.470 E3.9437
G1 X121.9390 Y105.5970 Z0.471 E3.9650
G1 X121.4840 Y106.4760 Z0.472 E3.9863
G1 X121.1260 Y107.3980 Z0.472 E4.0077
G1 X120.8660 Y108.3530 Z0.473 E4.0290
G1 X120.7100 Y109.3300 Z0.473 E4.0503
G1 X120.6570 Y110.3180 Z0.474 E4.0716
G1 X120.6940 Y111.1050 Z0.475 E4.0886
G1 X120.7390 Y111.5250 Z0.475 E4.0977
G1 X120.8310 Y112.0950 Z0.475 E4.1102
G1 X120.9220 Y112.5080 Z0.475 E4.1193
G1 X121.1260 Y113.2400 Z0.476 E4.1357
G1 X121.4840 Y114.1610 Z0.476 E4.1569
G1 X121.8580 Y114.8960 Z0.477 E4.1747
G1 X122.0760 Y115.2590 Z0.477 E4.1838
G1 X122.4840 Y115.8680 Z0.478 E4.1996
G1 X123.1120 Y116.6310 Z0.478 E4.2210
G1 X123.8190 Y117.3240 Z0.479 E4.2423
G1 X124.5940 Y117.9390 Z0.479 E4.2636
G1 X125.4300 Y118.4670 Z0.480 E4.2849
;layer 5, Z = 0.600
;
G92 E0.0000
G1 X126.3230 Y118.8970 Z0.481 E0.0213 F12000 ; custom feedrate
G1 X127.2490 Y119.2380 Z0.481 E0.0426
G1 X128.0950 Y119.4510 Z0.482 E0.0614
G1 X129.0820 Y119.5990 Z0.482 E0.0829
G1 X129.6770 Y119.6290 Z0.483 E0.0958
G1 X129.6790 Y120.1860 Z0.483 E0.1078
G1 X129.6790 Y120.5190 Z0.483 E0.1150
G1 X120.5460 Y129.6520 Z0.491 E0.3933
G1 X129.6790 Y138.7850 Z0.499 E0.6717
G1 X129.6790 Y139.6640 Z0.499 E0.6906
G1 X128.2020 Y139.6640 Z0.500 E0.7225
G1 X128.1570 Y139.4720 Z0.500 E0.7267
G1 X128.0660 Y139.2510 Z0.500 E0.7319
G1 X127.9030 Y138.9850 Z0.501 E0.7386
G1 X127.7480 Y138.8100 Z0.501 E0.7436
G1 X127.5070 Y138.6110 Z0.501 E0.7504
G1 X127.2560 Y138.4730 Z0.501 E0.7565
G1 X126.9940 Y138.3820 Z0.501 E0.7625
G1 X126.7220 Y138.3360 Z0.502 E0.7685
G1 X126.4440 Y138.3360 Z0.502 E0.7745
G1 X126.1550 Y138.3860 Z0.502 E0.7808
G1 X125.8620 Y138.4970 Z0.502 E0.7875
G1 X125.6680 Y138.6060 Z0.502 E0.7923
G1 X125.4800 Y138.7520 Z0.502 E0.7975
G1 X125.2660 Y138.9830 Z0.503 E0.8043
G1 X125.0980 Y139.2540 Z0.503 E0.8111
G1 X124.9870 Y139.5530 Z0.503 E0.8180
G1 X124.9690 Y139.6640 Z0.503 E0.8204
G1 X123.4880 Y139.6640 Z0.504 E0.8523
G1 X123.4880 Y138.3310 Z0.505 E0.8811
G1 X121.5120 Y138.3310 Z0.506 E0.9237
G1 X121.5120 Y139.6640 Z0.507 E0.9524
G1 X119.8830 Y139.6640 Z0.508 E0.9875
G1 X118.4170 Y138.1980 Z0.509 E1.0322
G1 X116.9500 Y139.6640 Z0.510 E1.0769
G1 X115.0060 Y139.6640 Z0.511 E1.1188
G1 X114.5110 Y139.6380 Z0.512 E1.1295
G1 X114.0270 Y139.5620 Z0.512 E1.1400
G1 X113.5540 Y139.4350 Z0.512 E1.1506
G1 X113.0970 Y139.2590 Z0.512 E1.1612
G1 X112.9010 Y139.1600 Z0.513 E1.1659
G1 X112.6610 Y139.0370 Z0.513 E1.1717
G1 X112.2500 Y138.7700 Z0.513 E1.1823
G1 X111.8690 Y138.4620 Z0.513 E1.1928
G1 X111.5230 Y138.1160 Z0.514 E1.2034
G1 X111.2150 Y137.7350 Z0.514 E1.2139
G1 X110.9480 Y137.3250 Z0.514 E1.2245
G1 X110.7260 Y136.8880 Z0.515 E1.2350
G1 X110.5500 Y136.4310 Z0.515 E1.2456
G1 X110.4240 Y135.9580 Z0.515 E1.2561
G1 X110.3470 Y135.4740 Z0.515 E1.2667
G1 X110.3210 Y134.9790 Z0.516 E1.2774
G1 X110.3210 Y124.9790 Z0.522 E1.4929
G1 X110.2920 Y124.4290 Z0.522 E1.5048
G1 X110.2050 Y123.8790 Z0.522 E1.5168
G1 X110.0610 Y123.3410 Z0.523 E1.5288
G1 X109.8610 Y122.8210 Z0.523 E1.5408
G1 X109.6080 Y122.3250 Z0.523 E1.5528
G1 X109.4480 Y122.0770 Z0.524 E1.5592
G1 X109.3050 Y121.8570 Z0.524 E1.5648
G1 X108.9550 Y121.4250 Z0.524 E1.5768
G1 X108.5610 Y121.0310 Z0.524 E1.5888
G1 X108.1280 Y120.6800 Z0.525 E1.6008
G1 X107.6610 Y120.3770 Z0.525 E1.6128
G1 X107.1640 Y120.1240 Z0.525 E1.6248
G1 X106.6440 Y119.9240 Z0.526 E1.6368
G1 X106.1060 Y119.7800 Z0.526 E1.6488
G1 X105.5560 Y119.6930 Z0.526 E1.6608
G1 X105.0060 Y119.6640 Z0.527 E1.6727
G1 X90.3210 Y119.6640 Z0.536 E1.9892
G1 X90.3210 Y99.9920 Z0.548 E2.4132
G1 X90.4370 Y97.8580 Z0.549 E2.4593
G1 X90.7820 Y95.7550 Z0.550 E2.5052
G1 X91.3520 Y93.7020 Z0.551 E2.5511
G1 X92.1400 Y91.7230 Z0.553 E2.5970
G1 X93.1380 Y89.8400 Z0.554 E2.6430
G1 X94.3340 Y88.0760 Z0.555 E2.6889
G1 X95.7130 Y86.4520 Z0.557 E2.7348
G1 X96.4210 Y85.7820 Z0.557 E2.7558
G1 X97.2600 Y84.9870 Z0.558 E2.7807
G1 X98.9570 Y83.6980 Z0.559 E2.8267
G1 X100.7820 Y82.5990 Z0.560 E2.8726
G1 X102.7160 Y81.7040 Z0.562 E2.9185
G1 X104.7350 Y81.0240 Z0.563 E2.9644
G1 X106.8160 Y80.5660 Z0.564 E3.0104
G1 X108.9350 Y80.3360 Z0.566 E3.0563
G1 X111.0650 Y80.3360 Z0.567 E3.1022
G1 X113.1840 Y80.5660 Z0.568 E3.1481
G1 X115.2650 Y81.0240 Z0.569 E3.1940
G1 X117.2840 Y81.7040 Z0.571 E3.2400
G1 X119.2180 Y82.5990 Z0.572 E3.2859
G1 X121.0430 Y83.6980 Z0.573 E3.3318
G1 X122.7400 Y84.9870 Z0.575 E3.3777
G1 X124.2870 Y86.4520 Z0.576 E3.4237
G1 X125.6660 Y88.0760 Z0.577 E3.4696
G1 X126.8620 Y89.8400 Z0.578 E3.5155
G1 X127.8600 Y91.7220 Z0.580 E3.5614
G1 X128.6480 Y93.7020 Z0.581 E3.6074
G1 X129.2180 Y95.7550 Z0.582 E3.6533
G1 X129.5630 Y97.8580 Z0.584 E3.6992
G1 X129.6790 Y99.9920 Z0.585 E3.7453
G1 X129.6790 Y101.0110 Z0.585 E3.7672
G1 X129.0830 Y101.0430 Z0.586 E3.7801
G1 X128.0970 Y101.1940 Z0.586 E3.8016
G1 X127.2530 Y101.4110 Z0.587 E3.8204
G1 X126.3270 Y101.7520 Z0.587 E3.8416
G1 X125.4410 Y102.1880 Z0.588 E3.8629
G1 X124.6070 Y102.7160 Z0.589 E3.8842
G1 X123.8330 Y103.3290 Z0.589 E3.9055
G1 X123.1280 Y104.0210 Z0.590 E3.9268
G1 X122.5000 Y104.7830 Z0.590 E3.9480
G1 X121.9570 Y105.6070 Z0.591 E3.9693
G1 X121.5040 Y106.4850 Z0.592 E3.9906
G1 X121.1460 Y107.4050 Z0.592 E4.0119
G1 X120.8870 Y108.3580 Z0.593 E4.0332
G1 X120.7310 Y109.3330 Z0.593 E4.0544
G1 X120.6790 Y110.3180 Z0.594 E4.0757
G1 X120.7100 Y111.0430 Z0.594 E4.0914
G1 X120.7310 Y111.3070 Z0.595 E4.0971
G1 X120.8410 Y112.0370 Z0.595 E4.1130
G1 X120.9580 Y112.5650 Z0.595 E4.1246
G1 X121.1460 Y113.2340 Z0.596 E4.1396
G1 X121.5030 Y114.1520 Z0.596 E4.1608
G1 X121.8540 Y114.8450 Z0.597 E4.1776
G1 X122.1330 Y115.3090 Z0.597 E4.1892
G1 X122.5010 Y115.8550 Z0.598 E4.2034
G1 X123.1280 Y116.6170 Z0.598 E4.2247
G1 X123.8330 Y117.3080 Z0.599 E4.2460
G1 X124.6070 Y117.9210 Z0.599 E4.2673
G1 X125.4410 Y118.4490 Z0.600 E4.2885
;layer 6, Z = 0.720
G92 E0.0000
G1 X126.3280 Y118.8820 Z0.601 E0.0213 F12000 ; custom feedrate
G1 X127.2550 Y119.2180 Z0.601 E0.0425
G1 X128.0730 Y119.4250 Z0.602 E0.0607
G1 X129.0610 Y119.5760 Z0.602 E0.0822
G1 X129.6980 Y119.6080 Z0.603 E0.0960
G1 X129.7000 Y120.1550 Z0.603 E0.1078
G1 X129.7000 Y120.5280 Z0.603 E0.1158
G1 X120.5760 Y129.6520 Z0.611 E0.3939
G1 X129.7000 Y138.7760 Z0.619 E0.6720
G1 X129.7000 Y139.6850 Z0.619 E0.6916
G1 X128.1880 Y139.6850 Z0.620 E0.7242
G1 X128.1870 Y139.6770 Z0.620 E0.7244
G1 X128.1360 Y139.4770 Z0.620 E0.7288
G1 X128.0510 Y139.2690 Z0.621 E0.7337
G1 X127.8860 Y138.9990 Z0.621 E0.7405
G1 X127.7410 Y138.8330 Z0.621 E0.7452
G1 X127.4970 Y138.6300 Z0.621 E0.7521
G1 X127.2480 Y138.4920 Z0.621 E0.7582
G1 X126.9890 Y138.4020 Z0.621 E0.7641
G1 X126.7200 Y138.3570 Z0.622 E0.7700
G1 X126.4460 Y138.3570 Z0.622 E0.7759
G1 X126.1560 Y138.4080 Z0.622 E0.7823
G1 X125.8590 Y138.5210 Z0.622 E0.7891
G1 X125.6720 Y138.6290 Z0.622 E0.7938
G1 X125.5000 Y138.7620 Z0.622 E0.7985
G1 X125.2820 Y138.9960 Z0.623 E0.8053
G1 X125.1130 Y139.2730 Z0.623 E0.8123
G1 X125.0020 Y139.5780 Z0.623 E0.8193
G1 X124.9860 Y139.6850 Z0.623 E0.8217
G1 X123.4670 Y139.6850 Z0.624 E0.8544
G1 X123.4670 Y138.3520 Z0.625 E0.8832
G1 X121.5330 Y138.3520 Z0.626 E0.9248
G1 X121.5330 Y139.6850 Z0.627 E0.9536
G1 X119.8740 Y139.6850 Z0.628 E0.9893
G1 X118.4170 Y138.2280 Z0.629 E1.0338
G1 X116.9590 Y139.6850 Z0.630 E1.0782
G1 X115.0060 Y139.6850 Z0.631 E1.1203
G1 X114.5090 Y139.6590 Z0.632 E1.1310
G1 X114.0230 Y139.5820 Z0.632 E1.1416
G1 X113.5480 Y139.4550 Z0.632 E1.1522
G1 X113.0880 Y139.2790 Z0.633 E1.1628
G1 X112.9470 Y139.2070 Z0.633 E1.1662
G1 X112.6500 Y139.0550 Z0.633 E1.1734
G1 X112.2380 Y138.7880 Z0.633 E1.1840
G1 X111.8550 Y138.4780 Z0.633 E1.1946
G1 X111.5070 Y138.1300 Z0.634 E1.2052
G1 X111.1980 Y137.7480 Z0.634 E1.2158
G1 X110.9300 Y137.3350 Z0.634 E1.2264
G1 X110.7070 Y136.8970 Z0.635 E1.2370
G1 X110.5300 Y136.4380 Z0.635 E1.2476
G1 X110.4030 Y135.9630 Z0.635 E1.2582
G1 X110.3260 Y135.4770 Z0.635 E1.2688
G1 X110.3000 Y134.9790 Z0.636 E1.2796
G1 X110.3000 Y124.9790 Z0.642 E1.4951
G1 X110.2710 Y124.4310 Z0.642 E1.5069
G1 X110.1840 Y123.8830 Z0.642 E1.5189
G1 X110.0410 Y123.3470 Z0.643 E1.5308
G1 X109.8420 Y122.8300 Z0.643 E1.5428
G1 X109.5900 Y122.3350 Z0.643 E1.5548
G1 X109.3950 Y122.0350 Z0.644 E1.5625
G1 X109.2880 Y121.8700 Z0.644 E1.5667
G1 X108.9390 Y121.4390 Z0.644 E1.5787
G1 X108.5470 Y121.0460 Z0.644 E1.5906
G1 X108.1150 Y120.6970 Z0.645 E1.6026
G1 X107.6500 Y120.3950 Z0.645 E1.6145
G1 X107.1560 Y120.1430 Z0.645 E1.6265
G1 X106.6380 Y119.9440 Z0.646 E1.6385
G1 X106.1020 Y119.8010 Z0.646 E1.6504
G1 X105.5540 Y119.7140 Z0.646 E1.6624
G1 X105.0060 Y119.6850 Z0.647 E1.6742
G1 X90.3000 Y119.6850 Z0.656 E1.9911
G1 X90.3000 Y99.9920 Z0.668 E2.4156
G1 X90.4160 Y97.8550 Z0.669 E2.4617
G1 X90.7610 Y95.7500 Z0.670 E2.5077
G1 X91.3320 Y93.6950 Z0.671 E2.5537
G1 X92.1210 Y91.7140 Z0.673 E2.5996
G1 X93.1200 Y89.8290 Z0.674 E2.6456
G1 X94.3170 Y88.0640 Z0.675 E2.6916
G1 X95.6980 Y86.4380 Z0.677 E2.7375
G1 X96.2180 Y85.9450 Z0.677 E2.7530
G1 X97.2470 Y84.9710 Z0.678 E2.7835
G1 X98.9450 Y83.6800 Z0.679 E2.8295
G1 X100.7730 Y82.5800 Z0.680 E2.8755
G1 X102.7080 Y81.6850 Z0.682 E2.9214
G1 X104.7300 Y81.0040 Z0.683 E2.9674
G1 X106.8130 Y80.5450 Z0.684 E3.0134
G1 X108.9330 Y80.3150 Z0.686 E3.0593
G1 X111.0670 Y80.3150 Z0.687 E3.1053
G1 X113.1870 Y80.5450 Z0.688 E3.1513
G1 X115.2700 Y81.0040 Z0.689 E3.1973
G1 X117.2920 Y81.6850 Z0.691 E3.2432
G1 X119.2270 Y82.5800 Z0.692 E3.2892
G1 X121.0550 Y83.6800 Z0.693 E3.3352
G1 X122.7530 Y84.9710 Z0.695 E3.3812
G1 X124.3020 Y86.4380 Z0.696 E3.4271
G1 X125.6830 Y88.0640 Z0.697 E3.4731
G1 X126.8800 Y89.8290 Z0.698 E3.5191
G1 X127.8790 Y91.7140 Z0.700 E3.5650
G1 X128.6680 Y93.6950 Z0.701 E3.6110
G1 X129.2390 Y95.7500 Z0.702 E3.6570
G1 X129.5840 Y97.8550 Z0.704 E3.7030
G1 X129.7000 Y99.9920 Z0.705 E3.7491
G1 X129.7000 Y101.0320 Z0.705 E3.7715
G1 X129.0610 Y101.0660 Z0.706 E3.7853
G1 X128.0760 Y101.2200 Z0.706 E3.8068
G1 X127.2590 Y101.4320 Z0.707 E3.8250
G1 X126.3350 Y101.7710 Z0.708 E3.8462
G1 X125.4510 Y102.2070 Z0.708 E3.8674
G1 X124.6190 Y102.7330 Z0.709 E3.8886
G1 X123.8470 Y103.3450 Z0.709 E3.9099
G1 X123.1440 Y104.0350 Z0.710 E3.9311
G1 X122.5170 Y104.7960 Z0.711 E3.9523
G1 X121.9750 Y105.6180 Z0.711 E3.9736
G1 X121.5230 Y106.4930 Z0.712 E3.9948
G1 X121.1660 Y107.4110 Z0.712 E4.0160
G1 X120.9080 Y108.3620 Z0.713 E4.0373
G1 X120.7520 Y109.3350 Z0.713 E4.0585
G1 X120.7000 Y110.3170 Z0.714 E4.0797
G1 X120.7270 Y110.9850 Z0.714 E4.0941
G1 X120.7520 Y111.3040 Z0.715 E4.1010
G1 X120.8520 Y111.9790 Z0.715 E4.1157
G1 X120.9940 Y112.6230 Z0.715 E4.1299
G1 X121.1660 Y113.2270 Z0.716 E4.1435
G1 X121.5220 Y114.1430 Z0.716 E4.1646
G1 X121.8490 Y114.7940 Z0.717 E4.1803
G1 X122.1890 Y115.3580 Z0.717 E4.1945
G1 X122.5180 Y115.8430 Z0.718 E4.2072
G1 X123.1440 Y116.6020 Z0.718 E4.2284
G1 X123.8470 Y117.2920 Z0.719 E4.2496
G1 X124.6190 Y117.9040 Z0.719 E4.2708
G1 X125.4510 Y118.4310 Z0.720 E4.2921
;layer 7, Z = 0.840
G92 E0.0000
G1 X126.3370 Y118.8630 Z0.721 E0.0212 F12000 ; custom feedrate
G1 X127.2630 Y119.1980 Z0.721 E0.0425
G1 X128.2170 Y119.4310 Z0.722 E0.0636
G1 X129.0400 Y119.5520 Z0.722 E0.0816
G1 X129.7190 Y119.5870 Z0.723 E0.0962
G1 X129.7210 Y120.1240 Z0.723 E0.1078
G1 X129.7210 Y120.5370 Z0.723 E0.1167
G1 X120.6060 Y129.6520 Z0.731 E0.3945
G1 X129.7210 Y138.7670 Z0.739 E0.6724
G1 X129.7210 Y139.7070 Z0.739 E0.6926
G1 X128.1680 Y139.7070 Z0.740 E0.7261
G1 X128.1630 Y139.6630 Z0.740 E0.7270
G1 X128.0660 Y139.3560 Z0.741 E0.7340
G1 X127.9770 Y139.1750 Z0.741 E0.7383
G1 X127.8670 Y139.0090 Z0.741 E0.7426
G1 X127.7340 Y138.8560 Z0.741 E0.7470
G1 X127.4870 Y138.6490 Z0.741 E0.7539
G1 X127.2390 Y138.5120 Z0.741 E0.7600
G1 X126.9840 Y138.4230 Z0.741 E0.7658
G1 X126.7140 Y138.3770 Z0.742 E0.7717
G1 X126.3590 Y138.3890 Z0.742 E0.7794
G1 X126.1600 Y138.4290 Z0.742 E0.7838
G1 X125.9680 Y138.4950 Z0.742 E0.7881
G1 X125.6930 Y138.6400 Z0.742 E0.7948
G1 X125.4800 Y138.8080 Z0.742 E0.8007
G1 X125.2980 Y139.0110 Z0.743 E0.8066
G1 X125.1270 Y139.2910 Z0.743 E0.8136
G1 X125.0170 Y139.6020 Z0.743 E0.8207
G1 X125.0030 Y139.7070 Z0.743 E0.8230
G1 X123.4450 Y139.7070 Z0.744 E0.8566
G1 X123.4450 Y138.3730 Z0.745 E0.8853
G1 X121.5550 Y138.3730 Z0.746 E0.9261
G1 X121.5550 Y139.7070 Z0.747 E0.9548
G1 X119.8650 Y139.7070 Z0.748 E0.9912
G1 X118.4170 Y138.2580 Z0.749 E1.0354
G1 X116.9680 Y139.7070 Z0.750 E1.0795
G1 X115.0060 Y139.7070 Z0.751 E1.1218
G1 X114.5070 Y139.6800 Z0.752 E1.1326
G1 X114.0180 Y139.6030 Z0.752 E1.1433
G1 X113.5430 Y139.4760 Z0.752 E1.1539
G1 X112.9830 Y139.2490 Z0.753 E1.1669
G1 X112.6400 Y139.0740 Z0.753 E1.1752
G1 X112.2250 Y138.8050 Z0.753 E1.1858
G1 X111.8410 Y138.4940 Z0.753 E1.1965
G1 X111.4920 Y138.1440 Z0.754 E1.2071
G1 X111.1810 Y137.7600 Z0.754 E1.2178
G1 X110.9120 Y137.3460 Z0.754 E1.2284
G1 X110.6870 Y136.9050 Z0.755 E1.2391
G1 X110.5100 Y136.4440 Z0.755 E1.2497
G1 X110.3820 Y135.9670 Z0.755 E1.2604
G1 X110.3050 Y135.4790 Z0.756 E1.2710
G1 X110.2790 Y134.9790 Z0.756 E1.2818
G1 X110.2790 Y124.9790 Z0.762 E1.4974
G1 X110.2500 Y124.4340 Z0.762 E1.5091
G1 X110.1640 Y123.8880 Z0.762 E1.5210
G1 X110.0210 Y123.3540 Z0.763 E1.5330
G1 X109.8230 Y122.8380 Z0.763 E1.5449
G1 X109.5720 Y122.3460 Z0.763 E1.5568
G1 X109.3430 Y121.9930 Z0.764 E1.5658
G1 X109.2710 Y121.8820 Z0.764 E1.5687
G1 X108.9230 Y121.4530 Z0.764 E1.5806
G1 X108.5320 Y121.0620 Z0.764 E1.5925
G1 X108.1030 Y120.7140 Z0.765 E1.6044
G1 X107.6400 Y120.4130 Z0.765 E1.6163
G1 X107.1470 Y120.1630 Z0.765 E1.6282
G1 X106.6310 Y119.9650 Z0.766 E1.6401
G1 X106.0980 Y119.8220 Z0.766 E1.6520
G1 X105.5520 Y119.7350 Z0.766 E1.6640
G1 X105.0060 Y119.7070 Z0.767 E1.6757
G1 X90.2790 Y119.7070 Z0.776 E1.9931
G1 X90.2790 Y99.9920 Z0.788 E2.4180
G1 X90.3950 Y97.8530 Z0.789 E2.4642
G1 X90.7400 Y95.7460 Z0.790 E2.5102
G1 X91.3110 Y93.6880 Z0.791 E2.5563
G1 X92.1020 Y91.7050 Z0.793 E2.6023
G1 X93.1020 Y89.8180 Z0.794 E2.6483
G1 X94.3000 Y88.0510 Z0.795 E2.6943
G1 X95.6830 Y86.4230 Z0.797 E2.7403
G1 X96.0160 Y86.1080 Z0.797 E2.7502
G1 X97.2330 Y84.9550 Z0.798 E2.7864
G1 X98.9330 Y83.6630 Z0.799 E2.8324
G1 X100.7630 Y82.5620 Z0.800 E2.8784
G1 X102.7010 Y81.6650 Z0.802 E2.9244
G1 X104.7240 Y80.9830 Z0.803 E2.9705
G1 X106.8100 Y80.5240 Z0.804 E3.0165
G1 X108.9320 Y80.2930 Z0.806 E3.0625
G1 X111.0680 Y80.2930 Z0.807 E3.1085
G1 X113.1900 Y80.5240 Z0.808 E3.1545
G1 X115.2760 Y80.9830 Z0.809 E3.2006
G1 X117.2990 Y81.6650 Z0.811 E3.2466
G1 X119.2370 Y82.5620 Z0.812 E3.2926
G1 X121.0670 Y83.6630 Z0.813 E3.3386
G1 X122.7670 Y84.9550 Z0.815 E3.3846
G1 X124.3170 Y86.4230 Z0.816 E3.4307
G1 X125.7000 Y88.0510 Z0.817 E3.4767
G1 X126.8980 Y89.8180 Z0.818 E3.5227
G1 X127.8980 Y91.7050 Z0.820 E3.5687
G1 X128.6890 Y93.6880 Z0.821 E3.6148
G1 X129.2600 Y95.7460 Z0.822 E3.6608
G1 X129.6050 Y97.8530 Z0.824 E3.7068
G1 X129.7210 Y99.9920 Z0.825 E3.7530
G1 X129.7210 Y101.0530 Z0.825 E3.7758
G1 X129.0410 Y101.0900 Z0.826 E3.7905
G1 X128.2180 Y101.2120 Z0.826 E3.8084
G1 X127.2660 Y101.4510 Z0.827 E3.8296
G1 X126.3430 Y101.7900 Z0.828 E3.8508
G1 X125.4620 Y102.2250 Z0.828 E3.8720
G1 X124.6310 Y102.7500 Z0.829 E3.8932
G1 X123.8610 Y103.3610 Z0.829 E3.9143
G1 X123.1590 Y104.0490 Z0.830 E3.9355
G1 X122.5340 Y104.8080 Z0.831 E3.9567
G1 X121.9930 Y105.6290 Z0.831 E3.9779
G1 X121.5420 Y106.5020 Z0.832 E3.9991
G1 X121.1860 Y107.4180 Z0.832 E4.0203
G1 X120.9290 Y108.3670 Z0.833 E4.0414
G1 X120.7730 Y109.3370 Z0.833 E4.0626
G1 X120.7210 Y110.3170 Z0.834 E4.0838
G1 X120.7430 Y110.9260 Z0.834 E4.0969
G1 X120.7730 Y111.3010 Z0.835 E4.1050
G1 X120.8620 Y111.9190 Z0.835 E4.1185
G1 X120.9290 Y112.2710 Z0.835 E4.1262
G1 X121.0300 Y112.6840 Z0.836 E4.1354
G1 X121.1870 Y113.2210 Z0.836 E4.1474
G1 X121.5420 Y114.1340 Z0.836 E4.1685
G1 X121.8450 Y114.7430 Z0.837 E4.1832
G1 X122.2460 Y115.4080 Z0.837 E4.1999
G1 X122.5360 Y115.8310 Z0.838 E4.2110
G1 X123.1590 Y116.5880 Z0.838 E4.2321
G1 X123.8610 Y117.2760 Z0.839 E4.2533
G1 X124.6310 Y117.8870 Z0.839 E4.2745
G1 X125.4620 Y118.4120 Z0.840 E4.2957
;layer 8, Z = 0.960
G92 E0.0000
G1 X126.3450 Y118.8430 Z0.841 E0.0212 F12000 ; custom feedrate
G1 X127.2680 Y119.1780 Z0.841 E0.0424
G1 X128.2220 Y119.4130 Z0.842 E0.0635
G1 X129.1930 Y119.5440 Z0.842 E0.0846
G1 X129.7400 Y119.5680 Z0.843 E0.0964
G1 X129.7420 Y120.0950 Z0.843 E0.1078
G1 X129.7420 Y120.5450 Z0.843 E0.1175
G1 X120.6360 Y129.6520 Z0.851 E0.3951
G1 X129.7420 Y138.7590 Z0.859 E0.6727
G1 X129.7420 Y139.7280 Z0.859 E0.6935
G1 X128.1480 Y139.7280 Z0.860 E0.7279
G1 X128.1400 Y139.6540 Z0.860 E0.7295
G1 X128.0380 Y139.3420 Z0.861 E0.7366
G1 X127.9490 Y139.1680 Z0.861 E0.7408
G1 X127.7330 Y138.8840 Z0.861 E0.7485
G1 X127.4770 Y138.6680 Z0.861 E0.7557
G1 X127.2300 Y138.5310 Z0.861 E0.7618
G1 X126.9790 Y138.4430 Z0.861 E0.7675
G1 X126.7120 Y138.3980 Z0.862 E0.7733
G1 X126.3400 Y138.4120 Z0.862 E0.7814
G1 X125.9890 Y138.5080 Z0.862 E0.7892
G1 X125.7050 Y138.6570 Z0.862 E0.7961
G1 X125.4950 Y138.8240 Z0.862 E0.8019
G1 X125.3140 Y139.0240 Z0.863 E0.8077
G1 X125.1410 Y139.3100 Z0.863 E0.8149
G1 X125.0260 Y139.6530 Z0.863 E0.8227
G1 X125.0180 Y139.7280 Z0.863 E0.8243
G1 X123.4240 Y139.7280 Z0.864 E0.8587
G1 X123.4240 Y138.3940 Z0.865 E0.8874
G1 X121.5760 Y138.3940 Z0.866 E0.9273
G1 X121.5760 Y139.7280 Z0.867 E0.9560
G1 X119.8570 Y139.7280 Z0.868 E0.9930
G1 X118.4170 Y138.2880 Z0.869 E1.0369
G1 X116.9770 Y139.7280 Z0.870 E1.0808
G1 X115.0060 Y139.7280 Z0.871 E1.1233
G1 X114.5040 Y139.7010 Z0.872 E1.1341
G1 X114.0140 Y139.6240 Z0.872 E1.1448
G1 X113.5360 Y139.4960 Z0.872 E1.1555
G1 X113.0270 Y139.2950 Z0.873 E1.1673
G1 X112.6290 Y139.0920 Z0.873 E1.1769
G1 X112.2130 Y138.8220 Z0.873 E1.1876
G1 X111.8270 Y138.5090 Z0.873 E1.1983
G1 X111.4760 Y138.1580 Z0.874 E1.2090
G1 X111.1640 Y137.7730 Z0.874 E1.2197
G1 X110.8930 Y137.3560 Z0.874 E1.2304
G1 X110.6680 Y136.9140 Z0.875 E1.2411
G1 X110.4900 Y136.4510 Z0.875 E1.2518
G1 X110.3620 Y135.9710 Z0.875 E1.2625
G1 X110.2840 Y135.4810 Z0.876 E1.2732
G1 X110.2580 Y134.9790 Z0.876 E1.2840
G1 X110.2580 Y124.9790 Z0.882 E1.4996
G1 X110.2290 Y124.4360 Z0.882 E1.5113
G1 X110.1430 Y123.8920 Z0.883 E1.5231
G1 X110.0010 Y123.3610 Z0.883 E1.5350
G1 X109.8030 Y122.8470 Z0.883 E1.5469
G1 X109.5540 Y122.3560 Z0.884 E1.5587
G1 X109.2840 Y121.9410 Z0.884 E1.5694
G1 X108.9080 Y121.4680 Z0.884 E1.5824
G1 X108.5180 Y121.0780 Z0.885 E1.5943
G1 X108.0910 Y120.7320 Z0.885 E1.6062
G1 X107.6290 Y120.4320 Z0.885 E1.6180
G1 X107.1390 Y120.1820 Z0.885 E1.6299
G1 X106.6250 Y119.9850 Z0.886 E1.6418
G1 X106.0930 Y119.8420 Z0.886 E1.6536
G1 X105.5500 Y119.7560 Z0.886 E1.6655
G1 X105.0060 Y119.7280 Z0.887 E1.6772
G1 X90.2580 Y119.7280 Z0.896 E1.9951
G1 X90.2580 Y99.9920 Z0.908 E2.4204
G1 X90.3740 Y97.8510 Z0.909 E2.4666
G1 X90.7200 Y95.7410 Z0.910 E2.5127
G1 X91.2910 Y93.6820 Z0.911 E2.5588
G1 X92.0830 Y91.6960 Z0.913 E2.6049
G1 X93.0840 Y89.8070 Z0.914 E2.6509
G1 X94.2840 Y88.0380 Z0.915 E2.6970
G1 X95.6670 Y86.4090 Z0.917 E2.7431
G1 X95.8140 Y86.2700 Z0.917 E2.7474
G1 X97.2190 Y84.9390 Z0.918 E2.7891
G1 X98.9210 Y83.6450 Z0.919 E2.8352
G1 X100.7530 Y82.5430 Z0.920 E2.8813
G1 X102.6930 Y81.6450 Z0.922 E2.9274
G1 X104.7180 Y80.9630 Z0.923 E2.9734
G1 X106.8060 Y80.5030 Z0.924 E3.0195
G1 X108.9310 Y80.2720 Z0.926 E3.0656
G1 X111.0690 Y80.2720 Z0.927 E3.1116
G1 X113.1940 Y80.5030 Z0.928 E3.1577
G1 X115.2820 Y80.9630 Z0.929 E3.2038
G1 X117.3070 Y81.6450 Z0.931 E3.2499
G1 X119.2470 Y82.5430 Z0.932 E3.2959
G1 X121.0790 Y83.6450 Z0.933 E3.3420
G1 X122.7810 Y84.9390 Z0.935 E3.3881
G1 X124.3330 Y86.4090 Z0.936 E3.4341
G1 X125.7160 Y88.0380 Z0.937 E3.4802
G1 X126.9160 Y89.8070 Z0.938 E3.5263
G1 X127.9170 Y91.6960 Z0.940 E3.5724
G1 X128.7090 Y93.6820 Z0.941 E3.6184
G1 X129.2800 Y95.7410 Z0.942 E3.6645
G1 X129.6260 Y97.8510 Z0.944 E3.7106
G1 X129.7420 Y99.9920 Z0.945 E3.7568
G1 X129.7420 Y101.0720 Z0.946 E3.7801
G1 X129.1930 Y101.0960 Z0.946 E3.7919
G1 X128.2230 Y101.2330 Z0.946 E3.8130
G1 X127.2720 Y101.4720 Z0.947 E3.8341
G1 X126.3520 Y101.8100 Z0.948 E3.8553
G1 X125.4720 Y102.2430 Z0.948 E3.8764
G1 X124.6430 Y102.7680 Z0.949 E3.8976
G1 X123.8780 Y103.3740 Z0.949 E3.9186
G1 X123.6560 Y103.5770 Z0.950 E3.9251
G1 X123.1760 Y104.0620 Z0.950 E3.9398
G1 X122.9660 Y104.3010 Z0.950 E3.9466
G1 X122.5530 Y104.8190 Z0.951 E3.9609
G1 X122.3580 Y105.0940 Z0.951 E3.9682
G1 X122.0130 Y105.6380 Z0.951 E3.9821
G1 X121.8390 Y105.9490 Z0.951 E3.9898
G1 X121.5620 Y106.5090 Z0.952 E4.0032
G1 X121.4160 Y106.8550 Z0.952 E4.0113
G1 X121.2070 Y107.4230 Z0.952 E4.0244
G1 X121.0920 Y107.8010 Z0.953 E4.0329
G1 X120.9500 Y108.3700 Z0.953 E4.0455
G1 X120.8730 Y108.7760 Z0.953 E4.0544
G1 X120.7940 Y109.3390 Z0.954 E4.0667
G1 X120.7600 Y109.7700 Z0.954 E4.0760
G1 X120.7420 Y110.3190 Z0.954 E4.0878
G1 X120.7600 Y110.8680 Z0.954 E4.0997
G1 X120.7940 Y111.2980 Z0.955 E4.1090
G1 X120.8570 Y111.7640 Z0.955 E4.1191
G1 X120.9490 Y112.2670 Z0.955 E4.1301
G1 X121.0920 Y112.8370 Z0.956 E4.1428
G1 X121.2070 Y113.2140 Z0.956 E4.1513
G1 X121.4160 Y113.7830 Z0.956 E4.1643
G1 X121.5620 Y114.1280 Z0.956 E4.1724
G1 X121.7940 Y114.6010 Z0.957 E4.1838
G1 X122.0120 Y114.9980 Z0.957 E4.1935
G1 X122.3040 Y115.4610 Z0.957 E4.2053
G1 X122.5520 Y115.8170 Z0.958 E4.2147
G1 X122.9660 Y116.3370 Z0.958 E4.2290
G1 X123.1760 Y116.5750 Z0.958 E4.2359
G1 X123.5860 Y116.9910 Z0.959 E4.2484
G1 X123.8770 Y117.2630 Z0.959 E4.2570
G1 X124.6430 Y117.8700 Z0.959 E4.2781
G1 X125.4720 Y118.3940 Z0.960 E4.2992
;layer 9, Z = 1.080
G92 E0.0000
G1 X126.3530 Y118.8240 Z0.961 E0.0211 F12000 ; custom feedrate
G1 X127.2740 Y119.1590 Z0.961 E0.0423
G1 X128.2250 Y119.3940 Z0.962 E0.0634
G1 X129.1940 Y119.5280 Z0.962 E0.0845
G1 X129.7580 Y119.5500 Z0.963 E0.0966
G1 X129.7600 Y120.0730 Z0.963 E0.1079
G1 X129.7600 Y120.5530 Z0.963 E0.1182
G1 X120.6610 Y129.6520 Z0.971 E0.3956
G1 X129.7600 Y138.7510 Z0.979 E0.6729
G1 X129.7600 Y139.7450 Z0.979 E0.6943
G1 X128.1320 Y139.7450 Z0.980 E0.7294
G1 X128.1210 Y139.6470 Z0.980 E0.7316
G1 X128.0150 Y139.3300 Z0.981 E0.7388
G1 X127.9290 Y139.1680 Z0.981 E0.7427
G1 X127.7270 Y138.9020 Z0.981 E0.7499
G1 X127.4690 Y138.6830 Z0.981 E0.7572
G1 X127.2230 Y138.5470 Z0.981 E0.7633
G1 X126.9730 Y138.4600 Z0.981 E0.7690
G1 X126.6670 Y138.4130 Z0.982 E0.7756
G1 X126.3290 Y138.4310 Z0.982 E0.7829
G1 X126.0010 Y138.5220 Z0.982 E0.7903
G1 X125.7150 Y138.6720 Z0.982 E0.7972
G1 X125.5070 Y138.8370 Z0.982 E0.8029
G1 X125.3280 Y139.0350 Z0.983 E0.8087
G1 X125.1540 Y139.3240 Z0.983 E0.8160
G1 X125.0450 Y139.6470 Z0.983 E0.8233
G1 X125.0350 Y139.7450 Z0.983 E0.8254
G1 X123.4070 Y139.7450 Z0.984 E0.8605
G1 X123.4070 Y138.4120 Z0.985 E0.8893
G1 X121.5930 Y138.4120 Z0.986 E0.9284
G1 X121.5930 Y139.7450 Z0.987 E0.9571
G1 X119.8490 Y139.7450 Z0.988 E0.9947
G1 X118.4170 Y138.3130 Z0.989 E1.0383
G1 X116.9840 Y139.7450 Z0.990 E1.0820
G1 X115.0060 Y139.7450 Z0.991 E1.1246
G1 X114.5020 Y139.7190 Z0.992 E1.1355
G1 X114.0100 Y139.6410 Z0.992 E1.1463
G1 X113.5290 Y139.5120 Z0.992 E1.1570
G1 X113.0640 Y139.3340 Z0.993 E1.1677
G1 X112.6200 Y139.1070 Z0.993 E1.1785
G1 X112.2020 Y138.8360 Z0.993 E1.1892
G1 X111.8150 Y138.5220 Z0.993 E1.1999
G1 X111.4630 Y138.1700 Z0.994 E1.2107
G1 X111.1490 Y137.7830 Z0.994 E1.2214
G1 X110.8780 Y137.3650 Z0.994 E1.2322
G1 X110.6520 Y136.9210 Z0.995 E1.2429
G1 X110.4730 Y136.4560 Z0.995 E1.2536
G1 X110.3440 Y135.9750 Z0.995 E1.2644
G1 X110.2660 Y135.4830 Z0.996 E1.2751
G1 X110.2400 Y134.9790 Z0.996 E1.2860
G1 X110.2400 Y124.9790 Z1.002 E1.5015
G1 X110.2120 Y124.4380 Z1.002 E1.5132
G1 X110.1260 Y123.8960 Z1.003 E1.5250
G1 X109.9840 Y123.3660 Z1.003 E1.5368
G1 X109.7870 Y122.8540 Z1.003 E1.5487
G1 X109.5380 Y122.3650 Z1.004 E1.5605
G1 X109.2400 Y121.9050 Z1.004 E1.5723
G1 X108.8940 Y121.4790 Z1.004 E1.5841
G1 X108.5060 Y121.0910 Z1.005 E1.5959
G1 X108.0800 Y120.7460 Z1.005 E1.6078
G1 X107.6200 Y120.4470 Z1.005 E1.6196
G1 X107.1310 Y120.1980 Z1.006 E1.6314
G1 X106.6190 Y120.0010 Z1.006 E1.6432
G1 X106.0900 Y119.8600 Z1.006 E1.6551
G1 X105.5480 Y119.7740 Z1.006 E1.6669
G1 X105.0060 Y119.7450 Z1.007 E1.6786
G1 X90.2400 Y119.7450 Z1.016 E1.9968
G1 X90.2400 Y99.9920 Z1.028 E2.4225
G1 X90.3560 Y97.8490 Z1.029 E2.4688
G1 X90.7020 Y95.7380 Z1.030 E2.5149
G1 X91.2750 Y93.6760 Z1.031 E2.5610
G1 X92.0670 Y91.6880 Z1.033 E2.6071
G1 X93.0660 Y89.8030 Z1.034 E2.6531
G1 X94.2700 Y88.0270 Z1.035 E2.6994
G1 X95.6550 Y86.3970 Z1.037 E2.7455
G1 X97.2080 Y84.9250 Z1.038 E2.7916
G1 X98.9110 Y83.6310 Z1.039 E2.8377
G1 X100.7440 Y82.5270 Z1.040 E2.8838
G1 X102.6860 Y81.6290 Z1.042 E2.9299
G1 X104.7140 Y80.9460 Z1.043 E2.9760
G1 X106.8030 Y80.4860 Z1.044 E3.0222
G1 X108.9300 Y80.2550 Z1.046 E3.0683
G1 X111.0700 Y80.2550 Z1.047 E3.1144
G1 X113.1970 Y80.4860 Z1.048 E3.1605
G1 X115.2860 Y80.9460 Z1.049 E3.2066
G1 X117.3140 Y81.6290 Z1.051 E3.2527
G1 X119.2560 Y82.5270 Z1.052 E3.2988
G1 X121.0890 Y83.6310 Z1.053 E3.3449
G1 X122.7920 Y84.9250 Z1.055 E3.3910
G1 X124.3450 Y86.3970 Z1.056 E3.4372
G1 X125.7310 Y88.0270 Z1.057 E3.4833
G1 X126.9310 Y89.7980 Z1.058 E3.5294
G1 X127.9330 Y91.6880 Z1.060 E3.5755
G1 X128.7250 Y93.6760 Z1.061 E3.6216
G1 X129.2980 Y95.7380 Z1.062 E3.6677
G1 X129.6440 Y97.8490 Z1.064 E3.7138
G1 X129.7600 Y99.9920 Z1.065 E3.7601
G1 X129.7600 Y101.0890 Z1.066 E3.7837
G1 X129.1950 Y101.1140 Z1.066 E3.7959
G1 X128.2270 Y101.2500 Z1.066 E3.8170
G1 X127.2770 Y101.4890 Z1.067 E3.8381
G1 X126.3590 Y101.8260 Z1.068 E3.8592
G1 X125.4850 Y102.2570 Z1.068 E3.8802
G1 X125.2340 Y102.4030 Z1.068 E3.8864
G1 X124.6560 Y102.7810 Z1.069 E3.9013
G1 X124.4060 Y102.9640 Z1.069 E3.9080
G1 X123.8880 Y103.3890 Z1.069 E3.9224
G1 X123.6440 Y103.6120 Z1.070 E3.9296
G1 X123.1890 Y104.0740 Z1.070 E3.9435
G1 X122.9560 Y104.3380 Z1.070 E3.9511
G1 X122.5670 Y104.8300 Z1.071 E3.9647
G1 X122.3510 Y105.1350 Z1.071 E3.9727
G1 X122.0280 Y105.6470 Z1.071 E3.9858
G1 X121.8360 Y105.9920 Z1.071 E3.9943
G1 X121.5780 Y106.5170 Z1.072 E4.0069
G1 X121.4160 Y106.8990 Z1.072 E4.0158
G1 X121.2230 Y107.4290 Z1.072 E4.0280
G1 X121.0970 Y107.8470 Z1.073 E4.0374
G1 X120.9670 Y108.3740 Z1.073 E4.0491
G1 X120.8820 Y108.8240 Z1.073 E4.0590
G1 X120.8120 Y109.3410 Z1.074 E4.0702
G1 X120.7730 Y109.8190 Z1.074 E4.0805
G1 X120.7600 Y110.3190 Z1.074 E4.0913
G1 X120.7730 Y110.8190 Z1.074 E4.1021
G1 X120.8120 Y111.2960 Z1.075 E4.1124
G1 X120.8820 Y111.8130 Z1.075 E4.1237
G1 X120.9670 Y112.2630 Z1.075 E4.1335
G1 X121.0970 Y112.7900 Z1.076 E4.1452
G1 X121.2230 Y113.2080 Z1.076 E4.1546
G1 X121.4160 Y113.7380 Z1.076 E4.1668
G1 X121.5780 Y114.1200 Z1.076 E4.1757
G1 X121.8360 Y114.6460 Z1.077 E4.1883
G1 X122.0280 Y114.9900 Z1.077 E4.1968
G1 X122.3510 Y115.5030 Z1.077 E4.2099
G1 X122.5670 Y115.8070 Z1.078 E4.2180
G1 X122.9560 Y116.2990 Z1.078 E4.2315
G1 X123.1890 Y116.5630 Z1.078 E4.2391
G1 X123.6440 Y117.0250 Z1.079 E4.2530
G1 X123.8880 Y117.2490 Z1.079 E4.2602
G1 X124.4060 Y117.6730 Z1.079 E4.2746
G1 X124.6560 Y117.8560 Z1.079 E4.2813
G1 X125.2340 Y118.2350 Z1.080 E4.2962
G1 X125.4850 Y118.3800 Z1.080 E4.3024
;layer 10, Z = 1.200
G92 E0.0000
G1 X126.3590 Y118.8110 Z1.081 E0.0210 F12000 ; custom feedrate
G1 X127.2770 Y119.1490 Z1.081 E0.0421
G1 X128.2270 Y119.3870 Z1.082 E0.0632
G1 X129.1950 Y119.5240 Z1.082 E0.0843
G1 X129.7600 Y119.5480 Z1.083 E0.0965
G1 X129.7600 Y120.5530 Z1.083 E0.1181
G1 X120.6610 Y129.6520 Z1.091 E0.3954
G1 X129.7600 Y138.7510 Z1.099 E0.6728
G1 X129.7600 Y139.7450 Z1.099 E0.6942
G1 X128.1320 Y139.7450 Z1.100 E0.7293
G1 X128.1210 Y139.6470 Z1.100 E0.7314
G1 X128.0150 Y139.3300 Z1.101 E0.7386
G1 X127.9290 Y139.1680 Z1.101 E0.7426
G1 X127.7270 Y138.9020 Z1.101 E0.7498
G1 X127.4690 Y138.6830 Z1.101 E0.7571
G1 X127.2230 Y138.5470 Z1.101 E0.7631
G1 X126.9730 Y138.4600 Z1.101 E0.7689
G1 X126.6670 Y138.4130 Z1.102 E0.7755
G1 X126.3290 Y138.4310 Z1.102 E0.7828
G1 X126.0010 Y138.5220 Z1.102 E0.7901
G1 X125.7150 Y138.6720 Z1.102 E0.7971
G1 X125.5070 Y138.8370 Z1.102 E0.8028
G1 X125.3280 Y139.0350 Z1.103 E0.8086
G1 X125.1540 Y139.3240 Z1.103 E0.8159
G1 X125.0450 Y139.6470 Z1.103 E0.8232
G1 X125.0350 Y139.7450 Z1.103 E0.8253
G1 X123.4070 Y139.7450 Z1.104 E0.8604
G1 X123.4070 Y138.4120 Z1.105 E0.8892
G1 X121.5930 Y138.4120 Z1.106 E0.9282
G1 X121.5930 Y139.7450 Z1.107 E0.9570
G1 X119.8490 Y139.7450 Z1.108 E0.9946
G1 X118.4170 Y138.3130 Z1.109 E1.0382
G1 X116.9840 Y139.7450 Z1.110 E1.0819
G1 X115.0060 Y139.7450 Z1.111 E1.1245
G1 X114.5020 Y139.7190 Z1.112 E1.1354
G1 X114.0100 Y139.6410 Z1.112 E1.1461
G1 X113.5290 Y139.5120 Z1.112 E1.1569
G1 X113.0640 Y139.3340 Z1.113 E1.1676
G1 X112.6200 Y139.1070 Z1.113 E1.1783
G1 X112.2020 Y138.8360 Z1.113 E1.1891
G1 X111.8150 Y138.5220 Z1.113 E1.1998
G1 X111.4630 Y138.1700 Z1.114 E1.2106
G1 X111.1490 Y137.7830 Z1.114 E1.2213
G1 X110.8780 Y137.3650 Z1.114 E1.2320
G1 X110.6520 Y136.9210 Z1.115 E1.2428
G1 X110.4730 Y136.4560 Z1.115 E1.2535
G1 X110.3440 Y135.9750 Z1.115 E1.2642
G1 X110.2660 Y135.4830 Z1.116 E1.2750
G1 X110.2400 Y134.9790 Z1.116 E1.2859
G1 X110.2400 Y124.9790 Z1.122 E1.5014
G1 X110.2120 Y124.4380 Z1.122 E1.5131
G1 X110.1260 Y123.8960 Z1.123 E1.5249
G1 X109.9840 Y123.3660 Z1.123 E1.5367
G1 X109.7870 Y122.8540 Z1.123 E1.5485
G1 X109.5380 Y122.3650 Z1.124 E1.5604
G1 X109.2400 Y121.9050 Z1.124 E1.5722
G1 X108.8940 Y121.4790 Z1.124 E1.5840
G1 X108.5060 Y121.0910 Z1.125 E1.5958
G1 X108.0800 Y120.7460 Z1.125 E1.6076
G1 X107.6200 Y120.4470 Z1.125 E1.6195
G1 X107.1310 Y120.1980 Z1.126 E1.6313
G1 X106.6190 Y120.0010 Z1.126 E1.6431
G1 X106.0900 Y119.8600 Z1.126 E1.6549
G1 X105.5480 Y119.7740 Z1.126 E1.6668
G1 X105.0060 Y119.7450 Z1.127 E1.6784
G1 X90.2400 Y119.7450 Z1.136 E1.9967
G1 X90.2400 Y99.9920 Z1.148 E2.4224
G1 X90.3560 Y97.8490 Z1.149 E2.4687
G1 X90.7020 Y95.7380 Z1.150 E2.5148
G1 X91.2750 Y93.6760 Z1.151 E2.5609
G1 X92.0670 Y91.6880 Z1.153 E2.6070
G1 X93.0510 Y89.8310 Z1.154 E2.6523
G1 X94.2700 Y88.0270 Z1.155 E2.6992
G1 X95.6550 Y86.3970 Z1.157 E2.7453
G1 X97.2080 Y84.9250 Z1.158 E2.7915
G1 X98.9110 Y83.6310 Z1.159 E2.8376
G1 X100.7440 Y82.5270 Z1.160 E2.8837
G1 X102.6860 Y81.6290 Z1.162 E2.9298
G1 X104.7140 Y80.9460 Z1.163 E2.9759
G1 X106.8030 Y80.4860 Z1.164 E3.0220
G1 X108.9300 Y80.2550 Z1.166 E3.0681
G1 X111.0700 Y80.2550 Z1.167 E3.1142
G1 X113.1970 Y80.4860 Z1.168 E3.1604
G1 X115.2860 Y80.9460 Z1.169 E3.2065
G1 X117.3140 Y81.6290 Z1.171 E3.2526
G1 X119.2560 Y82.5270 Z1.172 E3.2987
G1 X121.0890 Y83.6310 Z1.173 E3.3448
G1 X122.7920 Y84.9250 Z1.175 E3.3909
G1 X124.3450 Y86.3970 Z1.176 E3.4370
G1 X125.7310 Y88.0270 Z1.177 E3.4831
G1 X126.9310 Y89.7980 Z1.178 E3.5293
G1 X127.9330 Y91.6880 Z1.180 E3.5754
G1 X128.7250 Y93.6760 Z1.181 E3.6215
G1 X129.2980 Y95.7380 Z1.182 E3.6676
G1 X129.6440 Y97.8490 Z1.184 E3.7137
G1 X129.7600 Y99.9920 Z1.185 E3.7600
G1 X129.7600 Y101.0890 Z1.186 E3.7836
G1 X129.1950 Y101.1140 Z1.186 E3.7958
G1 X128.2270 Y101.2500 Z1.186 E3.8169
G1 X127.2770 Y101.4890 Z1.187 E3.8380
G1 X126.3590 Y101.8260 Z1.188 E3.8591
G1 X125.4850 Y102.2570 Z1.188 E3.8801
G1 X125.2340 Y102.4030 Z1.188 E3.8863
G1 X124.6560 Y102.7810 Z1.189 E3.9012
G1 X124.4060 Y102.9640 Z1.189 E3.9079
G1 X123.8880 Y103.3890 Z1.189 E3.9223
G1 X123.6440 Y103.6120 Z1.190 E3.9294
G1 X123.1890 Y104.0740 Z1.190 E3.9434
G1 X122.9560 Y104.3380 Z1.190 E3.9510
G1 X122.5670 Y104.8300 Z1.191 E3.9645
G1 X122.3510 Y105.1350 Z1.191 E3.9726
G1 X122.0280 Y105.6470 Z1.191 E3.9856
G1 X121.8360 Y105.9920 Z1.191 E3.9941
G1 X121.5780 Y106.5170 Z1.192 E4.0067
G1 X121.4160 Y106.8990 Z1.192 E4.0157
G1 X121.2230 Y107.4290 Z1.192 E4.0279
G1 X121.0970 Y107.8470 Z1.193 E4.0373
G1 X120.9670 Y108.3740 Z1.193 E4.0490
G1 X120.8820 Y108.8240 Z1.193 E4.0588
G1 X120.8120 Y109.3410 Z1.194 E4.0701
G1 X120.7730 Y109.8190 Z1.194 E4.0804
G1 X120.7600 Y110.3190 Z1.194 E4.0912
G1 X120.7730 Y110.8190 Z1.194 E4.1020
G1 X120.8120 Y111.2960 Z1.195 E4.1123
G1 X120.8820 Y111.8130 Z1.195 E4.1235
G1 X120.9670 Y112.2630 Z1.195 E4.1334
G1 X121.0970 Y112.7900 Z1.196 E4.1451
G1 X121.2230 Y113.2080 Z1.196 E4.1545
G1 X121.4160 Y113.7380 Z1.196 E4.1667
G1 X121.5780 Y114.1200 Z1.196 E4.1756
G1 X121.8360 Y114.6460 Z1.197 E4.1882
G1 X122.0280 Y114.9900 Z1.197 E4.1967
G1 X122.3510 Y115.5030 Z1.197 E4.2098
G1 X122.5670 Y115.8070 Z1.198 E4.2178
G1 X122.9560 Y116.2990 Z1.198 E4.2313
G1 X123.1890 Y116.5630 Z1.198 E4.2389
G1 X123.6440 Y117.0250 Z1.199 E4.2529
G1 X123.8880 Y117.2490 Z1.199 E4.2600
G1 X124.4060 Y117.6730 Z1.199 E4.2745
G1 X124.6560 Y117.8560 Z1.199 E4.2812
G1 X125.2340 Y118.2350 Z1.200 E4.2960
G1 X125.4850 Y118.3800 Z1.200 E4.3023
;layer 11, Z = 1.320
G92 E0.0000
G1 X126.3590 Y118.8110 Z1.201 E0.0210 F12000 ; custom feedrate
G1 X127.2770 Y119.1490 Z1.201 E0.0421
G1 X128.2270 Y119.3870 Z1.202 E0.0632
G1 X129.1950 Y119.5240 Z1.202 E0.0843
G1 X129.7600 Y119.5480 Z1.203 E0.0965
G1 X129.7600 Y120.5530 Z1.203 E0.1181
G1 X120.6610 Y129.6520 Z1.211 E0.3954
G1 X129.7600 Y138.7510 Z1.219 E0.6728
G1 X129.7600 Y139.7450 Z1.219 E0.6942
G1 X128.1320 Y139.7450 Z1.220 E0.7293
G1 X128.1210 Y139.6470 Z1.220 E0.7314
G1 X128.0150 Y139.3300 Z1.221 E0.7386
G1 X127.9290 Y139.1680 Z1.221 E0.7426
G1 X127.7270 Y138.9020 Z1.221 E0.7498
G1 X127.4690 Y138.6830 Z1.221 E0.7571
G1 X127.2230 Y138.5470 Z1.221 E0.7631
G1 X126.9730 Y138.4600 Z1.221 E0.7689
G1 X126.6670 Y138.4130 Z1.222 E0.7755
G1 X126.3290 Y138.4310 Z1.222 E0.7828
G1 X126.0010 Y138.5220 Z1.222 E0.7901
G1 X125.7150 Y138.6720 Z1.222 E0.7971
G1 X125.5070 Y138.8370 Z1.222 E0.8028
G1 X125.3280 Y139.0350 Z1.223 E0.8086
G1 X125.1540 Y139.3240 Z1.223 E0.8159
G1 X125.0450 Y139.6470 Z1.223 E0.8232
G1 X125.0350 Y139.7450 Z1.223 E0.8253
G1 X123.4070 Y139.7450 Z1.224 E0.8604
G1 X123.4070 Y138.4120 Z1.225 E0.8892
G1 X121.5930 Y138.4120 Z1.226 E0.9282
G1 X121.5930 Y139.7450 Z1.227 E0.9570
G1 X119.8490 Y139.7450 Z1.228 E0.9946
G1 X118.4170 Y138.3130 Z1.229 E1.0382
G1 X116.9840 Y139.7450 Z1.230 E1.0819
G1 X115.0060 Y139.7450 Z1.231 E1.1245
G1 X114.5020 Y139.7190 Z1.232 E1.1354
G1 X114.0100 Y139.6410 Z1.232 E1.1461
G1 X113.5290 Y139.5120 Z1.232 E1.1569
G1 X113.0640 Y139.3340 Z1.233 E1.1676
G1 X112.6200 Y139.1070 Z1.233 E1.1783
G1 X112.2020 Y138.8360 Z1.233 E1.1891
G1 X111.8150 Y138.5220 Z1.233 E1.1998
G1 X111.4630 Y138.1700 Z1.234 E1.2106
G1 X111.1490 Y137.7830 Z1.234 E1.2213
G1 X110.8780 Y137.3650 Z1.234 E1.2320
G1 X110.6520 Y136.9210 Z1.235 E1.2428
G1 X110.4730 Y136.4560 Z1.235 E1.2535
G1 X110.3440 Y135.9750 Z1.235 E1.2642
G1 X110.2660 Y135.4830 Z1.236 E1.2750
G1 X110.2400 Y134.9790 Z1.236 E1.2859
G1 X110.2400 Y124.9790 Z1.242 E1.5014
G1 X110.2120 Y124.4380 Z1.242 E1.5131
G1 X110.1260 Y123.8960 Z1.243 E1.5249
G1 X109.9840 Y123.3660 Z1.243 E1.5367
G1 X109.7870 Y122.8540 Z1.243 E1.5485
G1 X109.5380 Y122.3650 Z1.244 E1.5604
G1 X109.2400 Y121.9050 Z1.244 E1.5722
G1 X108.8940 Y121.4790 Z1.244 E1.5840
G1 X108.5060 Y121.0910 Z1.245 E1.5958
G1 X108.0800 Y120.7460 Z1.245 E1.6076
G1 X107.6200 Y120.4470 Z1.245 E1.6195
G1 X107.1310 Y120.1980 Z1.246 E1.6313
G1 X106.6190 Y120.0010 Z1.246 E1.6431
G1 X106.0900 Y119.8600 Z1.246 E1.6549
G1 X105.5480 Y119.7740 Z1.246 E1.6668
G1 X105.0060 Y119.7450 Z1.247 E1.6784
G1 X90.2400 Y119.7450 Z1.256 E1.9967
G1 X90.2400 Y99.9920 Z1.268 E2.4224
G1 X90.3560 Y97.8490 Z1.269 E2.4687
G1 X90.7020 Y95.7380 Z1.270 E2.5148
G1 X91.2750 Y93.6760 Z1.271 E2.5609
G1 X92.0670 Y91.6880 Z1.273 E2.6070
G1 X93.0360 Y89.8600 Z1.274 E2.6516
G1 X94.2700 Y88.0270 Z1.275 E2.6992
G1 X95.6550 Y86.3970 Z1.277 E2.7453
G1 X97.2080 Y84.9250 Z1.278 E2.7915
G1 X98.9110 Y83.6310 Z1.279 E2.8376
G1 X100.7440 Y82.5270 Z1.280 E2.8837
G1 X102.6860 Y81.6290 Z1.282 E2.9298
G1 X104.7140 Y80.9460 Z1.283 E2.9759
G1 X106.8030 Y80.4860 Z1.284 E3.0220
G1 X108.9300 Y80.2550 Z1.286 E3.0681
G1 X111.0700 Y80.2550 Z1.287 E3.1142
G1 X113.1970 Y80.4860 Z1.288 E3.1604
G1 X115.2860 Y80.9460 Z1.289 E3.2065
G1 X117.3140 Y81.6290 Z1.291 E3.2526
G1 X119.2560 Y82.5270 Z1.292 E3.2987
G1 X121.0890 Y83.6310 Z1.293 E3.3448
G1 X122.7920 Y84.9250 Z1.295 E3.3909
G1 X124.3450 Y86.3970 Z1.296 E3.4370
G1 X125.7310 Y88.0270 Z1.297 E3.4831
G1 X126.9310 Y89.7980 Z1.298 E3.5293
G1 X127.9330 Y91.6880 Z1.300 E3.5754
G1 X128.7250 Y93.6760 Z1.301 E3.6215
G1 X129.2980 Y95.7380 Z1.302 E3.6676
G1 X129.6440 Y97.8490 Z1.304 E3.7137
G1 X129.7600 Y99.9920 Z1.305 E3.7600
G1 X129.7600 Y101.0890 Z1.306 E3.7836
G1 X129.1950 Y101.1140 Z1.306 E3.7958
G1 X128.2270 Y101.2500 Z1.306 E3.8169
G1 X127.2770 Y101.4890 Z1.307 E3.8380
G1 X126.3590 Y101.8260 Z1.308 E3.8591
G1 X125.4850 Y102.2570 Z1.308 E3.8801
G1 X125.2340 Y102.4030 Z1.308 E3.8863
G1 X124.6560 Y102.7810 Z1.309 E3.9012
G1 X124.4060 Y102.9640 Z1.309 E3.9079
G1 X123.8880 Y103.3890 Z1.309 E3.9223
G1 X123.6440 Y103.6120 Z1.310 E3.9294
G1 X123.1890 Y104.0740 Z1.310 E3.9434
G1 X122.9560 Y104.3380 Z1.310 E3.9510
G1 X122.5670 Y104.8300 Z1.311 E3.9645
G1 X122.3510 Y105.1350 Z1.311 E3.9726
G1 X122.0280 Y105.6470 Z1.311 E3.9856
G1 X121.8360 Y105.9920 Z1.311 E3.9941
G1 X121.5780 Y106.5170 Z1.312 E4.0067
G1 X121.4160 Y106.8990 Z1.312 E4.0157
G1 X121.2230 Y107.4290 Z1.312 E4.0278
G1 X121.0970 Y107.8470 Z1.313 E4.0373
G1 X120.9670 Y108.3740 Z1.313 E4.0490
G1 X120.8820 Y108.8240 Z1.313 E4.0588
G1 X120.8120 Y109.3410 Z1.314 E4.0701
G1 X120.7730 Y109.8190 Z1.314 E4.0804
G1 X120.7600 Y110.3190 Z1.314 E4.0912
G1 X120.7730 Y110.8190 Z1.314 E4.1020
G1 X120.8120 Y111.2960 Z1.315 E4.1123
G1 X120.8820 Y111.8130 Z1.315 E4.1235
G1 X120.9670 Y112.2630 Z1.315 E4.1334
G1 X121.0970 Y112.7900 Z1.316 E4.1451
G1 X121.2230 Y113.2080 Z1.316 E4.1545
G1 X121.4160 Y113.7380 Z1.316 E4.1667
G1 X121.5780 Y114.1200 Z1.316 E4.1756
G1 X121.8360 Y114.6460 Z1.317 E4.1882
G1 X122.0280 Y114.9900 Z1.317 E4.1967
G1 X122.3510 Y115.5030 Z1.317 E4.2098
G1 X122.5670 Y115.8070 Z1.318 E4.2178
G1 X122.9560 Y116.2990 Z1.318 E4.2313
G1 X123.1890 Y116.5630 Z1.318 E4.2389
G1 X123.6440 Y117.0250 Z1.319 E4.2529
G1 X123.8880 Y117.2490 Z1.319 E4.2600
G1 X124.4060 Y117.6730 Z1.319 E4.2745
G1 X124.6560 Y117.8560 Z1.319 E4.2811
G1 X125.2340 Y118.2350 Z1.320 E4.2960
G1 X125.4850 Y118.3800 Z1.320 E4.3023
;layer 12, Z = 1.440
G92 E0.0000
G1 X126.3590 Y118.8110 Z1.321 E0.0210 F12000 ; custom feedrate
G1 X127.2770 Y119.1490 Z1.321 E0.0421
G1 X128.2270 Y119.3870 Z1.322 E0.0632
G1 X129.1950 Y119.5240 Z1.322 E0.0843
G1 X129.7600 Y119.5480 Z1.323 E0.0965
G1 X129.7600 Y120.5530 Z1.323 E0.1181
G1 X120.6610 Y129.6520 Z1.331 E0.3954
G1 X129.7600 Y138.7510 Z1.339 E0.6728
G1 X129.7600 Y139.7450 Z1.339 E0.6942
G1 X128.1320 Y139.7450 Z1.340 E0.7293
G1 X128.1210 Y139.6470 Z1.340 E0.7314
G1 X128.0150 Y139.3300 Z1.341 E0.7386
G1 X127.9290 Y139.1680 Z1.341 E0.7426
G1 X127.7270 Y138.9020 Z1.341 E0.7498
G1 X127.4690 Y138.6830 Z1.341 E0.7571
G1 X127.2230 Y138.5470 Z1.341 E0.7631
G1 X126.9730 Y138.4600 Z1.341 E0.7689
G1 X126.6670 Y138.4130 Z1.342 E0.7755
G1 X126.3290 Y138.4310 Z1.342 E0.7828
G1 X126.0010 Y138.5220 Z1.342 E0.7901
G1 X125.7150 Y138.6720 Z1.342 E0.7971
G1 X125.5070 Y138.8370 Z1.342 E0.8028
G1 X125.3280 Y139.0350 Z1.343 E0.8086
G1 X125.1540 Y139.3240 Z1.343 E0.8159
G1 X125.0450 Y139.6470 Z1.343 E0.8232
G1 X125.0350 Y139.7450 Z1.343 E0.8253
G1 X123.4070 Y139.7450 Z1.344 E0.8604
G1 X123.4070 Y138.4120 Z1.345 E0.8892
G1 X121.5930 Y138.4120 Z1.346 E0.9282
G1 X121.5930 Y139.7450 Z1.347 E0.9570
G1 X119.8490 Y139.7450 Z1.348 E0.9946
G1 X118.4170 Y138.3130 Z1.349 E1.0382
G1 X116.9840 Y139.7450 Z1.350 E1.0819
G1 X115.0060 Y139.7450 Z1.351 E1.1245
G1 X114.5020 Y139.7190 Z1.352 E1.1354
G1 X114.0100 Y139.6410 Z1.352 E1.1461
G1 X113.5290 Y139.5120 Z1.352 E1.1569
G1 X113.0640 Y139.3340 Z1.353 E1.1676
G1 X112.6200 Y139.1070 Z1.353 E1.1783
G1 X112.2020 Y138.8360 Z1.353 E1.1891
G1 X111.8150 Y138.5220 Z1.353 E1.1998
G1 X111.4630 Y138.1700 Z1.354 E1.2106
G1 X111.1490 Y137.7830 Z1.354 E1.2213
G1 X110.8780 Y137.3650 Z1.354 E1.2320
G1 X110.6520 Y136.9210 Z1.355 E1.2428
G1 X110.4730 Y136.4560 Z1.355 E1.2535
G1 X110.3440 Y135.9750 Z1.355 E1.2642
G1 X110.2660 Y135.4830 Z1.356 E1.2750
G1 X110.2400 Y134.9790 Z1.356 E1.2859
G1 X110.2400 Y124.9790 Z1.362 E1.5014
G1 X110.2120 Y124.4380 Z1.362 E1.5131
G1 X110.1260 Y123.8960 Z1.363 E1.5249
G1 X109.9840 Y123.3660 Z1.363 E1.5367
G1 X109.7870 Y122.8540 Z1.363 E1.5485
G1 X109.5380 Y122.3650 Z1.364 E1.5604
G1 X109.2400 Y121.9050 Z1.364 E1.5722
G1 X108.8940 Y121.4790 Z1.364 E1.5840
G1 X108.5060 Y121.0910 Z1.365 E1.5958
G1 X108.0800 Y120.7460 Z1.365 E1.6076
G1 X107.6200 Y120.4470 Z1.365 E1.6195
G1 X107.1310 Y120.1980 Z1.365 E1.6313
G1 X106.6190 Y120.0010 Z1.366 E1.6431
G1 X106.0900 Y119.8600 Z1.366 E1.6549
G1 X105.5480 Y119.7740 Z1.366 E1.6668
G1 X105.0060 Y119.7450 Z1.367 E1.6784
G1 X90.2400 Y119.7450 Z1.376 E1.9967
G1 X90.2400 Y99.9920 Z1.388 E2.4224
G1 X90.3560 Y97.8490 Z1.389 E2.4687
G1 X90.7020 Y95.7380 Z1.390 E2.5148
G1 X91.2750 Y93.6760 Z1.391 E2.5609
G1 X92.0670 Y91.6880 Z1.393 E2.6070
G1 X93.0690 Y89.7980 Z1.394 E2.6531
G1 X94.2690 Y88.0270 Z1.395 E2.6992
G1 X95.6550 Y86.3970 Z1.397 E2.7454
G1 X97.2080 Y84.9250 Z1.398 E2.7915
G1 X98.9110 Y83.6310 Z1.399 E2.8376
G1 X100.7440 Y82.5270 Z1.400 E2.8837
G1 X102.6860 Y81.6290 Z1.402 E2.9298
G1 X104.7140 Y80.9460 Z1.403 E2.9759
G1 X106.8030 Y80.4860 Z1.404 E3.0220
G1 X108.9300 Y80.2550 Z1.406 E3.0681
G1 X111.0700 Y80.2550 Z1.407 E3.1143
G1 X113.1970 Y80.4860 Z1.408 E3.1604
G1 X115.2860 Y80.9460 Z1.409 E3.2065
G1 X117.3140 Y81.6290 Z1.411 E3.2526
G1 X119.2560 Y82.5270 Z1.412 E3.2987
G1 X121.0890 Y83.6310 Z1.413 E3.3448
G1 X122.7920 Y84.9250 Z1.415 E3.3909
G1 X124.3450 Y86.3970 Z1.416 E3.4370
G1 X125.7310 Y88.0270 Z1.417 E3.4832
G1 X126.9310 Y89.7980 Z1.418 E3.5293
G1 X127.9330 Y91.6880 Z1.420 E3.5754
G1 X128.7250 Y93.6760 Z1.421 E3.6215
G1 X129.2980 Y95.7380 Z1.422 E3.6676
G1 X129.6440 Y97.8490 Z1.424 E3.7137
G1 X129.7600 Y99.9920 Z1.425 E3.7600
G1 X129.7600 Y101.0890 Z1.426 E3.7836
G1 X129.1950 Y101.1140 Z1.426 E3.7958
G1 X128.2270 Y101.2500 Z1.426 E3.8169
G1 X127.2770 Y101.4890 Z1.427 E3.8380
G1 X126.3590 Y101.8260 Z1.428 E3.8591
G1 X125.4850 Y102.2570 Z1.428 E3.8801
G1 X125.2340 Y102.4030 Z1.428 E3.8863
G1 X124.6560 Y102.7810 Z1.429 E3.9012
G1 X124.4060 Y102.9640 Z1.429 E3.9079
G1 X123.8880 Y103.3890 Z1.429 E3.9223
G1 X123.6440 Y103.6120 Z1.430 E3.9294
G1 X123.1890 Y104.0740 Z1.430 E3.9434
G1 X122.9560 Y104.3380 Z1.430 E3.9510
G1 X122.5670 Y104.8300 Z1.431 E3.9645
G1 X122.3510 Y105.1350 Z1.431 E3.9726
G1 X122.0280 Y105.6470 Z1.431 E3.9856
G1 X121.8360 Y105.9920 Z1.431 E3.9941
G1 X121.5780 Y106.5170 Z1.432 E4.0067
G1 X121.4160 Y106.8990 Z1.432 E4.0157
G1 X121.2230 Y107.4290 Z1.432 E4.0279
G1 X121.0970 Y107.8470 Z1.433 E4.0373
G1 X120.9670 Y108.3740 Z1.433 E4.0490
G1 X120.8820 Y108.8240 Z1.433 E4.0588
G1 X120.8120 Y109.3410 Z1.434 E4.0701
G1 X120.7730 Y109.8190 Z1.434 E4.0804
G1 X120.7600 Y110.3190 Z1.434 E4.0912
G1 X120.7730 Y110.8190 Z1.434 E4.1020
G1 X120.8120 Y111.2960 Z1.435 E4.1123
G1 X120.8820 Y111.8130 Z1.435 E4.1235
G1 X120.9670 Y112.2630 Z1.435 E4.1334
G1 X121.0970 Y112.7900 Z1.436 E4.1451
G1 X121.2230 Y113.2080 Z1.436 E4.1545
G1 X121.4160 Y113.7380 Z1.436 E4.1667
G1 X121.5780 Y114.1200 Z1.436 E4.1756
G1 X121.8360 Y114.6460 Z1.437 E4.1882
G1 X122.0280 Y114.9900 Z1.437 E4.1967
G1 X122.3510 Y115.5030 Z1.437 E4.2098
G1 X122.5670 Y115.8070 Z1.438 E4.2178
G1 X122.9560 Y116.2990 Z1.438 E4.2314
G1 X123.1890 Y116.5630 Z1.438 E4.2389
G1 X123.6440 Y117.0250 Z1.439 E4.2529
G1 X123.8880 Y117.2490 Z1.439 E4.2600
G1 X124.4060 Y117.6730 Z1.439 E4.2745
G1 X124.6560 Y117.8560 Z1.439 E4.2812
G1 X125.2340 Y118.2350 Z1.440 E4.2960
G1 X125.4850 Y118.3800 Z1.440 E4.3023
;layer 13, Z = 1.560
G92 E0.0000
G1 X126.3590 Y118.8110 Z1.441 E0.0210 F12000 ; custom feedrate
G1 X127.2770 Y119.1490 Z1.441 E0.0421
G1 X128.2270 Y119.3870 Z1.442 E0.0632
G1 X129.1950 Y119.5240 Z1.442 E0.0843
G1 X129.7600 Y119.5480 Z1.443 E0.0965
G1 X129.7600 Y120.5530 Z1.443 E0.1181
G1 X120.6610 Y129.6520 Z1.451 E0.3954
G1 X129.7600 Y138.7510 Z1.459 E0.6728
G1 X129.7600 Y139.7450 Z1.459 E0.6942
G1 X128.1320 Y139.7450 Z1.460 E0.7293
G1 X128.1210 Y139.6470 Z1.460 E0.7314
G1 X128.0150 Y139.3300 Z1.461 E0.7386
G1 X127.9290 Y139.1680 Z1.461 E0.7426
G1 X127.7270 Y138.9020 Z1.461 E0.7498
G1 X127.4690 Y138.6830 Z1.461 E0.7571
G1 X127.2230 Y138.5470 Z1.461 E0.7631
G1 X126.9730 Y138.4600 Z1.461 E0.7689
G1 X126.6670 Y138.4130 Z1.462 E0.7755
G1 X126.3290 Y138.4310 Z1.462 E0.7828
G1 X126.0010 Y138.5220 Z1.462 E0.7901
G1 X125.7150 Y138.6720 Z1.462 E0.7971
G1 X125.5070 Y138.8370 Z1.462 E0.8028
G1 X125.3280 Y139.0350 Z1.463 E0.8086
G1 X125.1540 Y139.3240 Z1.463 E0.8159
G1 X125.0450 Y139.6470 Z1.463 E0.8232
G1 X125.0350 Y139.7450 Z1.463 E0.8253
G1 X123.4070 Y139.7450 Z1.464 E0.8604
G1 X123.4070 Y138.4120 Z1.465 E0.8892
G1 X121.5930 Y138.4120 Z1.466 E0.9282
G1 X121.5930 Y139.7450 Z1.467 E0.9570
G1 X119.8490 Y139.7450 Z1.468 E0.9946
G1 X118.4170 Y138.3130 Z1.469 E1.0382
G1 X116.9840 Y139.7450 Z1.470 E1.0819
G1 X115.0060 Y139.7450 Z1.471 E1.1245
G1 X114.5020 Y139.7190 Z1.472 E1.1354
G1 X114.0100 Y139.6410 Z1.472 E1.1461
G1 X113.5290 Y139.5120 Z1.472 E1.1569
G1 X113.0640 Y139.3340 Z1.473 E1.1676
G1 X112.6200 Y139.1070 Z1.473 E1.1783
G1 X112.2020 Y138.8360 Z1.473 E1.1891
G1 X111.8150 Y138.5220 Z1.473 E1.1998
G1 X111.4630 Y138.1700 Z1.474 E1.2106
G1 X111.1490 Y137.7830 Z1.474 E1.2213
G1 X110.8780 Y137.3650 Z1.474 E1.2320
G1 X110.6520 Y136.9210 Z1.475 E1.2428
G1 X110.4730 Y136.4560 Z1.475 E1.2535
G1 X110.3440 Y135.9750 Z1.475 E1.2642
G1 X110.2660 Y135.4830 Z1.476 E1.2750
G1 X110.2400 Y134.9790 Z1.476 E1.2859
G1 X110.2400 Y124.9790 Z1.482 E1.5014
G1 X110.2120 Y124.4380 Z1.482 E1.5131
G1 X110.1260 Y123.8960 Z1.483 E1.5249
G1 X109.9840 Y123.3660 Z1.483 E1.5367
G1 X109.7870 Y122.8540 Z1.483 E1.5485
G1 X109.5380 Y122.3650 Z1.484 E1.5604
G1 X109.2400 Y121.9050 Z1.484 E1.5722
G1 X108.8940 Y121.4790 Z1.484 E1.5840
G1 X108.5060 Y121.0910 Z1.485 E1.5958
G1 X108.0800 Y120.7460 Z1.485 E1.6076
G1 X107.6200 Y120.4470 Z1.485 E1.6195
G1 X107.1310 Y120.1980 Z1.485 E1.6313
G1 X106.6190 Y120.0010 Z1.486 E1.6431
G1 X106.0900 Y119.8600 Z1.486 E1.6549
G1 X105.5480 Y119.7740 Z1.486 E1.6668
G1 X105.0060 Y119.7450 Z1.487 E1.6784
G1 X90.2400 Y119.7450 Z1.496 E1.9967
G1 X90.2400 Y99.9920 Z1.508 E2.4224
G1 X90.3560 Y97.8490 Z1.509 E2.4687
G1 X90.7020 Y95.7380 Z1.510 E2.5148
G1 X91.2750 Y93.6760 Z1.511 E2.5609
G1 X92.0670 Y91.6880 Z1.513 E2.6070
G1 X93.0690 Y89.7980 Z1.514 E2.6531
G1 X94.2690 Y88.0270 Z1.515 E2.6992
G1 X95.6550 Y86.3970 Z1.517 E2.7454
G1 X97.2080 Y84.9250 Z1.518 E2.7915
G1 X98.9110 Y83.6310 Z1.519 E2.8376
G1 X100.7440 Y82.5270 Z1.520 E2.8837
G1 X102.6860 Y81.6290 Z1.522 E2.9298
G1 X104.7140 Y80.9460 Z1.523 E2.9759
G1 X106.8030 Y80.4860 Z1.524 E3.0220
G1 X108.9300 Y80.2550 Z1.526 E3.0681
G1 X111.0700 Y80.2550 Z1.527 E3.1143
G1 X113.1970 Y80.4860 Z1.528 E3.1604
G1 X115.2860 Y80.9460 Z1.529 E3.2065
G1 X117.3140 Y81.6290 Z1.531 E3.2526
G1 X119.2560 Y82.5270 Z1.532 E3.2987
G1 X121.0890 Y83.6310 Z1.533 E3.3448
G1 X122.7920 Y84.9250 Z1.535 E3.3909
G1 X124.3450 Y86.3970 Z1.536 E3.4370
G1 X125.7310 Y88.0270 Z1.537 E3.4832
G1 X126.9310 Y89.7980 Z1.538 E3.5293
G1 X127.9330 Y91.6880 Z1.540 E3.5754
G1 X128.7250 Y93.6760 Z1.541 E3.6215
G1 X129.2980 Y95.7380 Z1.542 E3.6676
G1 X129.6440 Y97.8490 Z1.544 E3.7137
G1 X129.7600 Y99.9920 Z1.545 E3.7600
G1 X129.7600 Y101.0890 Z1.546 E3.7836
G1 X129.1950 Y101.1140 Z1.546 E3.7958
G1 X128.2270 Y101.2500 Z1.546 E3.8169
G1 X127.2770 Y101.4890 Z1.547 E3.8380
G1 X126.3590 Y101.8260 Z1.548 E3.8591
G1 X125.4850 Y102.2570 Z1.548 E3.8801
G1 X125.2340 Y102.4030 Z1.548 E3.8863
G1 X124.6560 Y102.7810 Z1.549 E3.9012
G1 X124.4060 Y102.9640 Z1.549 E3.9079
G1 X123.8880 Y103.3890 Z1.549 E3.9223
G1 X123.6440 Y103.6120 Z1.550 E3.9294
G1 X123.1890 Y104.0740 Z1.550 E3.9434
G1 X122.9560 Y104.3380 Z1.550 E3.9510
G1 X122.5670 Y104.8300 Z1.551 E3.9645
G1 X122.3510 Y105.1350 Z1.551 E3.9726
G1 X122.0280 Y105.6470 Z1.551 E3.9856
G1 X121.8360 Y105.9920 Z1.551 E3.9941
G1 X121.5780 Y106.5170 Z1.552 E4.0067
G1 X121.4160 Y106.8990 Z1.552 E4.0157
G1 X121.2230 Y107.4290 Z1.552 E4.0279
G1 X121.0970 Y107.8470 Z1.553 E4.0373
G1 X120.9670 Y108.3740 Z1.553 E4.0490
G1 X120.8820 Y108.8240 Z1.553 E4.0588
G1 X120.8120 Y109.3410 Z1.554 E4.0701
G1 X120.7730 Y109.8190 Z1.554 E4.0804
G1 X120.7600 Y110.3190 Z1.554 E4.0912
G1 X120.7730 Y110.8190 Z1.554 E4.1020
G1 X120.8120 Y111.2960 Z1.555 E4.1123
G1 X120.8820 Y111.8130 Z1.555 E4.1235
G1 X120.9670 Y112.2630 Z1.555 E4.1334
G1 X121.0970 Y112.7900 Z1.556 E4.1451
G1 X121.2230 Y113.2080 Z1.556 E4.1545
G1 X121.4160 Y113.7380 Z1.556 E4.1667
G1 X121.5780 Y114.1200 Z1.556 E4.1756
G1 X121.8360 Y114.6460 Z1.557 E4.1882
G1 X122.0280 Y114.9900 Z1.557 E4.1967
G1 X122.3510 Y115.5030 Z1.557 E4.2098
G1 X122.5670 Y115.8070 Z1.558 E4.2178
G1 X122.9560 Y116.2990 Z1.558 E4.2314
G1 X123.1890 Y116.5630 Z1.558 E4.2389
G1 X123.6440 Y117.0250 Z1.559 E4.2529
G1 X123.8880 Y117.2490 Z1.559 E4.2600
G1 X124.4060 Y117.6730 Z1.559 E4.2745
G1 X124.6560 Y117.8560 Z1.559 E4.2812
G1 X125.2340 Y118.2350 Z1.560 E4.2960
G1 X125.4850 Y118.3800 Z1.560 E4.3023
;layer 14, Z = 1.680
G92 E0.0000
G1 X126.3590 Y118.8110 Z1.561 E0.0210 F12000 ; custom feedrate
G1 X127.2770 Y119.1490 Z1.561 E0.0421
G1 X128.2270 Y119.3870 Z1.562 E0.0632
G1 X129.1950 Y119.5240 Z1.562 E0.0843
G1 X129.7600 Y119.5480 Z1.563 E0.0965
G1 X129.7600 Y120.5530 Z1.563 E0.1181
G1 X120.6610 Y129.6520 Z1.571 E0.3954
G1 X129.7600 Y138.7510 Z1.579 E0.6728
G1 X129.7600 Y139.7450 Z1.579 E0.6942
G1 X128.1320 Y139.7450 Z1.580 E0.7293
G1 X128.1210 Y139.6470 Z1.580 E0.7314
G1 X128.0150 Y139.3300 Z1.581 E0.7386
G1 X127.9290 Y139.1680 Z1.581 E0.7426
G1 X127.7270 Y138.9020 Z1.581 E0.7498
G1 X127.4690 Y138.6830 Z1.581 E0.7571
G1 X127.2230 Y138.5470 Z1.581 E0.7631
G1 X126.9730 Y138.4600 Z1.581 E0.7689
G1 X126.6670 Y138.4130 Z1.582 E0.7755
G1 X126.3290 Y138.4310 Z1.582 E0.7828
G1 X126.0010 Y138.5220 Z1.582 E0.7901
G1 X125.7150 Y138.6720 Z1.582 E0.7971
G1 X125.5070 Y138.8370 Z1.582 E0.8028
G1 X125.3280 Y139.0350 Z1.583 E0.8086
G1 X125.1540 Y139.3240 Z1.583 E0.8159
G1 X125.0450 Y139.6470 Z1.583 E0.8232
G1 X125.0350 Y139.7450 Z1.583 E0.8253
G1 X123.4070 Y139.7450 Z1.584 E0.8604
G1 X123.4070 Y138.4120 Z1.585 E0.8892
G1 X121.5930 Y138.4120 Z1.586 E0.9282
G1 X121.5930 Y139.7450 Z1.587 E0.9570
G1 X119.8490 Y139.7450 Z1.588 E0.9946
G1 X118.4170 Y138.3130 Z1.589 E1.0382
G1 X116.9840 Y139.7450 Z1.590 E1.0819
G1 X115.0060 Y139.7450 Z1.591 E1.1245
G1 X114.5020 Y139.7190 Z1.592 E1.1354
G1 X114.0100 Y139.6410 Z1.592 E1.1461
G1 X113.5290 Y139.5120 Z1.592 E1.1569
G1 X113.0640 Y139.3340 Z1.593 E1.1676
G1 X112.6200 Y139.1070 Z1.593 E1.1783
G1 X112.2020 Y138.8360 Z1.593 E1.1891
G1 X111.8150 Y138.5220 Z1.593 E1.1998
G1 X111.4630 Y138.1700 Z1.594 E1.2106
G1 X111.1490 Y137.7830 Z1.594 E1.2213
G1 X110.8780 Y137.3650 Z1.594 E1.2320
G1 X110.6520 Y136.9210 Z1.595 E1.2428
G1 X110.4730 Y136.4560 Z1.595 E1.2535
G1 X110.3440 Y135.9750 Z1.595 E1.2642
G1 X110.2660 Y135.4830 Z1.596 E1.2750
G1 X110.2400 Y134.9790 Z1.596 E1.2859
G1 X110.2400 Y124.9790 Z1.602 E1.5014
G1 X110.2120 Y124.4380 Z1.602 E1.5131
G1 X110.1260 Y123.8960 Z1.603 E1.5249
G1 X109.9840 Y123.3660 Z1.603 E1.5367
G1 X109.7870 Y122.8540 Z1.603 E1.5485
G1 X109.5380 Y122.3650 Z1.604 E1.5604
G1 X109.2400 Y121.9050 Z1.604 E1.5722
G1 X108.8940 Y121.4790 Z1.604 E1.5840
G1 X108.5060 Y121.0910 Z1.605 E1.5958
G1 X108.0800 Y120.7460 Z1.605 E1.6076
G1 X107.6200 Y120.4470 Z1.605 E1.6195
G1 X107.1310 Y120.1980 Z1.605 E1.6313
G1 X106.6190 Y120.0010 Z1.606 E1.6431
G1 X106.0900 Y119.8600 Z1.606 E1.6549
G1 X105.5480 Y119.7740 Z1.606 E1.6668
G1 X105.0060 Y119.7450 Z1.607 E1.6784
G1 X90.2400 Y119.7450 Z1.616 E1.9967
G1 X90.2400 Y99.9920 Z1.628 E2.4224
G1 X90.3560 Y97.8490 Z1.629 E2.4687
G1 X90.7020 Y95.7380 Z1.630 E2.5148
G1 X91.2750 Y93.6760 Z1.631 E2.5609
G1 X92.0670 Y91.6880 Z1.633 E2.6070
G1 X93.0690 Y89.7980 Z1.634 E2.6531
G1 X94.2690 Y88.0270 Z1.635 E2.6992
G1 X95.6550 Y86.3970 Z1.637 E2.7454
G1 X97.2080 Y84.9250 Z1.638 E2.7915
G1 X98.9110 Y83.6310 Z1.639 E2.8376
G1 X100.7440 Y82.5270 Z1.640 E2.8837
G1 X102.6860 Y81.6290 Z1.642 E2.9298
G1 X104.7140 Y80.9460 Z1.643 E2.9759
G1 X106.8030 Y80.4860 Z1.644 E3.0220
G1 X108.9300 Y80.2550 Z1.646 E3.0681
G1 X111.0700 Y80.2550 Z1.647 E3.1143
G1 X113.1970 Y80.4860 Z1.648 E3.1604
G1 X115.2860 Y80.9460 Z1.649 E3.2065
G1 X117.3140 Y81.6290 Z1.651 E3.2526
G1 X119.2560 Y82.5270 Z1.652 E3.2987
G1 X121.0890 Y83.6310 Z1.653 E3.3448
G1 X122.7920 Y84.9250 Z1.655 E3.3909
G1 X124.3450 Y86.3970 Z1.656 E3.4370
G1 X125.7310 Y88.0270 Z1.657 E3.4832
G1 X126.9310 Y89.7980 Z1.658 E3.5293
G1 X127.9330 Y91.6880 Z1.660 E3.5754
G1 X128.7250 Y93.6760 Z1.661 E3.6215
G1 X129.2980 Y95.7380 Z1.662 E3.6676
G1 X129.6440 Y97.8490 Z1.664 E3.7137
G1 X129.7600 Y99.9920 Z1.665 E3.7600
G1 X129.7600 Y101.0890 Z1.666 E3.7836
G1 X129.1950 Y101.1140 Z1.666 E3.7958
G1 X128.2270 Y101.2500 Z1.666 E3.8169
G1 X127.2770 Y101.4890 Z1.667 E3.8380
G1 X126.3590 Y101.8260 Z1.668 E3.8591
G1 X125.4850 Y102.2570 Z1.668 E3.8801
G1 X125.2340 Y102.4030 Z1.668 E3.8863
G1 X124.6560 Y102.7810 Z1.669 E3.9012
G1 X124.4060 Y102.9640 Z1.669 E3.9079
G1 X123.8880 Y103.3890 Z1.669 E3.9223
G1 X123.6440 Y103.6120 Z1.670 E3.9294
G1 X123.1890 Y104.0740 Z1.670 E3.9434
G1 X122.9560 Y104.3380 Z1.670 E3.9510
G1 X122.5670 Y104.8300 Z1.671 E3.9645
G1 X122.3510 Y105.1350 Z1.671 E3.9726
G1 X122.0280 Y105.6470 Z1.671 E3.9856
G1 X121.8360 Y105.9920 Z1.671 E3.9941
G1 X121.5780 Y106.5170 Z1.672 E4.0067
G1 X121.4160 Y106.8990 Z1.672 E4.0157
G1 X121.2230 Y107.4290 Z1.672 E4.0279
G1 X121.0970 Y107.8470 Z1.673 E4.0373
G1 X120.9670 Y108.3740 Z1.673 E4.0490
G1 X120.8820 Y108.8240 Z1.673 E4.0588
G1 X120.8120 Y109.3410 Z1.674 E4.0701
G1 X120.7730 Y109.8190 Z1.674 E4.0804
G1 X120.7600 Y110.3190 Z1.674 E4.0912
G1 X120.7730 Y110.8190 Z1.674 E4.1020
G1 X120.8120 Y111.2960 Z1.675 E4.1123
G1 X120.8820 Y111.8130 Z1.675 E4.1235
G1 X120.9670 Y112.2630 Z1.675 E4.1334
G1 X121.0970 Y112.7900 Z1.676 E4.1451
G1 X121.2230 Y113.2080 Z1.676 E4.1545
G1 X121.4160 Y113.7380 Z1.676 E4.1667
G1 X121.5780 Y114.1200 Z1.676 E4.1756
G1 X121.8360 Y114.6460 Z1.677 E4.1882
G1 X122.0280 Y114.9900 Z1.677 E4.1967
G1 X122.3510 Y115.5030 Z1.677 E4.2098
G1 X122.5670 Y115.8070 Z1.678 E4.2178
G1 X122.9560 Y116.2990 Z1.678 E4.2314
G1 X123.1890 Y116.5630 Z1.678 E4.2389
G1 X123.6440 Y117.0250 Z1.679 E4.2529
G1 X123.8880 Y117.2490 Z1.679 E4.2600
G1 X124.4060 Y117.6730 Z1.679 E4.2745
G1 X124.6560 Y117.8560 Z1.679 E4.2812
G1 X125.2340 Y118.2350 Z1.680 E4.2960
G1 X125.4850 Y118.3800 Z1.680 E4.3023
;layer 15, Z = 1.800
G92 E0.0000
G1 X126.3590 Y118.8110 Z1.681 E0.0210 F12000 ; custom feedrate
G1 X127.2770 Y119.1490 Z1.681 E0.0421
G1 X128.2270 Y119.3870 Z1.682 E0.0632
G1 X129.1950 Y119.5240 Z1.682 E0.0843
G1 X129.7600 Y119.5480 Z1.683 E0.0965
G1 X129.7600 Y120.5530 Z1.683 E0.1181
G1 X120.6610 Y129.6520 Z1.691 E0.3954
G1 X129.7600 Y138.7510 Z1.699 E0.6728
G1 X129.7600 Y139.7450 Z1.699 E0.6942
G1 X128.1320 Y139.7450 Z1.700 E0.7293
G1 X128.1210 Y139.6470 Z1.700 E0.7314
G1 X128.0150 Y139.3300 Z1.701 E0.7386
G1 X127.9290 Y139.1680 Z1.701 E0.7426
G1 X127.7270 Y138.9020 Z1.701 E0.7498
G1 X127.4690 Y138.6830 Z1.701 E0.7571
G1 X127.2230 Y138.5470 Z1.701 E0.7631
G1 X126.9730 Y138.4600 Z1.701 E0.7689
G1 X126.6670 Y138.4130 Z1.702 E0.7755
G1 X126.3290 Y138.4310 Z1.702 E0.7828
G1 X126.0010 Y138.5220 Z1.702 E0.7901
G1 X125.7150 Y138.6720 Z1.702 E0.7971
G1 X125.5070 Y138.8370 Z1.702 E0.8028
G1 X125.3280 Y139.0350 Z1.703 E0.8086
G1 X125.1540 Y139.3240 Z1.703 E0.8159
G1 X125.0450 Y139.6470 Z1.703 E0.8232
G1 X125.0350 Y139.7450 Z1.703 E0.8253
G1 X123.4070 Y139.7450 Z1.704 E0.8604
G1 X123.4070 Y138.4120 Z1.705 E0.8892
G1 X121.5930 Y138.4120 Z1.706 E0.9282
G1 X121.5930 Y139.7450 Z1.707 E0.9570
G1 X119.8490 Y139.7450 Z1.708 E0.9946
G1 X118.4170 Y138.3130 Z1.709 E1.0382
G1 X116.9840 Y139.7450 Z1.710 E1.0819
G1 X115.0060 Y139.7450 Z1.711 E1.1245
G1 X114.5020 Y139.7190 Z1.712 E1.1354
G1 X114.0100 Y139.6410 Z1.712 E1.1461
G1 X113.5290 Y139.5120 Z1.712 E1.1569
G1 X113.0640 Y139.3340 Z1.713 E1.1676
G1 X112.6200 Y139.1070 Z1.713 E1.1783
G1 X112.2020 Y138.8360 Z1.713 E1.1891
G1 X111.8150 Y138.5220 Z1.713 E1.1998
G1 X111.4630 Y138.1700 Z1.714 E1.2106
G1 X111.1490 Y137.7830 Z1.714 E1.2213
G1 X110.8780 Y137.3650 Z1.714 E1.2320
G1 X110.6520 Y136.9210 Z1.715 E1.2428
G1 X110.4730 Y136.4560 Z1.715 E1.2535
G1 X110.3440 Y135.9750 Z1.715 E1.2642
G1 X110.2660 Y135.4830 Z1.716 E1.2750
G1 X110.2400 Y134.9790 Z1.716 E1.2859
G1 X110.2400 Y124.9790 Z1.722 E1.5014
G1 X110.2120 Y124.4380 Z1.722 E1.5131
G1 X110.1260 Y123.8960 Z1.723 E1.5249
G1 X109.9840 Y123.3660 Z1.723 E1.5367
G1 X109.7870 Y122.8540 Z1.723 E1.5485
G1 X109.5380 Y122.3650 Z1.724 E1.5604
G1 X109.2400 Y121.9050 Z1.724 E1.5722
G1 X108.8940 Y121.4790 Z1.724 E1.5840
G1 X108.5060 Y121.0910 Z1.725 E1.5958
G1 X108.0800 Y120.7460 Z1.725 E1.6076
G1 X107.6200 Y120.4470 Z1.725 E1.6195
G1 X107.1310 Y120.1980 Z1.725 E1.6313
G1 X106.6190 Y120.0010 Z1.726 E1.6431
G1 X106.0900 Y119.8600 Z1.726 E1.6549
G1 X105.5480 Y119.7740 Z1.726 E1.6668
G1 X105.0060 Y119.7450 Z1.727 E1.6784
G1 X90.2400 Y119.7450 Z1.736 E1.9967
G1 X90.2400 Y99.9920 Z1.748 E2.4224
G1 X90.3560 Y97.8490 Z1.749 E2.4687
G1 X90.7020 Y95.7380 Z1.750 E2.5148
G1 X91.2750 Y93.6760 Z1.751 E2.5609
G1 X92.0670 Y91.6880 Z1.753 E2.6070
G1 X93.0690 Y89.7980 Z1.754 E2.6531
G1 X94.2690 Y88.0270 Z1.755 E2.6992
G1 X95.6550 Y86.3970 Z1.757 E2.7454
G1 X97.2080 Y84.9250 Z1.758 E2.7915
G1 X98.9110 Y83.6310 Z1.759 E2.8376
G1 X100.7440 Y82.5270 Z1.760 E2.8837
G1 X102.6860 Y81.6290 Z1.762 E2.9298
G1 X104.7140 Y80.9460 Z1.763 E2.9759
G1 X106.8030 Y80.4860 Z1.764 E3.0220
G1 X108.9300 Y80.2550 Z1.766 E3.0681
G1 X111.0700 Y80.2550 Z1.767 E3.1143
G1 X113.1970 Y80.4860 Z1.768 E3.1604
G1 X115.2860 Y80.9460 Z1.769 E3.2065
G1 X117.3140 Y81.6290 Z1.771 E3.2526
G1 X119.2560 Y82.5270 Z1.772 E3.2987
G1 X121.0890 Y83.6310 Z1.773 E3.3448
G1 X122.7920 Y84.9250 Z1.775 E3.3909
G1 X124.3450 Y86.3970 Z1.776 E3.4370
G1 X125.7310 Y88.0270 Z1.777 E3.4832
G1 X126.9310 Y89.7980 Z1.778 E3.5293
G1 X127.9330 Y91.6880 Z1.780 E3.5754
G1 X128.7250 Y93.6760 Z1.781 E3.6215
G1 X129.2980 Y95.7380 Z1.782 E3.6676
G1 X129.6440 Y97.8490 Z1.784 E3.7137
G1 X129.7600 Y99.9920 Z1.785 E3.7600
G1 X129.7600 Y101.0890 Z1.786 E3.7836
G1 X129.1950 Y101.1140 Z1.786 E3.7958
G1 X128.2270 Y101.2500 Z1.786 E3.8169
G1 X127.2770 Y101.4890 Z1.787 E3.8380
G1 X126.3590 Y101.8260 Z1.788 E3.8591
G1 X125.4850 Y102.2570 Z1.788 E3.8801
G1 X125.2340 Y102.4030 Z1.788 E3.8863
G1 X124.6560 Y102.7810 Z1.789 E3.9012
G1 X124.4060 Y102.9640 Z1.789 E3.9079
G1 X123.8880 Y103.3890 Z1.789 E3.9223
G1 X123.6440 Y103.6120 Z1.790 E3.9294
G1 X123.1890 Y104.0740 Z1.790 E3.9434
G1 X122.9560 Y104.3380 Z1.790 E3.9510
G1 X122.5670 Y104.8300 Z1.791 E3.9645
G1 X122.3510 Y105.1350 Z1.791 E3.9726
G1 X122.0280 Y105.6470 Z1.791 E3.9856
G1 X121.8360 Y105.9920 Z1.791 E3.9941
G1 X121.5780 Y106.5170 Z1.792 E4.0067
G1 X121.4160 Y106.8990 Z1.792 E4.0157
G1 X121.2230 Y107.4290 Z1.792 E4.0279
G1 X121.0970 Y107.8470 Z1.793 E4.0373
G1 X120.9670 Y108.3740 Z1.793 E4.0490
G1 X120.8820 Y108.8240 Z1.793 E4.0588
G1 X120.8120 Y109.3410 Z1.794 E4.0701
G1 X120.7730 Y109.8190 Z1.794 E4.0804
G1 X120.7600 Y110.3190 Z1.794 E4.0912
G1 X120.7730 Y110.8190 Z1.794 E4.1020
G1 X120.8120 Y111.2960 Z1.795 E4.1123
G1 X120.8820 Y111.8130 Z1.795 E4.1235
G1 X120.9670 Y112.2630 Z1.795 E4.1334
G1 X121.0970 Y112.7900 Z1.796 E4.1451
G1 X121.2230 Y113.2080 Z1.796 E4.1545
G1 X121.4160 Y113.7380 Z1.796 E4.1667
G1 X121.5780 Y114.1200 Z1.796 E4.1756
G1 X121.8360 Y114.6460 Z1.797 E4.1882
G1 X122.0280 Y114.9900 Z1.797 E4.1967
G1 X122.3510 Y115.5030 Z1.797 E4.2098
G1 X122.5670 Y115.8070 Z1.798 E4.2178
G1 X122.9560 Y116.2990 Z1.798 E4.2314
G1 X123.1890 Y116.5630 Z1.798 E4.2389
G1 X123.6440 Y117.0250 Z1.799 E4.2529
G1 X123.8880 Y117.2490 Z1.799 E4.2600
G1 X124.4060 Y117.6730 Z1.799 E4.2745
G1 X124.6560 Y117.8560 Z1.799 E4.2812
G1 X125.2340 Y118.2350 Z1.800 E4.2960
G1 X125.4850 Y118.3800 Z1.800 E4.3023
;layer 16, Z = 1.920
G92 E0.0000
G1 X126.3590 Y118.8110 Z1.801 E0.0210 F12000 ; custom feedrate
G1 X127.2770 Y119.1490 Z1.801 E0.0421
G1 X128.2270 Y119.3870 Z1.802 E0.0632
G1 X129.1950 Y119.5240 Z1.802 E0.0843
G1 X129.7600 Y119.5480 Z1.803 E0.0965
G1 X129.7600 Y120.5530 Z1.803 E0.1181
G1 X120.6610 Y129.6520 Z1.811 E0.3954
G1 X129.7600 Y138.7510 Z1.819 E0.6728
G1 X129.7600 Y139.7450 Z1.819 E0.6942
G1 X128.1320 Y139.7450 Z1.820 E0.7293
G1 X128.1210 Y139.6470 Z1.820 E0.7314
G1 X128.0150 Y139.3300 Z1.821 E0.7386
G1 X127.9290 Y139.1680 Z1.821 E0.7426
G1 X127.7270 Y138.9020 Z1.821 E0.7498
G1 X127.4690 Y138.6830 Z1.821 E0.7571
G1 X127.2230 Y138.5470 Z1.821 E0.7631
G1 X126.9730 Y138.4600 Z1.821 E0.7689
G1 X126.6670 Y138.4130 Z1.822 E0.7755
G1 X126.3290 Y138.4310 Z1.822 E0.7828
G1 X126.0010 Y138.5220 Z1.822 E0.7901
G1 X125.7150 Y138.6720 Z1.822 E0.7971
G1 X125.5070 Y138.8370 Z1.822 E0.8028
G1 X125.3280 Y139.0350 Z1.823 E0.8086
G1 X125.1540 Y139.3240 Z1.823 E0.8159
G1 X125.0450 Y139.6470 Z1.823 E0.8232
G1 X125.0350 Y139.7450 Z1.823 E0.8253
G1 X123.4070 Y139.7450 Z1.824 E0.8604
G1 X123.4070 Y138.4120 Z1.825 E0.8892
G1 X121.5930 Y138.4120 Z1.826 E0.9282
G1 X121.5930 Y139.7450 Z1.827 E0.9570
G1 X119.8490 Y139.7450 Z1.828 E0.9946
G1 X118.4170 Y138.3130 Z1.829 E1.0382
G1 X116.9840 Y139.7450 Z1.830 E1.0819
G1 X115.0060 Y139.7450 Z1.831 E1.1245
G1 X114.5020 Y139.7190 Z1.832 E1.1354
G1 X114.0100 Y139.6410 Z1.832 E1.1461
G1 X113.5290 Y139.5120 Z1.832 E1.1569
G1 X113.0640 Y139.3340 Z1.833 E1.1676
G1 X112.6200 Y139.1070 Z1.833 E1.1783
G1 X112.2020 Y138.8360 Z1.833 E1.1891
G1 X111.8150 Y138.5220 Z1.833 E1.1998
G1 X111.4630 Y138.1700 Z1.834 E1.2106
G1 X111.1490 Y137.7830 Z1.834 E1.2213
G1 X110.8780 Y137.3650 Z1.834 E1.2320
G1 X110.6520 Y136.9210 Z1.835 E1.2428
G1 X110.4730 Y136.4560 Z1.835 E1.2535
G1 X110.3440 Y135.9750 Z1.835 E1.2642
G1 X110.2660 Y135.4830 Z1.836 E1.2750
G1 X110.2400 Y134.9790 Z1.836 E1.2859
G1 X110.2400 Y124.9790 Z1.842 E1.5014
G1 X110.2120 Y124.4380 Z1.842 E1.5131
G1 X110.1260 Y123.8960 Z1.843 E1.5249
G1 X109.9840 Y123.3660 Z1.843 E1.5367
G1 X109.7870 Y122.8540 Z1.843 E1.5485
G1 X109.5380 Y122.3650 Z1.844 E1.5604
G1 X109.2400 Y121.9050 Z1.844 E1.5722
G1 X108.8940 Y121.4790 Z1.844 E1.5840
G1 X108.5060 Y121.0910 Z1.845 E1.5958
G1 X108.0800 Y120.7460 Z1.845 E1.6076
G1 X107.6200 Y120.4470 Z1.845 E1.6195
G1 X107.1310 Y120.1980 Z1.845 E1.6313
G1 X106.6190 Y120.0010 Z1.846 E1.6431
G1 X106.0900 Y119.8600 Z1.846 E1.6549
G1 X105.5480 Y119.7740 Z1.846 E1.6668
G1 X105.0060 Y119.7450 Z1.847 E1.6784
G1 X90.2400 Y119.7450 Z1.856 E1.9967
G1 X90.2400 Y99.9920 Z1.868 E2.4224
G1 X90.3560 Y97.8490 Z1.869 E2.4687
G1 X90.7020 Y95.7380 Z1.870 E2.5148
G1 X91.2750 Y93.6760 Z1.871 E2.5609
G1 X92.0670 Y91.6880 Z1.873 E2.6070
G1 X93.0690 Y89.7980 Z1.874 E2.6531
G1 X94.2690 Y88.0270 Z1.875 E2.6992
G1 X95.6550 Y86.3970 Z1.877 E2.7454
G1 X97.2080 Y84.9250 Z1.878 E2.7915
G1 X98.9110 Y83.6310 Z1.879 E2.8376
G1 X100.7440 Y82.5270 Z1.880 E2.8837
G1 X102.6860 Y81.6290 Z1.882 E2.9298
G1 X104.7140 Y80.9460 Z1.883 E2.9759
G1 X106.8030 Y80.4860 Z1.884 E3.0220
G1 X108.9300 Y80.2550 Z1.886 E3.0681
G1 X111.0700 Y80.2550 Z1.887 E3.1143
G1 X113.1970 Y80.4860 Z1.888 E3.1604
G1 X115.2860 Y80.9460 Z1.889 E3.2065
G1 X117.3140 Y81.6290 Z1.891 E3.2526
G1 X119.2560 Y82.5270 Z1.892 E3.2987
G1 X121.0890 Y83.6310 Z1.893 E3.3448
G1 X122.7920 Y84.9250 Z1.895 E3.3909
G1 X124.3450 Y86.3970 Z1.896 E3.4370
G1 X125.7310 Y88.0270 Z1.897 E3.4832
G1 X126.9310 Y89.7980 Z1.898 E3.5293
G1 X127.9330 Y91.6880 Z1.900 E3.5754
G1 X128.7250 Y93.6760 Z1.901 E3.6215
G1 X129.2980 Y95.7380 Z1.902 E3.6676
G1 X129.6440 Y97.8490 Z1.904 E3.7137
