; HEADER_BLOCK_START
; generated by OrcaSlicer 1.9.0 on 2024-01-27 at 17:46:44
; total layer number: 101
; filament_density: 1.24
; filament_diameter: 1.75
; max_z_height: 32.00
; HEADER_BLOCK_END

; THUMBNAIL_BLOCK_START

;
; THUMBNAIL_BLOCK_END

; external perimeters extrusion width = 0.70mm
; perimeters extrusion width = 0.45mm
; infill extrusion width = 0.45mm
; solid infill extrusion width = 0.40mm
; top infill extrusion width = 0.40mm
; first layer extrusion width = 0.50mm

; EXECUTABLE_BLOCK_START
EXCLUDE_OBJECT_DEFINE NAME=SpeedTestStructure.step_id_0_copy_0 CENTER=125,125 POLYGON=[[35.0007,95],[35.0036,94.6687],[35.0066,94.5167],[35.0123,94.3248],[35.023,94.0582],[35.0241,94.0337],[35.0333,93.8587],[35.0474,93.6347],[35.0533,93.5513],[35.0621,93.4358],[35.08,93.2227],[35.0941,93.0697],[35.1124,92.8911],[35.1227,92.7953],[35.1351,92.6861],[35.1466,92.5893],[35.152,92.5448],[35.1593,92.4863],[35.1732,92.3793],[35.1804,92.3251],[35.1929,92.2342],[35.1944,92.2238],[35.2036,92.1586],[35.2085,92.1251],[35.2106,92.1102],[35.2124,92.0978],[35.2143,92.0852],[35.2172,92.0654],[35.2177,92.0621],[35.2179,92.061],[35.2219,92.0358],[35.2694,91.7382],[35.2862,91.6329],[35.2962,91.5785],[35.3733,91.1575],[35.4719,90.6843],[35.5819,90.2137],[35.7032,89.7458],[35.7184,89.6927],[35.8358,89.2811],[35.9796,88.8197],[35.9973,88.7673],[36.1345,88.3618],[36.1535,88.31],[36.3004,87.9079],[36.4773,87.4581],[36.6649,87.0127],[36.6876,86.9623],[36.8633,86.572],[37.0722,86.1362],[37.2916,85.7055],[37.5214,85.2803],[37.5488,85.2324],[37.7614,84.8608],[38.0114,84.4472],[38.2713,84.0397],[38.5411,83.6387],[38.8204,83.2443],[39.1092,82.8568],[39.4073,82.4763],[39.7144,82.1032],[40.0305,81.7375],[40.3554,81.3797],[40.6888,81.0298],[41.0305,80.688],[41.3804,80.3546],[41.4213,80.3175],[41.7383,80.0298],[41.7801,79.9937],[42.1039,79.7137],[42.1465,79.6786],[42.477,79.4065],[42.5205,79.3725],[42.8575,79.1084],[43.245,78.8197],[43.6395,78.5403],[43.6853,78.5095],[44.0405,78.2706],[44.4479,78.0106],[44.4952,77.9821],[44.8616,77.7606],[45.2811,77.5206],[45.7063,77.2909],[45.7555,77.2658],[46.1369,77.0715],[46.1867,77.0476],[46.5727,76.8625],[47.0135,76.6642],[47.0644,76.6427],[47.4588,76.4765],[47.5103,76.4563],[47.9086,76.2997],[47.9605,76.2807],[48.3626,76.1338],[48.8204,75.9789],[48.8731,75.9624],[49.2818,75.8351],[49.3349,75.8199],[49.7466,75.7025],[50.2144,75.5812],[50.2682,75.5686],[50.6851,75.4712],[50.7391,75.4599],[51.1582,75.3726],[51.6336,75.2855],[52.111,75.2099],[52.59,75.1458],[53.0705,75.0934],[53.1255,75.0887],[53.552,75.0525],[54.0345,75.0234],[54.5175,75.0058],[55.0007,75],[205.001,75],[205.04,75.0007],[205.346,75.006],[205.691,75.0238],[206.035,75.0536],[206.377,75.0952],[206.416,75.1013],[206.718,75.1486],[207.057,75.2138],[207.394,75.2906],[207.728,75.379],[208.058,75.4788],[208.385,75.59],[208.422,75.604],[208.708,75.7124],[209.026,75.8459],[209.062,75.8624],[209.34,75.9903],[209.648,76.1454],[209.683,76.1644],[209.951,76.3111],[210.248,76.4872],[210.281,76.5084],[210.538,76.6733],[210.823,76.8694],[211.1,77.0752],[211.37,77.2905],[211.4,77.3161],[211.632,77.5149],[211.886,77.7482],[212.133,77.9902],[212.37,78.2406],[212.396,78.2701],[212.599,78.499],[212.624,78.5294],[212.819,78.7651],[212.843,78.7964],[213.03,79.0387],[213.231,79.3194],[213.252,79.3522],[213.422,79.6068],[213.442,79.6404],[213.603,79.9007],[213.622,79.935],[213.774,80.2006],[213.792,80.2356],[213.934,80.5063],[213.951,80.5418],[214.084,80.8173],[214.1,80.8534],[214.223,81.1333],[214.351,81.4539],[214.468,81.7788],[214.48,81.8164],[214.573,82.1075],[214.584,82.1454],[214.667,82.4396],[214.677,82.4779],[214.75,82.7748],[214.758,82.8134],[214.821,83.1126],[214.828,83.1515],[214.88,83.4527],[214.928,83.7946],[214.964,84.138],[214.987,84.4824],[214.999,84.8274],[214.999,165.173],[214.987,165.518],[214.964,165.862],[214.959,165.901],[214.928,166.205],[214.88,166.547],[214.821,166.887],[214.75,167.225],[214.667,167.56],[214.657,167.598],[214.573,167.893],[214.561,167.93],[214.468,168.221],[214.351,168.546],[214.336,168.583],[214.223,168.867],[214.084,169.183],[213.934,169.494],[213.916,169.529],[213.774,169.799],[213.603,170.099],[213.582,170.133],[213.422,170.393],[213.252,170.648],[213.231,170.681],[213.03,170.961],[212.843,171.204],[212.819,171.235],[212.599,171.501],[212.37,171.759],[212.343,171.788],[212.133,172.01],[211.915,172.224],[211.886,172.252],[211.632,172.485],[211.4,172.684],[211.37,172.71],[211.1,172.925],[210.854,173.107],[210.823,173.131],[210.538,173.327],[210.248,173.513],[209.985,173.669],[209.951,173.689],[209.683,173.836],[209.648,173.855],[209.375,173.992],[209.34,174.01],[209.026,174.154],[208.708,174.288],[208.385,174.41],[208.058,174.521],[207.765,174.61],[207.728,174.621],[207.394,174.709],[207.096,174.777],[207.057,174.786],[206.718,174.851],[206.416,174.899],[206.377,174.905],[206.074,174.942],[206.035,174.946],[205.691,174.976],[205.346,174.994],[205.001,175],[55.0007,175],[54.5175,174.994],[54.4623,174.992],[54.0345,174.977],[53.552,174.947],[53.0705,174.907],[52.59,174.854],[52.111,174.79],[52.0564,174.781],[51.6336,174.715],[51.5793,174.705],[51.1582,174.627],[50.6851,174.529],[50.2144,174.419],[49.7466,174.298],[49.6935,174.282],[49.2818,174.165],[48.8204,174.021],[48.7681,174.003],[48.3626,173.866],[47.9086,173.7],[47.8572,173.68],[47.4588,173.523],[47.4079,173.502],[47.0135,173.336],[46.5727,173.137],[46.1369,172.929],[46.0877,172.903],[45.7063,172.709],[45.2811,172.479],[45.2331,172.452],[44.8616,172.239],[44.4479,171.989],[44.4014,171.96],[44.0405,171.729],[43.6395,171.46],[43.245,171.18],[43.2007,171.147],[42.8575,170.892],[42.477,170.593],[42.1039,170.286],[42.0621,170.25],[41.7383,169.97],[41.6974,169.933],[41.3804,169.645],[41.0305,169.312],[40.6888,168.97],[40.3554,168.62],[40.3182,168.579],[40.0305,168.262],[39.9944,168.221],[39.7144,167.897],[39.6793,167.854],[39.4073,167.524],[39.1092,167.143],[38.8204,166.756],[38.5411,166.361],[38.2713,165.96],[38.2416,165.914],[38.0114,165.553],[37.9828,165.506],[37.7614,165.139],[37.5214,164.72],[37.2916,164.294],[37.2665,164.245],[37.0722,163.864],[37.0483,163.814],[36.8633,163.428],[36.6649,162.987],[36.6435,162.936],[36.4772,162.542],[36.457,162.49],[36.3004,162.092],[36.1345,161.638],[35.9796,161.18],[35.9632,161.128],[35.8358,160.719],[35.7032,160.254],[35.6894,160.201],[35.5819,159.786],[35.5693,159.733],[35.4719,159.316],[35.3733,158.843],[35.2862,158.367],[35.2689,158.258],[35.2219,157.964],[35.2179,157.939],[35.2179,157.939],[35.2177,157.938],[35.217,157.933],[35.2165,157.93],[35.2153,157.922],[35.2137,157.911],[35.2106,157.89],[35.2092,157.88],[35.2083,157.874],[35.2021,157.831],[35.1998,157.815],[35.1901,157.745],[35.1858,157.715],[35.1741,157.627],[35.1652,157.559],[35.1593,157.514],[35.1466,157.411],[35.1437,157.387],[35.1348,157.311],[35.1135,157.119],[35.1044,157.033],[35.0941,156.93],[35.0812,156.79],[35.074,156.709],[35.0533,156.449],[35.0485,156.381],[35.0441,156.315],[35.0241,155.966],[35.0207,155.892],[35.0066,155.483],[35.0051,155.413],[35.0018,155.204],[35.0007,155],[35.0007,95]]
M73 P0 R26
;TYPE:Custom
START_PRINT NOZZLE_TEMP=220  BED_TEMP=60 
G90
G21
M83 ; use relative distances for extrusion
; filament start gcode
M106 S0
;LAYER_CHANGE
;Z:0.32
;HEIGHT:0.32
;BEFORE_LAYER_CHANGE
;0.32
G92 E0

G1 Z.32 F21000
;AFTER_LAYER_CHANGE
;0.32
;_SET_FAN_SPEED_CHANGING_LAYER
SET_VELOCITY_LIMIT ACCEL=500 ACCEL_TO_DECEL=250
; printing object SpeedTestStructure.step id:0 copy 0
G1 E-.8 F1800
EXCLUDE_OBJECT_START NAME=SpeedTestStructure.step_id_0_copy_0
G1 X42.739 Y74.256 F21000
G1 E.8 F1800
;TYPE:Brim
;WIDTH:0.5
G1 F3000
G1 X43.243 Y73.966 E.0327
G1 X44.368 Y73.375 E.07144
G1 X45.331 Y72.928 E.05971
G1 X45.865 Y72.702 E.03261
G1 X47.052 Y72.252 E.07141
G1 X48.062 Y71.923 E.05971
G1 X48.718 Y71.736 E.03838
G1 X49.283 Y71.591 E.03282
G1 X50.32 Y71.362 E.05972
G1 X51.572 Y71.148 E.07144
G1 X52.147 Y71.072 E.03259
G1 X53.201 Y70.97 E.05958
G1 X54.471 Y70.909 E.07147
G1 X205.559 Y70.914 E8.49669
G1 X206.384 Y70.971 E.04649
G1 X207.497 Y71.126 E.06317
G1 X207.97 Y71.219 E.02716
G1 X208.775 Y71.418 E.0466
G1 X209.38 Y71.6 E.03553
G1 X210.156 Y71.879 E.04636
G1 X211.184 Y72.331 E.06319
G1 X211.916 Y72.716 E.04649
G1 X212.333 Y72.96 E.02716
G1 X213.268 Y73.582 E.06317
G1 X213.923 Y74.086 E.04646
G1 X214.76 Y74.827 E.06285
G1 X215.339 Y75.416 E.04646
G1 X216.069 Y76.269 E.06313
G1 X216.56 Y76.931 E.04637
G1 X216.912 Y77.459 E.03569
G1 X217.164 Y77.873 E.02726
G1 X217.56 Y78.597 E.04641
G1 X218.03 Y79.618 E.06319
G1 X218.322 Y80.389 E.04637
G1 X218.516 Y80.993 E.03568
G1 X218.646 Y81.46 E.02727
G1 X218.83 Y82.265 E.04641
G1 X219.004 Y83.375 E.06318
G1 X219.075 Y84.198 E.04646
G1 X219.097 Y84.831 E.0356
G1 X219.094 Y85.315 E.02727
G1 X219.052 Y86.141 E.04648
G1 X218.916 Y87.255 E.06309
G1 X218.76 Y88.066 E.04647
G1 X218.647 Y88.536 E.02719
G1 X218.322 Y89.611 E.06317
G1 X218.029 Y90.384 E.04646
G1 X217.774 Y90.963 E.0356
G1 X217.562 Y91.399 E.02727
G1 X217.165 Y92.124 E.04649
G1 X216.56 Y93.069 E.0631
G1 X216.067 Y93.733 E.04648
G1 X215.761 Y94.107 E.02719
G1 X215.002 Y94.934 E.06313
G1 X214.403 Y95.504 E.04651
G1 X214.036 Y95.821 E.02726
G1 X213.541 Y96.216 E.03559
G1 X212.87 Y96.696 E.04643
G1 X211.914 Y97.285 E.06313
G1 X211.182 Y97.67 E.04649
G1 X210.743 Y97.875 E.02727
G1 X210.159 Y98.119 E.0356
G1 X209.382 Y98.399 E.04646
G1 X208.302 Y98.705 E.0631
G1 X207.495 Y98.875 E.04638
G1 X206.531 Y99.014 E.0548
G1 X205.901 Y99.068 E.03552
G1 X204.997 Y99.098 E.05087
G1 X64.786 Y99.102 E7.88496
G1 X64.178 Y99.156 E.03436
G1 X63.578 Y99.273 E.03436
G1 X62.993 Y99.45 E.03435
G1 X62.43 Y99.688 E.03438
G1 X61.895 Y99.982 E.03434
G1 X61.393 Y100.33 E.03436
G1 X60.945 Y100.713 E.0331
G1 X60.524 Y101.155 E.03438
G1 X60.15 Y101.638 E.03435
G1 X59.829 Y102.157 E.03428
G1 X59.636 Y102.542 E.02423
G1 X59.41 Y103.11 E.03436
G1 X59.245 Y103.698 E.03436
G1 X59.141 Y104.3 E.03436
G1 X59.1 Y104.909 E.03436
G1 X59.122 Y105.516 E.03415
G1 X59.172 Y105.924 E.02312
G1 X59.299 Y106.522 E.03435
G1 X59.479 Y107.082 E.03311
G1 X59.645 Y107.479 E.02418
G1 X59.919 Y108 E.03308
G1 X60.15 Y108.362 E.02418
G1 X60.524 Y108.845 E.03434
G1 X60.942 Y109.284 E.03408
G1 X61.251 Y109.557 E.02319
G1 X61.742 Y109.92 E.03436
G1 X62.248 Y110.22 E.0331
G1 X62.635 Y110.407 E.02416
G1 X63.186 Y110.615 E.03311
G1 X63.599 Y110.733 E.02416
G1 X64.198 Y110.847 E.0343
G1 X64.805 Y110.898 E.03422
G1 X204.997 Y110.902 E7.88393
G1 X205.901 Y110.932 E.05086
G1 X206.53 Y110.986 E.03552
G1 X207.351 Y111.1 E.04657
G1 X207.97 Y111.219 E.03549
G1 X208.917 Y111.458 E.05491
G1 X209.379 Y111.6 E.02719
G1 X210.158 Y111.88 E.04652
G1 X211.05 Y112.267 E.05472
G1 X211.915 Y112.715 E.05473
G1 X212.869 Y113.303 E.06304
G1 X213.656 Y113.873 E.05469
G1 X214.405 Y114.498 E.05483
G1 X214.76 Y114.827 E.02719
G1 X215.339 Y115.417 E.04652
G1 X215.976 Y116.153 E.05473
G1 X216.643 Y117.051 E.06292
G1 X217.165 Y117.875 E.05484
G1 X217.562 Y118.601 E.04653
G1 X217.774 Y119.036 E.0272
G1 X218.155 Y119.932 E.0548
G1 X218.516 Y120.993 E.06302
G1 X218.761 Y121.936 E.05481
G1 X218.858 Y122.41 E.0272
G1 X218.986 Y123.226 E.04642
G1 X219.075 Y124.197 E.05485
G1 X219.097 Y125.169 E.05469
G1 X219.039 Y126.289 E.06303
G1 X218.916 Y127.253 E.05469
G1 X218.727 Y128.21 E.05484
G1 X218.609 Y128.679 E.0272
G1 X218.37 Y129.471 E.04652
G1 X218.03 Y130.383 E.05472
G1 X217.561 Y131.401 E.06304
G1 X217.089 Y132.252 E.05473
G1 X216.643 Y132.949 E.04652
G1 X216.364 Y133.343 E.0272
G1 X215.76 Y134.108 E.0548
G1 X215.003 Y134.934 E.06299
G1 X214.294 Y135.601 E.05474
G1 X213.656 Y136.127 E.04652
G1 X213.269 Y136.417 E.02717
G1 X212.335 Y137.039 E.06313
G1 X211.487 Y137.516 E.05472
G1 X210.742 Y137.875 E.0465
G1 X210.16 Y138.119 E.0355
G1 X209.241 Y138.444 E.05482
G1 X208.445 Y138.67 E.0465
G1 X207.83 Y138.81 E.03549
G1 X206.869 Y138.973 E.05481
G1 X205.9 Y139.068 E.05474
G1 X205.072 Y139.097 E.04661
G1 X64.786 Y139.102 E7.88915
G1 X64.178 Y139.156 E.03436
G1 X63.599 Y139.267 E.03311
G1 X63.186 Y139.385 E.02418
G1 X62.615 Y139.602 E.03434
G1 X62.07 Y139.878 E.03436
G1 X61.556 Y140.208 E.03436
G1 X61.079 Y140.59 E.03436
G1 X60.644 Y141.019 E.03436
G1 X60.256 Y141.491 E.03436
G1 X59.919 Y142 E.03435
G1 X59.645 Y142.522 E.03313
G1 X59.417 Y143.088 E.03434
G1 X59.25 Y143.676 E.03438
G1 X59.144 Y144.278 E.03434
G1 X59.1 Y144.887 E.03435
G1 X59.107 Y145.298 E.02313
G1 X59.169 Y145.902 E.03414
G1 X59.293 Y146.5 E.03435
G1 X59.479 Y147.083 E.03438
G1 X59.637 Y147.462 E.0231
G1 X59.919 Y148 E.03415
G1 X60.256 Y148.509 E.03437
G1 X60.643 Y148.98 E.03428
G1 X60.932 Y149.275 E.02318
G1 X61.393 Y149.67 E.03415
G1 X61.742 Y149.92 E.02417
G1 X62.248 Y150.22 E.0331
G1 X62.803 Y150.477 E.03435
G1 X63.381 Y150.675 E.03435
G1 X63.78 Y150.774 E.02313
G1 X64.379 Y150.869 E.03414
G1 X64.79 Y150.898 E.02313
G1 X204.997 Y150.902 E7.88476
M73 P1 R26
G1 X205.901 Y150.932 E.05086
G1 X206.53 Y150.986 E.03552
G1 X207.35 Y151.1 E.04656
G1 X207.971 Y151.219 E.03551
G1 X208.917 Y151.458 E.0549
G1 X209.379 Y151.6 E.02719
G1 X210.157 Y151.88 E.04648
G1 X211.184 Y152.331 E.06308
G1 X212.042 Y152.788 E.05469
G1 X212.869 Y153.303 E.05476
G1 X213.54 Y153.784 E.04643
G1 X213.921 Y154.084 E.02725
G1 X214.654 Y154.727 E.05486
G1 X215.34 Y155.417 E.05473
G1 X215.976 Y156.153 E.05469
G1 X216.644 Y157.053 E.06304
G1 X217.164 Y157.875 E.05468
G1 X217.627 Y158.731 E.05473
G1 X218.03 Y159.617 E.05476
G1 X218.323 Y160.391 E.04652
G1 X218.473 Y160.85 E.02716
G1 X218.761 Y161.935 E.06313
G1 X218.939 Y162.891 E.05469
G1 X219.052 Y163.859 E.05477
G1 X219.094 Y164.685 E.04651
G1 X219.097 Y165.168 E.02716
G1 X219.039 Y166.289 E.06314
G1 X218.916 Y167.253 E.05468
G1 X218.728 Y168.208 E.05474
G1 X218.473 Y169.149 E.05483
G1 X218.323 Y169.609 E.02719
G1 X218.03 Y170.383 E.04652
G1 X217.627 Y171.269 E.05476
G1 X217.165 Y172.125 E.0547
G1 X216.56 Y173.069 E.06302
G1 X215.976 Y173.847 E.05474
G1 X215.438 Y174.475 E.04651
G1 X215.107 Y174.828 E.02719
G1 X214.404 Y175.502 E.0548
G1 X213.54 Y176.216 E.06303
G1 X212.746 Y176.778 E.05469
G1 X211.915 Y177.285 E.05473
G1 X211.051 Y177.733 E.05476
G1 X210.295 Y178.065 E.04642
G1 X209.38 Y178.4 E.05483
G1 X208.776 Y178.582 E.03548
G1 X207.828 Y178.811 E.05482
G1 X207.015 Y178.952 E.04643
G1 X206.047 Y179.058 E.05472
G1 X205.071 Y179.097 E.05493
G1 X55.003 Y179.098 E8.43926
G1 X53.785 Y179.067 E.06857
G1 X52.726 Y178.99 E.05971
G1 X52.148 Y178.928 E.03268
G1 X51.468 Y178.837 E.03854
G1 X50.424 Y178.659 E.05956
G1 X49.182 Y178.384 E.07155
G1 X48.621 Y178.237 E.0326
G1 X47.604 Y177.934 E.0597
G1 X46.407 Y177.513 E.07135
G1 X45.424 Y177.113 E.05969
G1 X44.893 Y176.875 E.03271
G1 X44.275 Y176.579 E.03853
G1 X43.336 Y176.086 E.05968
G1 X42.242 Y175.442 E.07135
G1 X41.354 Y174.86 E.05972
G1 X40.879 Y174.526 E.03263
G1 X39.871 Y173.755 E.07139
G1 X39.059 Y173.071 E.05972
G1 X38.629 Y172.682 E.03261
G1 X37.72 Y171.795 E.0714
G1 X36.997 Y171.017 E.0597
G1 X36.551 Y170.501 E.03837
G1 X36.181 Y170.05 E.03283
G1 X35.538 Y169.208 E.05959
G1 X34.815 Y168.161 E.07154
G1 X34.504 Y167.671 E.03262
G1 X33.966 Y166.756 E.0597
G1 X33.376 Y165.632 E.07141
G1 X33.126 Y165.109 E.0326
G1 X32.703 Y164.137 E.05959
G1 X32.252 Y162.948 E.07154
G1 X32.067 Y162.398 E.0326
G1 X31.764 Y161.383 E.05959
G1 X31.46 Y160.149 E.07146
G1 X31.233 Y158.971 E.06746
G1 X31.089 Y157.981 E.05625
G1 X31.02 Y157.369 E.03467
G1 X30.929 Y156.111 E.07091
G1 X30.903 Y154.997 E.06265
G1 X30.903 Y95.003 E3.37388
G1 X30.935 Y93.766 E.06956
G1 X31.021 Y92.623 E.06447
G1 X31.086 Y92.04 E.03297
G1 X31.239 Y90.994 E.05947
G1 X31.483 Y89.748 E.07139
G1 X31.616 Y89.184 E.0326
G1 X31.895 Y88.16 E.05971
G1 X32.252 Y87.051 E.06551
G1 X32.702 Y85.865 E.07134
G1 X33.126 Y84.892 E.05969
M73 P1 R25
G1 X33.376 Y84.368 E.03263
G1 X33.966 Y83.244 E.0714
G1 X34.504 Y82.329 E.0597
G1 X34.815 Y81.839 E.03264
G1 X35.536 Y80.794 E.07139
G1 X36.181 Y79.95 E.05969
G1 X36.549 Y79.502 E.03262
G1 X37.39 Y78.552 E.07133
G1 X37.792 Y78.132 E.03275
G1 X38.552 Y77.39 E.05972
G1 X39.502 Y76.548 E.07141
G1 X39.951 Y76.18 E.0326
G1 X40.793 Y75.537 E.0596
