; HEADER_BLOCK_START
; generated by OrcaSlicer 1.9.0 on 2024-01-22 at 14:57:24
; total layer number: 250
; filament_density: 1.24
; filament_diameter: 1.75
; max_z_height: 50.00
; HEADER_BLOCK_END

; THUMBNAIL_BLOCK_START

;
; THUMBNAIL_BLOCK_END

; external perimeters extrusion width = 0.40mm
; perimeters extrusion width = 0.45mm
; infill extrusion width = 0.45mm
; solid infill extrusion width = 0.40mm
; top infill extrusion width = 0.40mm
; first layer extrusion width = 0.50mm

; EXECUTABLE_BLOCK_START
EXCLUDE_OBJECT_DEFINE NAME=square_tower_1_.stl_id_0_copy_0 CENTER=110,110 POLYGON=[[77,82],[77.1093,80.9604],[77.4323,79.9663],[77.9549,79.0611],[78.6544,78.2843],[79.5,77.6699],[80.4549,77.2447],[81.4774,77.0274],[138.523,77.0274],[139.545,77.2447],[140.5,77.6699],[141.346,78.2843],[142.045,79.0611],[142.568,79.9663],[142.891,80.9604],[143,82],[143,138],[142.891,139.04],[142.568,140.034],[142.045,140.939],[141.346,141.716],[140.5,142.33],[139.545,142.755],[138.523,142.973],[81.4774,142.973],[80.4549,142.755],[79.5,142.33],[78.6544,141.716],[77.9549,140.939],[77.4323,140.034],[77.1093,139.04],[77,138],[77,82]]
M73 P0 R183
;TYPE:Custom
START_PRINT NOZZLE_TEMP=200  BED_TEMP=60 

G90
G21
M83 ; use relative distances for extrusion
; filament start gcode
M106 S0
;LAYER_CHANGE
;Z:0.2
;HEIGHT:0.2
;BEFORE_LAYER_CHANGE
;0.2
G92 E0

G1 E-.8 F1800
;AFTER_LAYER_CHANGE
;0.2
;_SET_FAN_SPEED_CHANGING_LAYER
SET_VELOCITY_LIMIT ACCEL=500 ACCEL_TO_DECEL=250
SET_VELOCITY_LIMIT SQUARE_CORNER_VELOCITY=8
; printing object square_tower (1).stl id:0 copy 0
EXCLUDE_OBJECT_START NAME=square_tower_1_.stl_id_0_copy_0
G1 Z.4 F21000
G1 X139.344 Y134.402
G1 Z.4
G1 Z.2
G1 E.8 F1800
;TYPE:Inner wall
;WIDTH:0.499999
G1 F3000
G1 X139.413 Y134.454 E.00277
G1 X139.915 Y134.684 E.01777
G1 X140.562 Y135.154 E.02576
G1 X141.098 Y135.749 E.02576
G1 X141.498 Y136.442 E.02576
G1 X141.746 Y137.204 E.02576
G1 X141.829 Y138 E.02576
G1 X141.792 Y138.354 E.01144
G1 X141.746 Y138.796 E.01432
G1 X141.498 Y139.558 E.02576
G1 X141.098 Y140.251 E.02576
G1 X140.562 Y140.846 E.02576
G1 X139.915 Y141.316 E.02576
G1 X139.183 Y141.642 E.02576
G1 X138.4 Y141.808 E.02576
G1 X137.6 Y141.808 E.02576
G1 X136.817 Y141.642 E.02576
G1 X136.085 Y141.316 E.02576
G1 X135.438 Y140.846 E.02576
G1 X134.905 Y140.254 E.02563
G1 X134.304 Y139.238 E.03799
G1 X134.098 Y139.048 E.009
G1 X133.903 Y138.937 E.00722
G1 X133.434 Y138.836 E.01545
G1 X86.566 Y138.836 E1.50823
G1 X86.209 Y138.893 E.01163
G1 X85.902 Y139.048 E.01108
G1 X85.696 Y139.238 E.009
G1 X85.573 Y139.414 E.00693
G1 X85.095 Y140.254 E.03109
G1 X84.562 Y140.846 E.02563
G1 X83.915 Y141.316 E.02576
G1 X83.183 Y141.642 E.02576
G1 X82.4 Y141.808 E.02576
G1 X81.6 Y141.808 E.02576
G1 X80.817 Y141.642 E.02576
G1 X80.085 Y141.316 E.02576
G1 X79.438 Y140.846 E.02576
G1 X78.902 Y140.251 E.02576
G1 X78.502 Y139.558 E.02576
G1 X78.254 Y138.796 E.02576
G1 X78.171 Y138 E.02576
G1 X78.254 Y137.204 E.02576
G1 X78.502 Y136.442 E.02576
G1 X78.902 Y135.749 E.02576
G1 X79.438 Y135.154 E.02576
G1 X80.085 Y134.684 E.02576
G1 X80.486 Y134.505 E.01412
G1 X80.831 Y134.268 E.01347
G1 X81.063 Y133.93 E.01318
G1 X81.164 Y133.461 E.01545
G1 X81.164 Y86.539 E1.51
G1 X81.063 Y86.07 E.01545
G1 X80.831 Y85.732 E.01318
G1 X80.587 Y85.546 E.00986
G1 X80.085 Y85.316 E.01777
G1 X79.438 Y84.846 E.02576
G1 X78.902 Y84.251 E.02576
G1 X78.502 Y83.558 E.02576
G1 X78.254 Y82.796 E.02576
G1 X78.171 Y82 E.02576
G1 X78.254 Y81.204 E.02576
G1 X78.502 Y80.442 E.02576
G1 X78.902 Y79.749 E.02576
G1 X79.438 Y79.154 E.02576
G1 X80.085 Y78.684 E.02576
G1 X80.817 Y78.358 E.02576
G1 X81.6 Y78.192 E.02576
G1 X82.4 Y78.192 E.02576
G1 X83.183 Y78.358 E.02576
G1 X83.915 Y78.684 E.02576
G1 X84.562 Y79.154 E.02576
G1 X85.095 Y79.746 E.02563
G1 X85.696 Y80.762 E.03799
G1 X85.902 Y80.952 E.009
G1 X86.097 Y81.063 E.00722
G1 X86.566 Y81.164 E.01545
G1 X133.434 Y81.164 E1.50823
G1 X133.791 Y81.107 E.01163
G1 X134.098 Y80.952 E.01108
G1 X134.304 Y80.762 E.009
G1 X134.427 Y80.586 E.00693
G1 X134.905 Y79.746 E.03109
G1 X135.438 Y79.154 E.02563
G1 X136.085 Y78.684 E.02576
G1 X136.817 Y78.358 E.02576
G1 X137.6 Y78.192 E.02576
G1 X138.4 Y78.192 E.02576
G1 X139.183 Y78.358 E.02576
G1 X139.915 Y78.684 E.02576
G1 X140.562 Y79.154 E.02576
G1 X141.098 Y79.749 E.02576
G1 X141.498 Y80.442 E.02576
G1 X141.746 Y81.204 E.02576
G1 X141.829 Y82 E.02576
G1 X141.746 Y82.796 E.02576
G1 X141.498 Y83.558 E.02576
G1 X141.098 Y84.251 E.02576
G1 X140.562 Y84.846 E.02576
G1 X139.915 Y85.316 E.02576
G1 X139.514 Y85.495 E.01412
G1 X139.169 Y85.732 E.01347
G1 X138.937 Y86.07 E.01318
G1 X138.836 Y86.539 E.01545
G1 X138.836 Y133.461 E1.51
G1 X138.937 Y133.93 E.01545
G1 X139.169 Y134.268 E.01318
G1 X139.313 Y134.377 E.00581
G1 X139.595 Y134.017 F21000
G1 F3000
G1 X139.639 Y134.057 E.00191
G1 X140.145 Y134.286 E.01786
G1 X140.87 Y134.813 E.02886
G1 X141.47 Y135.479 E.02885
G1 X141.918 Y136.255 E.02885
G1 X142.195 Y137.108 E.02885
G1 X142.289 Y138 E.02886
G1 X142.247 Y138.401 E.01299
G1 X142.195 Y138.892 E.01587
G1 X141.918 Y139.745 E.02885
G1 X141.47 Y140.521 E.02885
G1 X140.87 Y141.187 E.02885
G1 X140.145 Y141.714 E.02886
G1 X139.325 Y142.079 E.02885
G1 X138.448 Y142.266 E.02886
G1 X137.552 Y142.266 E.02885
G1 X136.675 Y142.079 E.02886
G1 X135.855 Y141.714 E.02885
G1 X135.13 Y141.187 E.02886
G1 X134.532 Y140.523 E.02878
G1 X133.956 Y139.534 E.03683
G1 X133.715 Y139.353 E.00967
G1 X133.434 Y139.293 E.00927
G1 X86.566 Y139.293 E1.50823
G1 X86.352 Y139.327 E.00698
G1 X86.168 Y139.421 E.00665
G1 X85.97 Y139.64 E.0095
G1 X85.468 Y140.523 E.03269
G1 X84.87 Y141.187 E.02878
G1 X84.144 Y141.714 E.02886
G1 X83.325 Y142.079 E.02885
G1 X82.448 Y142.266 E.02885
G1 X81.552 Y142.266 E.02886
G1 X80.675 Y142.079 E.02885
G1 X79.856 Y141.714 E.02885
G1 X79.13 Y141.187 E.02886
G1 X78.53 Y140.521 E.02885
G1 X78.082 Y139.745 E.02885
G1 X77.805 Y138.892 E.02885
G1 X77.711 Y138 E.02886
G1 X77.805 Y137.108 E.02886
G1 X78.082 Y136.255 E.02885
G1 X78.53 Y135.479 E.02885
G1 X79.13 Y134.813 E.02885
G1 X79.855 Y134.286 E.02885
G1 X80.181 Y134.141 E.01146
G1 X80.507 Y133.945 E.01224
G1 X80.647 Y133.743 E.00791
G1 X80.707 Y133.461 E.00927
G1 X80.707 Y86.539 E1.51
G1 X80.674 Y86.328 E.00686
G1 X80.583 Y86.146 E.00654
G1 X80.361 Y85.943 E.00969
G1 X79.855 Y85.714 E.01786
G1 X79.13 Y85.187 E.02885
G1 X78.53 Y84.521 E.02886
G1 X78.082 Y83.745 E.02885
G1 X77.805 Y82.892 E.02885
G1 X77.711 Y82 E.02886
G1 X77.805 Y81.108 E.02886
G1 X78.082 Y80.256 E.02885
G1 X78.53 Y79.479 E.02885
G1 X79.13 Y78.813 E.02885
G1 X79.855 Y78.286 E.02886
G1 X80.675 Y77.921 E.02885
G1 X81.552 Y77.734 E.02886
G1 X82.448 Y77.734 E.02885
G1 X83.325 Y77.921 E.02886
G1 X84.145 Y78.286 E.02885
G1 X84.87 Y78.813 E.02886
G1 X85.468 Y79.477 E.02878
G1 X86.044 Y80.466 E.03683
G1 X86.285 Y80.647 E.00967
G1 X86.566 Y80.707 E.00927
G1 X133.434 Y80.707 E1.50823
G1 X133.648 Y80.673 E.00698
G1 X133.832 Y80.58 E.00665
G1 X134.03 Y80.36 E.0095
G1 X134.532 Y79.477 E.03269
G1 X135.13 Y78.813 E.02878
G1 X135.855 Y78.286 E.02886
G1 X136.675 Y77.921 E.02885
G1 X137.552 Y77.734 E.02886
G1 X138.448 Y77.734 E.02885
G1 X139.325 Y77.921 E.02886
G1 X140.145 Y78.286 E.02885
G1 X140.87 Y78.813 E.02886
G1 X141.47 Y79.479 E.02885
G1 X141.918 Y80.255 E.02885
G1 X142.195 Y81.108 E.02886
G1 X142.289 Y82 E.02885
G1 X142.195 Y82.892 E.02885
G1 X141.918 Y83.745 E.02886
G1 X141.47 Y84.521 E.02885
G1 X140.87 Y85.187 E.02885
G1 X140.145 Y85.714 E.02886
G1 X139.819 Y85.859 E.01146
G1 X139.493 Y86.055 E.01224
G1 X139.353 Y86.257 E.00791
G1 X139.293 Y86.539 E.00927
G1 X139.293 Y133.461 E1.51
M73 P0 R182
G1 X139.326 Y133.672 E.00686
G1 X139.417 Y133.854 E.00654
G1 X139.565 Y133.99 E.00649
G1 X139.886 Y133.67 F21000
;TYPE:Outer wall
G1 F3000
G1 X140.374 Y133.888 E.01722
G1 X141.177 Y134.471 E.03195
G1 X141.842 Y135.209 E.03195
G1 X142.338 Y136.069 E.03195
G1 X142.645 Y137.013 E.03195
G1 X142.749 Y138 E.03195
G1 X142.701 Y138.449 E.01454
G1 X142.645 Y138.987 E.01741
G1 X142.338 Y139.931 E.03195
G1 X141.842 Y140.791 E.03195
G1 X141.177 Y141.529 E.03195
G1 X140.374 Y142.112 E.03195
G1 X139.467 Y142.516 E.03195
G1 X138.496 Y142.723 E.03195
G1 X137.504 Y142.723 E.03194
G1 X136.533 Y142.516 E.03195
G1 X135.626 Y142.112 E.03195
G1 X134.823 Y141.529 E.03195
G1 X134.159 Y140.792 E.03192
G1 X133.567 Y139.793 E.03738
G1 X133.434 Y139.75 E.00449
G1 X86.566 Y139.75 E1.50823
G1 X86.495 Y139.761 E.00233
G1 X86.367 Y139.866 E.00529
G1 X85.841 Y140.792 E.03428
G1 X85.177 Y141.529 E.03192
G1 X84.374 Y142.112 E.03195
G1 X83.467 Y142.516 E.03195
G1 X82.496 Y142.723 E.03195
G1 X81.504 Y142.723 E.03195
G1 X80.533 Y142.516 E.03195
G1 X79.626 Y142.112 E.03195
G1 X78.823 Y141.529 E.03195
G1 X78.158 Y140.791 E.03195
G1 X77.662 Y139.931 E.03195
G1 X77.355 Y138.987 E.03195
G1 X77.251 Y138 E.03195
G1 X77.355 Y137.013 E.03195
G1 X77.662 Y136.069 E.03195
G1 X78.158 Y135.209 E.03195
G1 X78.823 Y134.471 E.03195
G1 X79.626 Y133.888 E.03195
G1 X80.183 Y133.623 E.01987
G1 X80.25 Y133.461 E.00562
G1 X80.25 Y86.539 E1.51
G1 X80.23 Y86.445 E.00309
G1 X80.114 Y86.33 E.00524
G1 X79.626 Y86.112 E.01722
G1 X78.823 Y85.529 E.03195
G1 X78.158 Y84.791 E.03195
G1 X77.662 Y83.931 E.03195
G1 X77.355 Y82.987 E.03195
G1 X77.251 Y82 E.03195
G1 X77.355 Y81.013 E.03195
G1 X77.662 Y80.069 E.03195
G1 X78.158 Y79.209 E.03195
G1 X78.823 Y78.471 E.03195
G1 X79.626 Y77.888 E.03195
G1 X80.533 Y77.484 E.03195
G1 X81.504 Y77.277 E.03195
G1 X82.496 Y77.277 E.03195
G1 X83.467 Y77.484 E.03195
G1 X84.374 Y77.888 E.03195
G1 X85.177 Y78.471 E.03195
G1 X85.841 Y79.208 E.03192
G1 X86.433 Y80.207 E.03738
G1 X86.566 Y80.25 E.00449
G1 X133.434 Y80.25 E1.50823
G1 X133.505 Y80.239 E.00233
G1 X133.632 Y80.134 E.00529
G1 X134.159 Y79.208 E.03428
G1 X134.823 Y78.471 E.03192
G1 X135.626 Y77.888 E.03195
G1 X136.533 Y77.484 E.03195
G1 X137.504 Y77.277 E.03195
G1 X138.496 Y77.277 E.03194
G1 X139.467 Y77.484 E.03195
G1 X140.374 Y77.888 E.03195
G1 X141.177 Y78.471 E.03195
G1 X141.842 Y79.209 E.03195
G1 X142.338 Y80.069 E.03195
G1 X142.645 Y81.013 E.03195
G1 X142.749 Y82 E.03195
G1 X142.645 Y82.987 E.03195
G1 X142.338 Y83.931 E.03195
G1 X141.842 Y84.791 E.03195
G1 X141.177 Y85.529 E.03195
G1 X140.374 Y86.112 E.03195
G1 X139.817 Y86.377 E.01987
G1 X139.75 Y86.539 E.00562
G1 X139.75 Y133.461 E1.51
G1 X139.77 Y133.555 E.00309
G1 X139.857 Y133.642 E.00395
G1 E-.56 F1800
;WIPE_START
G1 F3000
G1 X140.374 Y133.888 E-.13741
G1 X140.72 Y134.139 E-.10259
;WIPE_END
G1 Z.6 F21000
G1 X140.464 Y134.491 Z.6
G1 X139.314 Y133.893
G1 X139.314 Y125.86
G1 X136.186 Y110.253
G1 X136.664 Y110.253
G1 Z.2
G1 E.8 F1800
;TYPE:Inner wall
G1 F3000
G1 X136.664 Y111.021 E.02472
G1 X136.563 Y111.491 E.01545
G1 X136.434 Y111.71 E.00819
G1 X136.164 Y111.844 E.00969
G1 X136.164 Y135.021 E.74587
G1 X136.106 Y135.382 E.01176
G1 X135.914 Y135.735 E.01292
G1 X135.667 Y135.965 E.01087
G1 X135.299 Y136.13 E.01297
G1 X134.499 Y136.164 E.02578
G1 X111.844 Y136.164 E.72904
G1 X111.71 Y136.434 E.00969
G1 X111.394 Y136.602 E.01152
G1 X111.021 Y136.664 E.01215
G1 X108.979 Y136.664 E.06574
G1 X108.509 Y136.563 E.01545
G1 X108.29 Y136.434 E.00819
G1 X108.156 Y136.164 E.00969
G1 X84.979 Y136.164 E.74587
G1 X84.701 Y136.13 E.009
G1 X84.303 Y135.943 E.01413
G1 X84.045 Y135.681 E.01185
G1 X83.894 Y135.382 E.01077
G1 X83.836 Y135.021 E.01176
G1 X83.836 Y107.844 E.87459
G1 X83.566 Y107.71 E.00969
G1 X83.398 Y107.394 E.01152
G1 X83.336 Y107.021 E.01215
G1 X83.336 Y104.979 E.06574
G1 X83.437 Y104.509 E.01545
G1 X83.566 Y104.29 E.00819
G1 X83.836 Y104.156 E.00969
G1 X83.836 Y84.979 E.61714
G1 X83.894 Y84.618 E.01176
G1 X84.086 Y84.265 E.01292
G1 X84.254 Y84.095 E.00772
G1 X84.498 Y83.942 E.00925
G1 X84.701 Y83.87 E.00693
G1 X85.501 Y83.836 E.02578
G1 X108.156 Y83.836 E.72904
G1 X108.29 Y83.566 E.00969
G1 X108.606 Y83.398 E.01152
G1 X108.979 Y83.336 E.01215
G1 X111.021 Y83.336 E.06574
G1 X111.491 Y83.437 E.01545
G1 X111.71 Y83.566 E.00819
G1 X111.844 Y83.836 E.00969
G1 X135.021 Y83.836 E.74587
G1 X135.299 Y83.87 E.009
G1 X135.696 Y84.057 E.01413
G1 X135.955 Y84.319 E.01185
G1 X136.106 Y84.618 E.01077
G1 X136.164 Y84.979 E.01176
G1 X136.164 Y108.156 E.74587
G1 X136.434 Y108.29 E.00969
G1 X136.602 Y108.606 E.01152
G1 X136.664 Y108.979 E.01215
G1 X136.664 Y110.213 E.03974
G1 E-.8 F1800
G1 Z.6 F21000
G1 X135.707 Y111.615 Z.6
G1 Z.2
G1 E.8 F1800
G1 F3000
G1 X135.707 Y135.021 E.75325
G1 X135.641 Y135.315 E.00969
G1 X135.443 Y135.563 E.0102
G1 X135.188 Y135.687 E.00911
G1 X134.499 Y135.707 E.0222
G1 X111.615 Y135.707 E.73642
G1 X111.434 Y136.069 E.013
G1 X111.245 Y136.17 E.00691
G1 X111.021 Y136.207 E.00729
G1 X108.979 Y136.207 E.06574
G1 X108.697 Y136.147 E.00927
G1 X108.566 Y136.069 E.00491
G1 X108.385 Y135.707 E.013
G1 X84.979 Y135.707 E.75325
G1 X84.69 Y135.643 E.0095
G1 X84.443 Y135.45 E.01011
G1 X84.328 Y135.238 E.00775
G1 X84.293 Y135.021 E.00706
G1 X84.293 Y107.615 E.88197
G1 X83.931 Y107.434 E.013
G1 X83.83 Y107.245 E.00691
G1 X83.793 Y107.021 E.00729
G1 X83.793 Y104.979 E.06574
G1 X83.853 Y104.697 E.00927
G1 X83.931 Y104.566 E.00491
G1 X84.293 Y104.385 E.013
G1 X84.293 Y84.979 E.62453
G1 X84.359 Y84.685 E.00969
G1 X84.544 Y84.448 E.00967
G1 X84.812 Y84.313 E.00965
G1 X85.501 Y84.293 E.02219
G1 X108.385 Y84.293 E.73642
G1 X108.566 Y83.931 E.013
G1 X108.755 Y83.83 E.00691
G1 X108.979 Y83.793 E.00729
G1 X111.021 Y83.793 E.06574
G1 X111.303 Y83.853 E.00927
G1 X111.434 Y83.931 E.00491
G1 X111.615 Y84.293 E.013
G1 X135.021 Y84.293 E.75325
G1 X135.31 Y84.357 E.0095
G1 X135.557 Y84.55 E.01011
G1 X135.672 Y84.762 E.00775
G1 X135.707 Y84.979 E.00705
G1 X135.707 Y108.385 E.75325
G1 X136.069 Y108.566 E.013
G1 X136.17 Y108.755 E.00691
G1 X136.207 Y108.979 E.00729
G1 X136.207 Y111.021 E.06574
G1 X136.147 Y111.303 E.00927
G1 X136.069 Y111.434 E.00491
G1 X135.743 Y111.597 E.01172
G1 X135.25 Y111.25 F21000
;TYPE:Outer wall
G1 F3000
G1 X135.25 Y135.021 E.76498
G1 X135.18 Y135.186 E.00577
G1 X135.021 Y135.25 E.00548
G1 X111.25 Y135.25 E.76498
G1 X111.25 Y135.521 E.00874
G1 X111.115 Y135.73 E.00798
G1 X111.021 Y135.75 E.00309
G1 X108.979 Y135.75 E.06574
G1 X108.841 Y135.704 E.00467
G1 X108.75 Y135.521 E.00656
G1 X108.75 Y135.25 E.00874
G1 X84.979 Y135.25 E.76498
G1 X84.812 Y135.178 E.00583
G1 X84.75 Y135.021 E.00542
G1 X84.75 Y107.25 E.8937
G1 X84.479 Y107.25 E.00874
G1 X84.27 Y107.115 E.00798
G1 X84.25 Y107.021 E.00309
G1 X84.25 Y104.979 E.06574
G1 X84.296 Y104.841 E.00467
G1 X84.479 Y104.75 E.00656
G1 X84.75 Y104.75 E.00874
G1 X84.75 Y84.979 E.63626
G1 X84.834 Y84.802 E.00629
G1 X84.979 Y84.75 E.00495
G1 X108.75 Y84.75 E.76498
G1 X108.75 Y84.479 E.00874
G1 X108.885 Y84.27 E.00798
G1 X108.979 Y84.25 E.00309
G1 X111.021 Y84.25 E.06574
G1 X111.159 Y84.296 E.00467
G1 X111.25 Y84.479 E.00656
G1 X111.25 Y84.75 E.00874
G1 X135.021 Y84.75 E.76498
G1 X135.188 Y84.822 E.00583
G1 X135.25 Y84.979 E.00542
G1 X135.25 Y108.75 E.76498
G1 X135.521 Y108.75 E.00874
G1 X135.73 Y108.885 E.00798
G1 X135.75 Y108.979 E.00309
G1 X135.75 Y111.021 E.06574
G1 X135.704 Y111.159 E.00467
G1 X135.521 Y111.25 E.00656
G1 X135.29 Y111.25 E.00745
G1 E-.56 F1800
;WIPE_START
G1 F3000
G1 X135.288 Y112.25 E-.24
;WIPE_END
G1 Z.6 F21000
G1 X135.686 Y112.25 Z.6
G1 X136.186 Y111.686
G1 X139.314 Y86.107
G1 X142.245 Y81.373
G1 X142.235 Y81.285
G1 X141.623 Y81.349
G1 Z.2
G1 E.8 F1800
;TYPE:Bottom surface
;WIDTH:0.501199
G1 F6300
G1 X138.928 Y78.654 E.12298
G1 X138.364 Y78.534 E.01859
G1 X138.16 Y78.534 E.00659
G1 X141.468 Y81.843 E.15095
G1 X141.485 Y82 E.00511
G1 X141.436 Y82.459 E.01489
G1 X137.534 Y78.556 E.17809
G1 X136.999 Y78.67 E.01763
G1 X141.322 Y82.992 E.19723
G1 X141.152 Y83.471 E.01639
G1 X136.538 Y78.857 E.21054
G1 X136.258 Y78.982 E.00992
G1 X136.117 Y79.084 E.0056
G1 X140.915 Y83.882 E.21893
G1 X140.819 Y84.048 E.0062
G1 X140.636 Y84.251 E.00881
G1 X135.742 Y79.357 E.22334
G1 X135.668 Y79.41 E.00294
G1 X135.421 Y79.684 E.0119
G1 X140.329 Y84.592 E.22392
G1 X139.953 Y84.865 E.01497
G1 X135.131 Y80.042 E.22006
G1 X134.896 Y80.455 E.01534
G1 X139.548 Y85.107 E.21228
G1 X139.244 Y85.247 E.01081
G1 X139.121 Y85.328 E.00475
G1 X134.653 Y80.86 E.20387
G1 X134.564 Y80.986 E.00498
