; HEADER_BLOCK_START
; generated by OrcaSlicer 1.9.0 on 2024-01-21 at 21:53:20
; total layer number: 450
; filament_density: 1.24
; filament_diameter: 1.75
; max_z_height: 90.00
; HEADER_BLOCK_END

; THUMBNAIL_BLOCK_START

;
; THUMBNAIL_BLOCK_END

; external perimeters extrusion width = 0.40mm
; perimeters extrusion width = 0.45mm
; infill extrusion width = 0.45mm
; solid infill extrusion width = 0.40mm
; top infill extrusion width = 0.40mm
; first layer extrusion width = 0.50mm

; EXECUTABLE_BLOCK_START
EXCLUDE_OBJECT_DEFINE NAME=temperature_tower.stl_id_0_copy_0 CENTER=110,110 POLYGON=[[87.7562,105],[127.785,105],[127.995,105.006],[128.145,105.016],[128.154,105.016],[128.208,105.021],[128.251,105.025],[128.285,105.029],[128.336,105.035],[128.473,105.053],[128.503,105.057],[128.535,105.062],[128.627,105.078],[128.792,105.11],[128.857,105.124],[129.04,105.17],[129.133,105.195],[129.309,105.25],[129.361,105.267],[129.444,105.296],[129.511,105.321],[129.55,105.336],[129.663,105.381],[129.684,105.389],[129.752,105.418],[129.762,105.423],[129.785,105.433],[129.943,105.507],[129.987,105.529],[130.246,105.668],[130.375,105.745],[130.517,105.836],[130.746,105.998],[131.063,106.257],[131.334,106.516],[131.508,106.704],[131.566,106.772],[131.708,106.947],[131.76,107.017],[131.877,107.18],[131.916,107.238],[132.009,107.383],[132.036,107.427],[132.11,107.555],[132.125,107.582],[132.185,107.694],[132.19,107.704],[132.23,107.783],[132.244,107.811],[132.242,112.192],[132.237,112.204],[132.22,112.237],[132.197,112.282],[132.166,112.342],[132.124,112.42],[132.074,112.508],[132.021,112.597],[131.943,112.72],[131.895,112.794],[131.777,112.962],[131.744,113.006],[131.575,113.218],[131.565,113.231],[131.353,113.465],[131.334,113.484],[131.055,113.75],[130.877,113.9],[130.738,114.008],[130.382,114.25],[130.369,114.258],[130.135,114.394],[129.939,114.495],[129.891,114.518],[129.785,114.567],[129.762,114.577],[129.752,114.582],[129.684,114.611],[129.663,114.619],[129.55,114.664],[129.519,114.676],[129.458,114.699],[129.444,114.704],[129.361,114.733],[129.32,114.746],[129.273,114.762],[129.112,114.811],[129.04,114.83],[128.857,114.876],[128.792,114.89],[128.627,114.922],[128.535,114.938],[128.503,114.943],[128.473,114.947],[128.336,114.965],[128.285,114.971],[128.251,114.975],[128.208,114.979],[128.154,114.984],[128.145,114.984],[127.995,114.994],[127.785,115],[87.7562,115],[87.7562,105]]
M73 P0 R117
;TYPE:Custom
START_PRINT NOZZLE_TEMP=230  BED_TEMP=60 

G90
G21
M83 ; use relative distances for extrusion
; filament start gcode
M106 S0
;LAYER_CHANGE
;Z:0.2
;HEIGHT:0.2
;BEFORE_LAYER_CHANGE
;0.2
G92 E0

G1 E-.8 F1800
;AFTER_LAYER_CHANGE
;0.2
;_SET_FAN_SPEED_CHANGING_LAYER
M104 S230 ; set nozzle temperature
SET_VELOCITY_LIMIT ACCEL=500 ACCEL_TO_DECEL=250
; printing object temperature_tower.stl id:0 copy 0
EXCLUDE_OBJECT_START NAME=temperature_tower.stl_id_0_copy_0
G1 Z.4 F21000
G1 X94.732 Y101.933
G1 Z.4
G1 Z.2
G1 E.8 F1800
;TYPE:Brim
;WIDTH:0.5
G1 F3000
G1 X95.258 Y101.565 E.02065
G1 X95.833 Y101.28 E.02065
G1 X96.443 Y101.082 E.02065
G1 X97.079 Y100.976 E.02076
G1 X97.477 Y100.958 E.01282
G1 X127.78 Y100.958 E.97517
G1 X128.315 Y100.976 E.01722
G1 X128.867 Y101.028 E.01784
G1 X129.279 Y101.093 E.01342
G1 X129.904 Y101.26 E.02082
G1 X130.493 Y101.515 E.02065
G1 X131.037 Y101.855 E.02065
G1 X131.526 Y102.27 E.02065
G1 X131.948 Y102.754 E.02065
G1 X132.295 Y103.294 E.02065
G1 X132.558 Y103.879 E.02065
G1 X132.731 Y104.494 E.02055
G1 X132.819 Y105.372 E.0284
G1 X132.819 Y114.631 E.29795
G1 X132.771 Y115.279 E.02092
G1 X132.63 Y115.905 E.02065
G1 X132.398 Y116.504 E.02065
G1 X132.08 Y117.061 E.02065
G1 X131.684 Y117.566 E.02065
G1 X131.217 Y118.007 E.02065
G1 X130.691 Y118.374 E.02065
G1 X130.12 Y118.658 E.02052
G1 X129.189 Y118.923 E.03117
G1 X128.451 Y119.014 E.02391
G1 X127.779 Y119.042 E.02164
G1 X97.481 Y119.042 E.97503
G1 X96.832 Y118.994 E.02092
G1 X96.206 Y118.853 E.02065
G1 X95.608 Y118.621 E.02065
G1 X95.05 Y118.303 E.02065
G1 X94.545 Y117.907 E.02065
G1 X94.105 Y117.441 E.02065
G1 X93.738 Y116.914 E.02065
G1 X93.452 Y116.34 E.02065
G1 X93.254 Y115.729 E.02065
G1 X93.148 Y115.093 E.02076
G1 X93.13 Y114.695 E.01282
G1 X93.13 Y105.308 E.30206
G1 X93.178 Y104.66 E.02092
G1 X93.319 Y104.034 E.02065
G1 X93.551 Y103.436 E.02065
G1 X93.869 Y102.878 E.02065
G1 X94.265 Y102.373 E.02065
G1 X94.703 Y101.96 E.01936
G1 X95.017 Y102.294 F21000
G1 F3000
G1 X95.029 Y102.282 E.00056
G1 X95.483 Y101.965 E.01782
G1 X95.997 Y101.709 E.01847
G1 X96.562 Y101.526 E.01912
G1 X97.119 Y101.433 E.01819
G1 X97.491 Y101.415 E.01197
G1 X127.77 Y101.415 E.9744
G1 X128.29 Y101.433 E.01674
G1 X128.814 Y101.482 E.01694
G1 X129.191 Y101.543 E.01228
G1 X129.743 Y101.691 E.01841
G1 X130.27 Y101.917 E.01847
G1 X130.758 Y102.219 E.01847
G1 X131.197 Y102.59 E.01847
G1 X131.587 Y103.037 E.01912
G1 X131.886 Y103.503 E.01782
G1 X132.123 Y104.026 E.01847
G1 X132.281 Y104.591 E.01888
G1 X132.362 Y105.402 E.02622
G1 X132.362 Y114.609 E.29628
G1 X132.315 Y115.222 E.01978
G1 X132.188 Y115.781 E.01847
G1 X131.988 Y116.297 E.01782
G1 X131.694 Y116.813 E.01912
G1 X131.352 Y117.249 E.01782
G1 X130.935 Y117.644 E.01847
G1 X130.466 Y117.974 E.01847
G1 X129.966 Y118.224 E.01799
G1 X129.087 Y118.475 E.02941
G1 X128.419 Y118.558 E.02164
G1 X127.767 Y118.585 E.02101
G1 X97.492 Y118.585 E.97426
G1 X96.91 Y118.542 E.0188
G1 X96.35 Y118.417 E.01847
G1 X95.814 Y118.211 E.01847
G1 X95.315 Y117.928 E.01847
G1 X94.862 Y117.575 E.01847
G1 X94.467 Y117.159 E.01847
G1 X94.138 Y116.689 E.01847
G1 X93.881 Y116.176 E.01847
G1 X93.698 Y115.61 E.01912
G1 X93.605 Y115.053 E.01819
G1 X93.587 Y114.681 E.01197
G1 X93.587 Y105.33 E.30092
G1 X93.63 Y104.738 E.01913
G1 X93.761 Y104.158 E.01912
G1 X93.97 Y103.624 E.01847
G1 X94.255 Y103.126 E.01847
G1 X94.611 Y102.675 E.01847
G1 X94.987 Y102.322 E.01662
G1 X95.3 Y102.655 F21000
G1 F3000
G1 X95.311 Y102.645 E.00045
G1 X95.709 Y102.365 E.01567
G1 X96.161 Y102.138 E.01627
G1 X96.68 Y101.969 E.01757
G1 X97.16 Y101.889 E.01565
G1 X97.505 Y101.872 E.01111
G1 X127.76 Y101.872 E.97361
G1 X128.264 Y101.89 E.01625
G1 X128.751 Y101.936 E.01575
G1 X129.102 Y101.992 E.01142
G1 X129.602 Y102.128 E.01668
G1 X130.049 Y102.32 E.01566
G1 X130.48 Y102.585 E.01628
G1 X130.882 Y102.924 E.01692
G1 X131.226 Y103.321 E.01691
G1 X131.488 Y103.731 E.01565
G1 X131.688 Y104.174 E.01562
G1 X131.832 Y104.688 E.01719
G1 X131.905 Y105.432 E.02404
G1 X131.905 Y114.586 E.29461
G1 X131.86 Y115.163 E.01861
G1 X131.752 Y115.637 E.01565
G1 X131.577 Y116.091 E.01565
G1 X131.307 Y116.566 E.01759
G1 X131.005 Y116.947 E.01565
G1 X130.653 Y117.282 E.01566
G1 X130.239 Y117.574 E.01629
G1 X129.81 Y117.79 E.01545
G1 X128.985 Y118.027 E.02764
G1 X128.376 Y118.102 E.01974
G1 X127.755 Y118.128 E.02002
G1 X97.504 Y118.127 E.97348
G1 X96.987 Y118.089 E.0167
G1 X96.492 Y117.98 E.0163
G1 X96.019 Y117.8 E.01628
G1 X95.578 Y117.552 E.01628
G1 X95.178 Y117.242 E.01628
G1 X94.829 Y116.876 E.01628
G1 X94.537 Y116.462 E.01628
G1 X94.31 Y116.011 E.01626
G1 X94.141 Y115.492 E.01757
G1 X94.061 Y115.012 E.01565
G1 X94.044 Y114.667 E.01111
G1 X94.044 Y105.352 E.29976
G1 X94.083 Y104.815 E.01732
G1 X94.203 Y104.283 E.01757
G1 X94.389 Y103.813 E.01626
G1 X94.641 Y103.374 E.01628
G1 X94.956 Y102.978 E.01628
G1 X95.271 Y102.682 E.01392
G1 X95.584 Y103.017 F21000
G1 F3000
G1 X95.608 Y102.995 E.00105
G1 X95.954 Y102.754 E.01356
G1 X96.345 Y102.558 E.01408
G1 X96.799 Y102.413 E.01534
G1 X97.202 Y102.346 E.01313
G1 X97.52 Y102.329 E.01026
G1 X127.749 Y102.329 E.9728
G1 X128.242 Y102.347 E.01588
G1 X129.012 Y102.442 E.02496
G1 X129.461 Y102.564 E.01496
G1 X129.847 Y102.732 E.01354
G1 X130.203 Y102.951 E.01345
G1 X130.552 Y103.244 E.01467
G1 X130.865 Y103.604 E.01535
G1 X131.079 Y103.941 E.01287
G1 X131.253 Y104.321 E.01343
G1 X131.382 Y104.785 E.0155
G1 X131.448 Y105.461 E.02186
G1 X131.448 Y114.563 E.29292
G1 X131.408 Y115.084 E.01681
G1 X131.316 Y115.494 E.01353
G1 X131.167 Y115.885 E.01346
G1 X130.92 Y116.318 E.01602
G1 X130.66 Y116.645 E.01346
G1 X130.369 Y116.921 E.01291
G1 X130.011 Y117.176 E.01412
G1 X129.655 Y117.357 E.01289
G1 X128.882 Y117.579 E.02586
G1 X128.333 Y117.646 E.01782
G1 X127.742 Y117.671 E.01903
G1 X97.516 Y117.67 E.97269
G1 X97.063 Y117.636 E.01463
G1 X96.633 Y117.543 E.01414
G1 X96.223 Y117.389 E.0141
G1 X95.841 Y117.175 E.0141
G1 X95.494 Y116.908 E.0141
G1 X95.19 Y116.592 E.0141
G1 X94.925 Y116.217 E.01475
G1 X94.73 Y115.827 E.01405
G1 X94.585 Y115.373 E.01533
G1 X94.518 Y114.97 E.01313
G1 X94.501 Y114.652 E.01026
G1 X94.501 Y105.374 E.29858
G1 X94.536 Y104.893 E.01552
G1 X94.645 Y104.408 E.016
G1 X94.806 Y104.003 E.01402
G1 X95.027 Y103.624 E.0141
G1 X95.301 Y103.282 E.01412
G1 X95.555 Y103.044 E.01119
G1 X95.866 Y103.38 F21000
G1 F3000
G1 X95.904 Y103.345 E.00166
G1 X96.197 Y103.143 E.01144
G1 X96.528 Y102.98 E.0119
G1 X96.917 Y102.857 E.01312
G1 X97.244 Y102.802 E.01067
G1 X97.536 Y102.786 E.00941
G1 X127.739 Y102.786 E.97196
G1 X128.212 Y102.803 E.01525
G1 X128.933 Y102.894 E.02339
G1 X129.318 Y103 E.01284
G1 X129.626 Y103.134 E.01082
G1 X129.926 Y103.317 E.0113
G1 X130.237 Y103.579 E.01309
G1 X130.503 Y103.887 E.01308
G1 X130.681 Y104.169 E.01072
G1 X130.817 Y104.468 E.01059
G1 X130.932 Y104.881 E.01378
G1 X130.991 Y105.49 E.01969
G1 X130.991 Y114.54 E.29125
G1 X130.955 Y115.006 E.01503
G1 X130.879 Y115.352 E.01142
G1 X130.756 Y115.68 E.01125
G1 X130.534 Y116.069 E.01442
G1 X130.328 Y116.328 E.01066
G1 X130.085 Y116.561 E.01083
G1 X129.782 Y116.778 E.01197
G1 X129.498 Y116.924 E.0103
G1 X128.78 Y117.131 E.02404
G1 X128.29 Y117.191 E.01588
G1 X127.73 Y117.214 E.01805
G1 X97.528 Y117.212 E.97192
G1 X97.119 Y117.181 E.0132
G1 X96.754 Y117.1 E.01204
G1 X96.407 Y116.968 E.01192
G1 X96.085 Y116.786 E.01192
G1 X95.792 Y116.559 E.01192
G1 X95.537 Y116.291 E.0119
G1 X95.314 Y115.973 E.01251
G1 X95.152 Y115.644 E.0118
G1 X95.029 Y115.255 E.01312
G1 X94.974 Y114.928 E.01067
G1 X94.958 Y114.636 E.00941
G1 X94.958 Y105.395 E.29739
G1 X94.988 Y104.97 E.01371
G1 X95.087 Y104.534 E.01441
G1 X95.224 Y104.195 E.01175
G1 X95.411 Y103.875 E.01192
G1 X95.644 Y103.586 E.01195
G1 X95.837 Y103.408 E.00846
G1 X96.143 Y103.762 F21000
G1 F3000
G1 X96.25 Y103.67 E.00454
G1 X96.591 Y103.471 E.01271
G1 X97.111 Y103.297 E.01764
G1 X97.449 Y103.247 E.01099
G1 X127.769 Y103.243 E.97575
G1 X128.426 Y103.279 E.02115
G1 X128.779 Y103.33 E.01147
G1 X129.063 Y103.403 E.00945
G1 X129.622 Y103.676 E.02002
G1 X129.725 Y103.746 E.00402
G1 X129.921 Y103.916 E.00835
G1 X130.108 Y104.134 E.00925
G1 X130.251 Y104.369 E.00884
G1 X130.4 Y104.705 E.01183
G1 X130.514 Y105.199 E.01633
G1 X130.534 Y114.595 E.30236
G1 X130.436 Y115.204 E.01985
G1 X130.401 Y115.318 E.00383
G1 X130.246 Y115.657 E.01199
G1 X130.027 Y115.967 E.01223
G1 X129.809 Y116.18 E.0098
G1 X129.465 Y116.418 E.01346
G1 X129.204 Y116.544 E.00934
G1 X128.775 Y116.669 E.01438
G1 X128.317 Y116.731 E.01487
G1 X127.853 Y116.755 E.01493
G1 X97.517 Y116.757 E.97624
G1 X96.795 Y116.626 E.02362
G1 X96.559 Y116.526 E.00825
G1 X96.364 Y116.417 E.00719
G1 X95.973 Y116.082 E.01655
G1 X95.898 Y115.997 E.00366
G1 X95.733 Y115.751 E.00954
G1 X95.583 Y115.442 E.01106
G1 X95.465 Y115.047 E.01326
G1 X95.425 Y114.81 E.00774
G1 X95.415 Y105.348 E.30447
G1 X95.508 Y104.773 E.01877
G1 X95.611 Y104.466 E.0104
G1 X95.759 Y104.186 E.01018
G1 X95.996 Y103.89 E.01222
G1 X96.113 Y103.789 E.00497
G1 X96.397 Y104.139 F21000
G1 F3000
G1 X96.544 Y104.02 E.0061
G1 X96.823 Y103.864 E.01028
G1 X97.253 Y103.731 E.01448
G1 X97.438 Y103.704 E.00602
G1 X127.773 Y103.7 E.9762
G1 X128.362 Y103.732 E.01896
G1 X128.658 Y103.771 E.00961
G1 X128.963 Y103.849 E.01013
G1 X129.418 Y104.085 E.01651
G1 X129.628 Y104.267 E.00893
G1 X129.758 Y104.428 E.00664
G1 X129.83 Y104.546 E.00445
G1 X129.988 Y104.902 E.01255
G1 X130.069 Y105.302 E.01314
G1 X130.077 Y114.606 E.29941
G1 X129.984 Y115.132 E.01717
G1 X129.87 Y115.398 E.00933
G1 X129.715 Y115.632 E.00901
G1 X129.481 Y115.862 E.01057
G1 X129.208 Y116.04 E.01049
G1 X129.008 Y116.131 E.00707
G1 X128.646 Y116.23 E.01209
G1 X128.258 Y116.278 E.01259
G1 X127.828 Y116.299 E.01384
G1 X97.505 Y116.3 E.97581
G1 X96.978 Y116.207 E.01722
G1 X96.789 Y116.131 E.00654
G1 X96.576 Y116.011 E.00786
G1 X96.275 Y115.739 E.01306
G1 X96.148 Y115.56 E.00708
G1 X95.989 Y115.232 E.01172
G1 X95.904 Y114.921 E.01038
G1 X95.876 Y114.734 E.00609
G1 X95.872 Y105.337 E.30239
G1 X95.96 Y104.843 E.01613
G1 X96.043 Y104.614 E.00786
G1 X96.162 Y104.402 E.00781
G1 X96.352 Y104.176 E.0095
G1 X96.366 Y104.164 E.00061
G1 X96.696 Y104.476 F21000
G1 F3000
G1 X96.822 Y104.382 E.00506
G1 X97.049 Y104.261 E.00826
G1 X97.38 Y104.17 E.01106
G1 X97.495 Y104.157 E.00373
G1 X127.777 Y104.157 E.97448
G1 X128.297 Y104.184 E.01674
G1 X128.606 Y104.225 E.01005
G1 X128.847 Y104.292 E.00805
G1 X129.128 Y104.437 E.01017
G1 X129.265 Y104.546 E.00564
G1 X129.408 Y104.722 E.00732
G1 X129.573 Y105.095 E.01312
G1 X129.62 Y105.385 E.00944
G1 X129.62 Y114.616 E.29707
G1 X129.563 Y114.956 E.01107
G1 X129.481 Y115.159 E.00707
G1 X129.39 Y115.312 E.00572
G1 X129.234 Y115.477 E.00732
G1 X129.01 Y115.629 E.00868
G1 X128.886 Y115.691 E.00448
G1 X128.601 Y115.775 E.00957
G1 X128.197 Y115.824 E.01307
G1 X127.805 Y115.842 E.01265
G1 X97.495 Y115.843 E.97539
G1 X97.156 Y115.786 E.01107
G1 X96.952 Y115.704 E.00706
G1 X96.8 Y115.613 E.00569
G1 X96.648 Y115.476 E.00659
G1 X96.554 Y115.35 E.00506
G1 X96.433 Y115.123 E.00826
G1 X96.342 Y114.792 E.01106
G1 X96.329 Y114.677 E.00373
G1 X96.329 Y105.325 E.30094
G1 X96.41 Y104.925 E.01314
G1 X96.468 Y104.78 E.00501
G1 X96.559 Y104.628 E.0057
G1 X96.669 Y104.506 E.0053
G1 X96.958 Y104.851 F21000
G1 F3000
G1 X97.104 Y104.742 E.00583
G1 X97.258 Y104.667 E.00552
G1 X97.488 Y104.614 E.00759
G1 X127.781 Y104.614 E.97485
G1 X128.231 Y104.637 E.01453
G1 X128.556 Y104.68 E.01053
G1 X128.723 Y104.731 E.00563
G1 X128.833 Y104.787 E.00397
G1 X128.992 Y104.913 E.00655
G1 X129.124 Y105.176 E.00946
G1 X129.162 Y105.374 E.00649
G1 X129.162 Y114.628 E.29779
G1 X129.134 Y114.799 E.00559
G1 X129.093 Y114.916 E.00398
G1 X128.989 Y115.091 E.00655
G1 X128.746 Y115.256 E.00946
G1 X128.554 Y115.321 E.00652
G1 X128.182 Y115.368 E.01207
G1 X127.781 Y115.386 E.01292
G1 X97.483 Y115.386 E.97499
G1 X97.312 Y115.357 E.00559
G1 X97.195 Y115.317 E.00398
G1 X97.023 Y115.214 E.00647
G1 X96.915 Y115.068 E.00583
G1 X96.839 Y114.914 E.00552
G1 X96.786 Y114.684 E.00759
G1 X96.786 Y105.311 E.30163
G1 X96.855 Y105.023 E.00953
G1 X96.938 Y104.885 E.00518
G1 X97.292 Y105.159 F21000
G1 F3000
G1 X97.472 Y105.071 E.00644
G1 X127.784 Y105.071 E.97546
G1 X128.166 Y105.089 E.01231
G1 X128.507 Y105.134 E.01108
G1 X128.641 Y105.201 E.0048
M73 P0 R116
G1 X128.705 Y105.361 E.00554
G1 X128.705 Y114.639 E.29859
G1 X128.657 Y114.78 E.0048
G1 X128.507 Y114.866 E.00554
G1 X128.166 Y114.911 E.01108
G1 X127.784 Y114.929 E.01231
G1 X97.472 Y114.929 E.97546
G1 X97.331 Y114.88 E.0048
G1 X97.244 Y114.7 E.00644
G1 X97.244 Y105.3 E.3025
G1 X97.279 Y105.197 E.00351
G1 E-.56 F1800
;WIPE_START
G1 F3000
G1 X97.472 Y105.071 E-.05523
G1 X98.242 Y105.071 E-.18477
;WIPE_END
G1 Z.6 F21000
G1 X117.322 Y105.986 Z.6
G1 X127.313 Y105.986
G1 X127.313 Y106.464
G1 Z.2
G1 E.8 F1800
;TYPE:Inner wall
;WIDTH:0.499999
G1 F3000
G1 X127.313 Y113.536 E.22757
G1 X98.636 Y113.536 E.92283
G1 X98.636 Y106.464 E.22757
G1 X127.273 Y106.464 E.92154
G1 X127.77 Y106.024 F21000
G1 F3000
G1 X127.77 Y113.976 E.25592
G1 X127.754 Y113.993 E.00074
G1 X98.179 Y113.993 E.95174
G1 X98.179 Y106.007 E.25699
G1 X127.737 Y106.007 E.95118
G1 X128.227 Y105.589 F21000
;TYPE:Outer wall
G1 F3000
G1 X128.227 Y106.024 E.01398
G1 X128.227 Y114.411 E.2699
G1 X127.774 Y114.45 E.01464
G1 X97.722 Y114.45 E.96708
G1 X97.722 Y105.55 E.28641
G1 X127.753 Y105.55 E.96642
G1 X128.187 Y105.586 E.01401
G1 E-.8 F1800
G1 Z.6 F21000
G1 X127.176 Y107.536 Z.6
G1 Z.2
G1 E.8 F1800
;TYPE:Bottom surface
;WIDTH:0.505041
G1 F6300
G1 X126.447 Y106.807 E.03354
G1 X125.793 Y106.807 E.02126
G1 X126.97 Y107.984 E.05415
G1 X126.97 Y108.637 E.02126
G1 X125.14 Y106.807 E.08422
G1 X124.486 Y106.807 E.02126
G1 X126.97 Y109.291 E.11429
