; HEADER_BLOCK_START
; generated by OrcaSlicer 1.9.0 on 2024-01-22 at 15:03:27
; total layer number: 255
; filament_density: 1.24
; filament_diameter: 1.75
; max_z_height: 51.00
; HEADER_BLOCK_END

; THUMBNAIL_BLOCK_START

;
; THUMBNAIL_BLOCK_END

; external perimeters extrusion width = 0.40mm
; perimeters extrusion width = 0.45mm
; infill extrusion width = 0.45mm
; solid infill extrusion width = 0.40mm
; top infill extrusion width = 0.40mm
; first layer extrusion width = 0.50mm

; EXECUTABLE_BLOCK_START
EXCLUDE_OBJECT_DEFINE NAME=tower_with_seam.stl_id_0_copy_0 CENTER=110,110 POLYGON=[[70.0193,144.965],[70.0314,109.416],[70.3806,108.063],[71.0908,106.859],[106.806,71.1294],[107.98,70.4021],[109.309,70.024],[110.691,70.024],[112.02,70.4021],[113.194,71.1294],[148.909,106.859],[149.619,108.063],[149.969,109.416],[149.981,144.965],[149.672,146.308],[149.008,147.515],[148.04,148.496],[146.841,149.175],[145.503,149.501],[110,149.976],[74.4973,149.501],[73.1586,149.175],[71.9597,148.496],[70.9918,147.515],[70.3281,146.308],[70.0193,144.965]]
M73 P0 R47
;TYPE:Custom
START_PRINT NOZZLE_TEMP=200  BED_TEMP=60 

G90
G21
M83 ; use relative distances for extrusion
; filament start gcode
M106 S0
;LAYER_CHANGE
;Z:0.2
;HEIGHT:0.2
;BEFORE_LAYER_CHANGE
;0.2
G92 E0

G1 E-.8 F1800
;AFTER_LAYER_CHANGE
;0.2
;_SET_FAN_SPEED_CHANGING_LAYER
SET_PRESSURE_ADVANCE ADVANCE=0; Override pressure advance value
SET_VELOCITY_LIMIT ACCEL=500 ACCEL_TO_DECEL=250
SET_VELOCITY_LIMIT SQUARE_CORNER_VELOCITY=8
; printing object tower_with_seam.stl id:0 copy 0
EXCLUDE_OBJECT_START NAME=tower_with_seam.stl_id_0_copy_0
G1 Z.4 F21000
G1 X142.303 Y112.689
G1 Z.4
G1 Z.2
G1 E.8 F1800
;TYPE:Inner wall
;WIDTH:0.499999
G1 F3000
G1 X141.689 Y111.892 E.03238
M73 P0 R46
G1 X141.304 Y110.962 E.03238
G1 X141.174 Y109.964 E.03238
G1 X141.31 Y108.967 E.03238
G1 X141.766 Y107.884 E.03782
G1 X141.842 Y107.536 E.01146
G1 X142.15 Y107.382 E.01109
G1 X143.15 Y106.629 E.0403
G1 X144.149 Y106.248 E.03441
G1 X145.214 Y106.158 E.03441
G1 X146.263 Y106.366 E.03441
G1 X147.213 Y106.857 E.03441
G1 X147.99 Y107.592 E.03441
G1 X148.533 Y108.513 E.03441
G1 X148.8 Y109.548 E.03441
G1 X148.785 Y110.082 E.0172
G1 X148.77 Y110.617 E.0172
G1 X148.446 Y111.635 E.03441
G1 X147.852 Y112.524 E.03441
G1 X147.035 Y113.214 E.03441
G1 X146.059 Y113.651 E.03441
G1 X144.819 Y113.826 E.0403
G1 X144.492 Y113.935 E.01109
G1 X144.192 Y113.742 E.01146
G1 X143.104 Y113.299 E.03782
G1 X142.335 Y112.714 E.0311
G1 X141.978 Y113.016 F21000
G1 F3000
G1 X141.29 Y112.123 E.03629
G1 X140.858 Y111.081 E.03629
G1 X140.713 Y109.963 E.03629
G1 X140.865 Y108.846 E.03629
G1 X141.348 Y107.7 E.04
G1 X141.393 Y107.354 E.01122
G1 X141.286 Y107.107 E.00868
G1 X141.552 Y107.149 E.00868
G1 X141.875 Y107.017 E.01122
G1 X142.927 Y106.225 E.04237
G1 X144.046 Y105.798 E.03856
G1 X145.24 Y105.697 E.03856
G1 X146.416 Y105.931 E.03856
G1 X147.48 Y106.481 E.03856
G1 X148.351 Y107.304 E.03856
G1 X148.96 Y108.336 E.03856
G1 X149.259 Y109.496 E.03856
G1 X149.242 Y110.095 E.01928
G1 X149.225 Y110.694 E.01928
G1 X148.861 Y111.836 E.03856
G1 X148.196 Y112.832 E.03856
G1 X147.28 Y113.605 E.03856
G1 X146.186 Y114.094 E.03856
G1 X144.883 Y114.278 E.04237
G1 X144.561 Y114.413 E.01122
G1 X144.398 Y114.658 E.00946
G1 X144.303 Y114.38 E.00946
G1 X144.158 Y114.241 E.00647
G1 X144.02 Y114.165 E.00507
G1 X142.875 Y113.699 E.03977
G1 X142.01 Y113.041 E.035
G1 E-.56 F1800
;WIPE_START
G1 F3000
G1 X141.392 Y112.254 E-.24
;WIPE_END
G1 Z.6 F21000
G1 X141.374 Y112.268 Z.6
G1 X144.204 Y114.503
G1 X144.204 Y139.999
G1 X140.858 Y143.241
G1 X140.526 Y143.701
G1 X141.035 Y144.069
G1 Z.2
G1 E.8 F1800
G1 F3000
G1 X141.221 Y143.776 E.01116
G1 X141.662 Y142.657 E.0387
G1 X142.278 Y141.839 E.03296
G1 X143.088 Y141.213 E.03296
G1 X144.195 Y140.759 E.03848
G1 X144.492 Y140.567 E.01138
G1 X144.821 Y140.677 E.01116
G1 X146.044 Y140.847 E.03973
G1 X147.008 Y141.271 E.03392
G1 X147.821 Y141.943 E.03392
G1 X148.419 Y142.811 E.03392
G1 X148.757 Y143.809 E.03392
G1 X148.81 Y144.862 E.03392
G1 X148.574 Y145.889 E.03392
G1 X148.066 Y146.812 E.03392
G1 X147.326 Y147.562 E.03392
G1 X146.409 Y148.082 E.03392
G1 X145.385 Y148.331 E.03392
G1 X144.331 Y148.292 E.03392
G1 X143.329 Y147.966 E.03392
G1 X142.453 Y147.38 E.03392
G1 X141.771 Y146.576 E.03392
G1 X141.334 Y145.617 E.03392
G1 X141.151 Y144.41 E.03928
G1 X141.048 Y144.107 E.01032
G1 X140.337 Y143.988 F21000
G1 F3000
G1 X140.589 Y143.884 E.00877
G1 X140.796 Y143.605 E.01119
G1 X141.26 Y142.432 E.0406
G1 X141.95 Y141.515 E.03693
G1 X142.858 Y140.813 E.03693
G1 X144.022 Y140.336 E.04047
G1 X144.302 Y140.124 E.01131
G1 X144.402 Y139.871 E.00877
G1 X144.563 Y140.09 E.00877
G1 X144.884 Y140.224 E.01119
G1 X146.17 Y140.403 E.04178
G1 X147.251 Y140.878 E.03801
G1 X148.161 Y141.631 E.03801
G1 X148.831 Y142.604 E.03801
G1 X149.21 Y143.723 E.03801
G1 X149.27 Y144.902 E.03801
G1 X149.005 Y146.053 E.03801
G1 X148.436 Y147.088 E.03801
G1 X147.606 Y147.929 E.03801
G1 X146.579 Y148.511 E.03801
G1 X145.431 Y148.79 E.03801
G1 X144.251 Y148.746 E.03801
G1 X143.127 Y148.381 E.03801
G1 X142.146 Y147.724 E.03801
G1 X141.382 Y146.824 E.03801
G1 X140.892 Y145.749 E.03801
G1 X140.697 Y144.465 E.04178
G1 X140.559 Y144.146 E.01119
G1 X140.37 Y144.011 E.00748
G1 E-.8 F1800
G1 Z.6 F21000
G1 X106.047 Y144.417 Z.6
G1 Z.2
G1 E.8 F1800
G1 F3000
G1 X106.244 Y144.122 E.0114
G1 X106.696 Y143.048 E.0375
G1 X107.304 Y142.261 E.032
G1 X108.095 Y141.658 E.032
G1 X109.014 Y141.279 E.032
G1 X110 Y141.15 E.032
G1 X110.986 Y141.279 E.032
G1 X111.905 Y141.658 E.032
G1 X112.696 Y142.261 E.032
G1 X113.304 Y143.048 E.032
G1 X113.754 Y144.118 E.03737
G1 X113.953 Y144.417 E.01153
G1 X113.846 Y144.755 E.0114
G1 X113.706 Y145.927 E.03798
G1 X113.329 Y146.86 E.0324
G1 X112.722 Y147.664 E.0324
G1 X111.927 Y148.281 E.0324
G1 X110.998 Y148.669 E.0324
G1 X110 Y148.802 E.0324
G1 X109.002 Y148.669 E.0324
G1 X108.073 Y148.281 E.0324
G1 X107.278 Y147.664 E.0324
G1 X106.671 Y146.86 E.0324
G1 X106.294 Y145.927 E.0324
G1 X106.155 Y144.763 E.03771
G1 X106.059 Y144.455 E.01038
G1 X105.351 Y144.318 F21000
G1 F3000
G1 X105.613 Y144.217 E.00904
G1 X105.823 Y143.943 E.01108
G1 X106.297 Y142.815 E.03938
G1 X106.979 Y141.934 E.03585
G1 X107.865 Y141.259 E.03585
G1 X108.895 Y140.834 E.03585
G1 X110 Y140.689 E.03585
G1 X111.105 Y140.834 E.03585
G1 X112.135 Y141.259 E.03585
G1 X113.021 Y141.934 E.03585
G1 X113.703 Y142.815 E.03585
G1 X114.176 Y143.941 E.0393
G1 X114.387 Y144.217 E.01116
G1 X114.649 Y144.318 E.00904
G1 X114.425 Y144.488 E.00904
G1 X114.3 Y144.809 E.01108
G1 X114.152 Y146.041 E.03993
G1 X113.731 Y147.087 E.03631
G1 X113.051 Y147.988 E.03631
G1 X112.159 Y148.679 E.03631
G1 X111.118 Y149.114 E.0363
G1 X110 Y149.263 E.03631
G1 X108.882 Y149.114 E.03631
G1 X107.841 Y148.679 E.0363
G1 X106.949 Y147.988 E.03631
G1 X106.269 Y147.087 E.03631
G1 X105.848 Y146.041 E.03631
G1 X105.701 Y144.817 E.03966
G1 X105.575 Y144.488 E.01135
G1 X105.383 Y144.342 E.00776
G1 E-.8 F1800
G1 Z.6 F21000
G1 X78.965 Y144.069 Z.6
G1 Z.2
G1 E.8 F1800
G1 F3000
G1 X78.852 Y144.397 E.01116
G1 X78.666 Y145.617 E.03973
G1 X78.229 Y146.576 E.03392
G1 X77.547 Y147.38 E.03392
G1 X76.671 Y147.966 E.03392
G1 X75.669 Y148.292 E.03392
G1 X74.615 Y148.331 E.03392
G1 X73.591 Y148.082 E.03392
G1 X72.674 Y147.562 E.03392
G1 X71.934 Y146.812 E.03392
G1 X71.426 Y145.889 E.03392
G1 X71.19 Y144.862 E.03392
G1 X71.243 Y143.809 E.03392
G1 X71.581 Y142.811 E.03392
G1 X72.179 Y141.943 E.03392
G1 X72.992 Y141.271 E.03392
G1 X73.956 Y140.847 E.03392
G1 X75.165 Y140.678 E.03928
G1 X75.508 Y140.567 E.01161
G1 X75.799 Y140.757 E.01116
G1 X76.912 Y141.213 E.0387
G1 X77.722 Y141.839 E.03296
G1 X78.338 Y142.657 E.03296
G1 X78.777 Y143.769 E.03848
G1 X78.944 Y144.035 E.01009
G1 X79.663 Y143.988 F21000
G1 F3000
G1 X79.441 Y144.146 E.00877
G1 X79.303 Y144.465 E.01119
G1 X79.108 Y145.749 E.04178
G1 X78.618 Y146.824 E.03801
G1 X77.854 Y147.724 E.03801
G1 X76.873 Y148.381 E.03801
G1 X75.749 Y148.746 E.03801
G1 X74.569 Y148.79 E.03801
G1 X73.421 Y148.511 E.03801
G1 X72.394 Y147.929 E.03801
G1 X71.564 Y147.088 E.03801
G1 X70.995 Y146.053 E.03801
G1 X70.73 Y144.902 E.03801
G1 X70.79 Y143.723 E.03801
G1 X71.169 Y142.604 E.03801
G1 X71.839 Y141.631 E.03801
G1 X72.749 Y140.878 E.03801
G1 X73.83 Y140.403 E.03801
G1 X75.116 Y140.224 E.04177
G1 X75.437 Y140.09 E.01119
G1 X75.598 Y139.871 E.00877
G1 X75.698 Y140.124 E.00877
G1 X75.975 Y140.335 E.01119
G1 X77.142 Y140.813 E.0406
G1 X78.05 Y141.515 E.03693
G1 X78.74 Y142.432 E.03693
G1 X79.202 Y143.601 E.04047
G1 X79.411 Y143.884 E.01132
G1 X79.626 Y143.973 E.00748
G1 E-.56 F1800
;WIPE_START
G1 F3000
G1 X79.441 Y144.146 E-.06081
G1 X79.303 Y144.465 E-.08345
G1 X79.243 Y144.86 E-.09574
;WIPE_END
G1 Z.6 F21000
G1 X79.311 Y144.882 Z.6
G1 X75.796 Y139.999
G1 X75.796 Y114.503
G1 X76.34 Y114.101
G1 X76.61 Y113.932
G1 X77.837 Y113.184
G1 X77.987 Y113.07
G1 X77.697 Y112.689
G1 Z.2
G1 E.8 F1800
G1 F3000
G1 X76.896 Y113.299 E.03238
G1 X75.808 Y113.742 E.03782
G1 X75.508 Y113.935 E.01146
G1 X75.181 Y113.826 E.01109
G1 X73.941 Y113.651 E.0403
G1 X72.965 Y113.214 E.03441
G1 X72.148 Y112.524 E.03441
G1 X71.554 Y111.635 E.03441
G1 X71.23 Y110.617 E.03441
G1 X71.2 Y109.548 E.03441
G1 X71.467 Y108.513 E.03441
G1 X72.01 Y107.592 E.03441
G1 X72.787 Y106.857 E.03441
G1 X73.737 Y106.366 E.03441
G1 X74.786 Y106.158 E.03441
G1 X75.851 Y106.248 E.03441
G1 X76.85 Y106.629 E.03441
G1 X77.85 Y107.382 E.0403
G1 X78.158 Y107.536 E.01109
G1 X78.234 Y107.884 E.01146
G1 X78.69 Y108.967 E.03782
G1 X78.826 Y109.964 E.03238
G1 X78.696 Y110.962 E.03238
G1 X78.311 Y111.892 E.03238
G1 X77.721 Y112.658 E.0311
G1 X78.022 Y113.016 F21000
G1 F3000
G1 X77.125 Y113.699 E.03629
G1 X75.973 Y114.168 E.04
G1 X75.697 Y114.38 E.01122
G1 X75.602 Y114.658 E.00946
G1 X75.439 Y114.413 E.00946
G1 X75.117 Y114.279 E.01122
G1 X73.814 Y114.094 E.04237
G1 X72.72 Y113.605 E.03856
G1 X71.804 Y112.832 E.03856
G1 X71.139 Y111.836 E.03856
G1 X70.775 Y110.694 E.03856
G1 X70.741 Y109.496 E.03856
G1 X71.04 Y108.336 E.03856
G1 X71.649 Y107.304 E.03856
G1 X72.52 Y106.481 E.03856
G1 X73.584 Y105.931 E.03856
G1 X74.76 Y105.697 E.03856
G1 X75.954 Y105.798 E.03856
G1 X77.073 Y106.225 E.03856
G1 X78.125 Y107.017 E.04237
G1 X78.448 Y107.149 E.01122
G1 X78.714 Y107.107 E.00868
G1 X78.607 Y107.354 E.00868
G1 X78.611 Y107.555 E.00647
G1 X78.655 Y107.707 E.00507
G1 X79.135 Y108.846 E.03977
G1 X79.287 Y109.963 E.03629
G1 X79.142 Y111.081 E.03629
G1 X78.71 Y112.123 E.03629
G1 X78.046 Y112.985 E.035
G1 E-.56 F1800
;WIPE_START
G1 F3000
G1 X77.256 Y113.597 E-.24
;WIPE_END
G1 Z.6 F21000
G1 X77.27 Y113.615 Z.6
G1 X78.764 Y107.338
G1 X107.362 Y78.74
G1 X108.03 Y78.84
G1 X110 Y79.284
G1 X110.063 Y79.276
G1 X110 Y78.802
G1 Z.2
G1 E.8 F1800
G1 F3000
G1 X108.997 Y78.668 E.03257
G1 X107.907 Y78.21 E.03803
G1 X107.56 Y78.135 E.01144
G1 X107.405 Y77.825 E.01115
G1 X106.659 Y76.837 E.03983
G1 X106.277 Y75.852 E.03401
G1 X106.18 Y74.799 E.03401
G1 X106.374 Y73.761 E.03401
G1 X106.845 Y72.815 E.03401
G1 X107.557 Y72.034 E.03401
G1 X108.455 Y71.477 E.03401
G1 X109.472 Y71.188 E.03401
G1 X110.528 Y71.188 E.03401
G1 X111.545 Y71.477 E.03401
G1 X112.443 Y72.034 E.03401
G1 X113.155 Y72.815 E.03401
G1 X113.626 Y73.761 E.03401
G1 X113.82 Y74.799 E.03401
G1 X113.723 Y75.852 E.03401
G1 X113.341 Y76.837 E.03401
G1 X112.607 Y77.81 E.03923
G1 X112.44 Y78.135 E.01174
G1 X112.093 Y78.21 E.01144
G1 X111.003 Y78.668 E.03803
G1 X110.04 Y78.796 E.03128
G1 X110 Y79.263 F21000
G1 F3000
G1 X108.876 Y79.113 E.03649
G1 X107.73 Y78.631 E.03999
G1 X107.38 Y78.583 E.01136
G1 X107.114 Y78.713 E.00953
G1 X107.172 Y78.422 E.00953
G1 X107.04 Y78.1 E.0112
G1 X106.256 Y77.062 E.04189
G1 X105.828 Y75.957 E.03811
G1 X105.718 Y74.778 E.03811
G1 X105.936 Y73.614 E.03811
G1 X106.464 Y72.554 E.03811
G1 X107.262 Y71.679 E.03811
G1 X108.269 Y71.055 E.03811
G1 X109.408 Y70.731 E.03811
G1 X110.592 Y70.731 E.03811
G1 X111.731 Y71.055 E.03811
G1 X112.738 Y71.679 E.03811
G1 X113.536 Y72.554 E.03811
G1 X114.064 Y73.614 E.03811
G1 X114.282 Y74.778 E.03811
G1 X114.172 Y75.957 E.03811
G1 X113.744 Y77.062 E.03811
G1 X112.96 Y78.1 E.04189
G1 X112.828 Y78.422 E.0112
G1 X112.886 Y78.713 E.00953
G1 X112.62 Y78.583 E.00953
G1 X112.275 Y78.629 E.0112
G1 X111.124 Y79.113 E.04017
G1 X110.04 Y79.257 E.03521
G1 E-.56 F1800
;WIPE_START
G1 F3000
G1 X109.047 Y79.134 E-.24
;WIPE_END
G1 Z.6 F21000
G1 X109.044 Y79.157 Z.6
G1 X108.345 Y78.913
G1 X108.03 Y78.84
G1 X107.362 Y78.74
G1 X78.764 Y107.338
G1 X75.796 Y114.503
G1 X75.796 Y139.999
G1 X79.537 Y143.788
G1 X105.484 Y144.122
G1 X109.878 Y140.684
G1 X109.994 Y149.284
G1 X110 Y149.724
G1 Z.2
G1 E.8 F1800
;TYPE:Outer wall
G1 F3000
G1 X108.761 Y149.559 E.04021
G1 X107.609 Y149.078 E.04021
G1 X106.621 Y148.312 E.04021
G1 X105.868 Y147.315 E.04021
G1 X105.401 Y146.156 E.04021
G1 X105.247 Y144.872 E.04161
;WIDTH:0.542848
G1 X105.218 Y144.803 E.00263
;WIDTH:0.585697
G1 X105.189 Y144.734 E.00286
;WIDTH:0.628546
G1 X105.159 Y144.665 E.00309
;WIDTH:0.671395
G1 X105.13 Y144.596 E.00331
G1 X105.023 Y144.586 E.00474
;WIDTH:0.651455
G1 X79.985 Y144.264 E1.07283
;WIDTH:0.6714
G1 X79.878 Y144.272 E.00474
G1 X79.848 Y144.337 E.00321
;WIDTH:0.62855
G1 X79.817 Y144.403 E.00299
;WIDTH:0.5857
G1 X79.786 Y144.469 E.00277
;WIDTH:0.54285
G1 X79.755 Y144.534 E.00255
;WIDTH:0.499999
G1 X79.55 Y145.88 E.04382
G1 X79.008 Y147.071 E.0421
G1 X78.161 Y148.068 E.0421
G1 X77.074 Y148.796 E.0421
G1 X75.83 Y149.201 E.0421
G1 X74.523 Y149.25 E.0421
G1 X73.252 Y148.94 E.0421
G1 X72.113 Y148.295 E.0421
G1 X71.194 Y147.364 E.0421
G1 X70.564 Y146.218 E.0421
G1 X70.271 Y144.943 E.0421
G1 X70.337 Y143.636 E.0421
G1 X70.757 Y142.397 E.0421
G1 X71.499 Y141.32 E.0421
G1 X72.507 Y140.486 E.0421
G1 X73.704 Y139.959 E.0421
G1 X75.039 Y139.773 E.04337
;WIDTH:0.54285
G1 X75.109 Y139.743 E.00267
;WIDTH:0.5857
G1 X75.178 Y139.712 E.0029
;WIDTH:0.628551
G1 X75.248 Y139.682 E.00313
;WIDTH:0.671401
G1 X75.317 Y139.651 E.00335
G1 X75.326 Y139.545 E.00474
;WIDTH:0.651458
G1 X75.326 Y114.957 E1.05342
;WIDTH:0.661603
G1 X75.321 Y114.879 E.00343
G1 X75.254 Y114.842 E.00333
;WIDTH:0.621202
G1 X75.187 Y114.805 E.00311
;WIDTH:0.580801
G1 X75.12 Y114.768 E.00289
;WIDTH:0.5404
G1 X75.053 Y114.731 E.00267
;WIDTH:0.499999
G1 X73.686 Y114.538 E.04445
G1 X72.474 Y113.996 E.04271
G1 X71.46 Y113.14 E.04271
G1 X70.723 Y112.036 E.04271
G1 X70.32 Y110.771 E.04271
G1 X70.282 Y109.444 E.04271
G1 X70.614 Y108.159 E.04271
G1 X71.288 Y107.016 E.04271
G1 X72.253 Y106.104 E.04271
G1 X73.432 Y105.495 E.04271
G1 X74.734 Y105.236 E.04271
G1 X76.056 Y105.348 E.04271
G1 X77.296 Y105.821 E.04271
G1 X78.38 Y106.637 E.04366
;WIDTH:0.542852
G1 X78.453 Y106.666 E.00276
;WIDTH:0.585704
G1 X78.526 Y106.695 E.00299
;WIDTH:0.628556
G1 X78.598 Y106.724 E.00323
;WIDTH:0.671408
G1 X78.671 Y106.753 E.00346
G1 X78.753 Y106.684 E.00474
;WIDTH:0.651461
G1 X106.708 Y78.729 E1.69384
;WIDTH:0.661601
G1 X106.76 Y78.67 E.00343
G1 X106.739 Y78.596 E.00333
;WIDTH:0.621201
G1 X106.718 Y78.523 E.00311
;WIDTH:0.5808
G1 X106.696 Y78.449 E.00289
;WIDTH:0.5404
G1 X106.675 Y78.376 E.00268
;WIDTH:0.499999
G1 X105.852 Y77.286 E.04394
G1 X105.379 Y76.063 E.04222
G1 X105.257 Y74.757 E.04222
G1 X105.499 Y73.467 E.04221
G1 X106.083 Y72.293 E.04222
G1 X106.967 Y71.324 E.04221
G1 X108.082 Y70.633 E.04222
G1 X109.344 Y70.274 E.04222
G1 X110.656 Y70.274 E.04222
G1 X111.918 Y70.633 E.04222
G1 X113.033 Y71.324 E.04222
G1 X113.917 Y72.293 E.04221
G1 X114.501 Y73.467 E.04222
G1 X114.743 Y74.757 E.04221
G1 X114.621 Y76.063 E.04222
G1 X114.148 Y77.286 E.04222
G1 X113.336 Y78.361 E.04333
;WIDTH:0.5404
G1 X113.312 Y78.438 E.00283
;WIDTH:0.5808
G1 X113.288 Y78.515 E.00306
;WIDTH:0.6212
G1 X113.264 Y78.592 E.00329
;WIDTH:0.6616
G1 X113.24 Y78.67 E.00352
G1 X113.292 Y78.729 E.00343
;WIDTH:0.651462
G1 X141.247 Y106.684 E1.69385
;WIDTH:0.67141
G1 X141.329 Y106.753 E.00474
G1 X141.397 Y106.728 E.0032
;WIDTH:0.628558
G1 X141.464 Y106.702 E.00298
;WIDTH:0.585705
G1 X141.532 Y106.677 E.00277
;WIDTH:0.542852
G1 X141.6 Y106.651 E.00255
;WIDTH:0.499999
G1 X142.704 Y105.821 E.04445
G1 X143.944 Y105.348 E.04271
G1 X145.266 Y105.236 E.04271
