; HEADER_BLOCK_START
; generated by OrcaSlicer 1.9.0 on 2024-01-23 at 13:59:33
; total layer number: 500
; filament_density: 1.24
; filament_diameter: 1.75
; max_z_height: 100.00
; HEADER_BLOCK_END

; THUMBNAIL_BLOCK_START

;
; THUMBNAIL_BLOCK_END

; external perimeters extrusion width = 0.40mm
; perimeters extrusion width = 0.45mm
; infill extrusion width = 0.45mm
; solid infill extrusion width = 0.40mm
; top infill extrusion width = 0.40mm
; first layer extrusion width = 0.50mm

; EXECUTABLE_BLOCK_START
EXCLUDE_OBJECT_DEFINE NAME=xyz_test_100mm.stl_id_0_copy_0 CENTER=110,110 POLYGON=[[60,60],[160,60],[160,70],[70,160],[60,160],[60,60]]
M73 P0 R85
;TYPE:Custom
START_PRINT NOZZLE_TEMP=210  BED_TEMP=60 

G90
G21
M83 ; use relative distances for extrusion
; filament start gcode
M106 S0
;LAYER_CHANGE
;Z:0.2
;HEIGHT:0.2
;BEFORE_LAYER_CHANGE
;0.2
G92 E0

G1 E-.6 F1800
;AFTER_LAYER_CHANGE
;0.2
;_SET_FAN_SPEED_CHANGING_LAYER
SET_VELOCITY_LIMIT ACCEL=500 ACCEL_TO_DECEL=250
SET_VELOCITY_LIMIT SQUARE_CORNER_VELOCITY=8
; printing object xyz_test_100mm.stl id:0 copy 0
EXCLUDE_OBJECT_START NAME=xyz_test_100mm.stl_id_0_copy_0
G1 Z.4 F21000
G1 X56.194 Y56.236
G1 Z.4
G1 Z.2
G1 E.6 F1800
;TYPE:Brim
;WIDTH:0.5
G1 F3000
G1 X56.723 Y55.764 E.03235
G1 X57.311 Y55.368 E.03235
G1 X57.949 Y55.054 E.03239
G1 X58.545 Y54.849 E.02878
G1 X59.24 Y54.699 E.03241
G1 X60.008 Y54.644 E.03513
G1 X159.992 Y54.644 E4.56003
G1 X160.708 Y54.692 E.0327
G1 X161.402 Y54.835 E.03235
G1 X162.073 Y55.07 E.0324
G1 X162.627 Y55.346 E.02824
G1 X163.225 Y55.732 E.03248
G1 X163.764 Y56.194 E.03235
G1 X164.236 Y56.723 E.03235
G1 X164.632 Y57.311 E.03235
G1 X164.946 Y57.949 E.03241
G1 X165.136 Y58.493 E.02629
G1 X165.301 Y59.241 E.0349
G1 X165.356 Y60.008 E.0351
G1 X165.356 Y69.992 E.45535
G1 X165.308 Y70.708 E.0327
G1 X165.165 Y71.402 E.03235
G1 X164.93 Y72.073 E.0324
G1 X164.654 Y72.627 E.02824
G1 X164.268 Y73.225 E.03248
G1 X163.806 Y73.764 E.03235
G1 X163.277 Y74.236 E.03235
G1 X162.689 Y74.632 E.03235
G1 X162.051 Y74.946 E.03239
G1 X161.455 Y75.151 E.02878
G1 X160.76 Y75.301 E.03241
G1 X159.992 Y75.356 E.03513
G1 X75.585 Y75.356 E3.84959
G1 X75.444 Y75.405 E.0068
G1 X75.356 Y75.585 E.00913
G1 X75.356 Y159.992 E3.84961
G1 X75.308 Y160.708 E.0327
G1 X75.165 Y161.402 E.03235
G1 X74.93 Y162.074 E.03244
G1 X74.7 Y162.544 E.02387
G1 X74.267 Y163.226 E.03685
G1 X73.806 Y163.764 E.03231
G1 X73.277 Y164.236 E.03235
G1 X72.689 Y164.632 E.03235
G1 X72.051 Y164.946 E.03239
G1 X71.455 Y165.151 E.02878
G1 X70.76 Y165.301 E.03241
G1 X69.992 Y165.356 E.03513
G1 X60.008 Y165.356 E.45535
G1 X59.292 Y165.308 E.0327
G1 X58.598 Y165.165 E.03235
G1 X57.926 Y164.93 E.03244
G1 X57.456 Y164.7 E.02387
G1 X56.774 Y164.267 E.03685
G1 X56.236 Y163.806 E.03231
G1 X55.764 Y163.277 E.03235
G1 X55.368 Y162.689 E.03235
G1 X55.054 Y162.051 E.03239
G1 X54.849 Y161.455 E.02878
G1 X54.699 Y160.76 E.03241
G1 X54.644 Y159.992 E.03513
G1 X54.644 Y60.008 E4.56003
G1 X54.692 Y59.292 E.0327
G1 X54.835 Y58.598 E.03235
G1 X55.07 Y57.927 E.0324
G1 X55.346 Y57.373 E.02824
G1 X55.732 Y56.775 E.03248
G1 X56.168 Y56.266 E.03052
G1 X56.515 Y56.564 F21000
G1 F3000
G1 X57.012 Y56.121 E.03037
G1 X57.55 Y55.76 E.02952
G1 X58.117 Y55.481 E.02883
G1 X58.676 Y55.289 E.02698
G1 X59.296 Y55.155 E.02891
G1 X60.03 Y55.101 E.03357
G1 X159.981 Y55.101 E4.55855
G1 X160.655 Y55.148 E.0308
G1 X161.289 Y55.279 E.02952
G1 X161.886 Y55.489 E.02887
G1 X162.407 Y55.748 E.02652
G1 X162.944 Y56.095 E.02915
G1 X163.45 Y56.528 E.03037
G1 X163.868 Y56.997 E.02868
G1 X164.231 Y57.533 E.02952
G1 X164.527 Y58.134 E.03052
G1 X164.697 Y58.626 E.02376
G1 X164.845 Y59.297 E.03134
G1 X164.899 Y60.02 E.03306
G1 X164.899 Y69.972 E.4539
G1 X164.855 Y70.637 E.03038
G1 X164.726 Y71.271 E.02952
G1 X164.511 Y71.886 E.02971
G1 X164.252 Y72.407 E.02652
G1 X163.894 Y72.959 E.02999
G1 X163.472 Y73.45 E.02953
G1 X163.003 Y73.868 E.02868
G1 X162.466 Y74.231 E.02952
G1 X161.883 Y74.519 E.02967
G1 X161.324 Y74.711 E.02698
G1 X160.685 Y74.848 E.02978
G1 X159.97 Y74.899 E.0327
G1 X75.596 Y74.899 E3.84809
G1 X75.308 Y74.968 E.01351
G1 X75.136 Y75.071 E.00917
G1 X75.027 Y75.217 E.00826
G1 X74.952 Y75.371 E.00783
G1 X74.899 Y75.601 E.01075
G1 X74.899 Y159.972 E3.84799
G1 X74.855 Y160.637 E.03038
G1 X74.726 Y161.271 E.02952
G1 X74.51 Y161.889 E.02985
G1 X74.303 Y162.313 E.02152
G1 X73.904 Y162.945 E.0341
G1 X73.485 Y163.436 E.02943
G1 X73.003 Y163.868 E.02952
G1 X72.466 Y164.231 E.02952
G1 X71.883 Y164.519 E.02967
G1 X71.324 Y164.711 E.02698
G1 X70.685 Y164.848 E.02978
G1 X69.97 Y164.899 E.0327
G1 X60.028 Y164.899 E.45345
G1 X59.363 Y164.855 E.03038
G1 X58.711 Y164.721 E.03037
G1 X58.096 Y164.504 E.02974
G1 X57.674 Y164.296 E.02147
G1 X57.055 Y163.904 E.03342
G1 X56.564 Y163.485 E.02943
G1 X56.121 Y162.988 E.03037
G1 X55.76 Y162.45 E.02952
G1 X55.481 Y161.883 E.02883
G1 X55.289 Y161.324 E.02698
G1 X55.155 Y160.704 E.02891
G1 X55.101 Y159.97 E.03357
G1 X55.101 Y60.028 E4.55813
G1 X55.148 Y59.345 E.03122
G1 X55.279 Y58.711 E.02952
G1 X55.489 Y58.114 E.02887
G1 X55.748 Y57.593 E.02652
G1 X56.095 Y57.056 E.02915
G1 X56.489 Y56.594 E.0277
G1 X56.836 Y56.891 F21000
G1 F3000
G1 X57.3 Y56.478 E.02836
G1 X57.787 Y56.153 E.02669
G1 X58.301 Y55.901 E.02609
G1 X58.807 Y55.728 E.02439
G1 X59.352 Y55.61 E.02543
G1 X60.052 Y55.558 E.03201
G1 X159.961 Y55.558 E4.55661
G1 X160.602 Y55.604 E.0293
G1 X161.157 Y55.719 E.02588
G1 X161.7 Y55.908 E.0262
G1 X162.186 Y56.15 E.02479
G1 X162.662 Y56.457 E.02582
G1 X163.135 Y56.862 E.02839
G1 X163.511 Y57.286 E.02587
G1 X163.829 Y57.756 E.02586
G1 X164.107 Y58.318 E.02861
G1 X164.258 Y58.758 E.02122
G1 X164.39 Y59.354 E.02783
G1 X164.442 Y60.032 E.031
G1 X164.442 Y69.952 E.45245
G1 X164.401 Y70.566 E.02807
G1 X164.286 Y71.141 E.02671
G1 X164.092 Y71.7 E.027
G1 X163.85 Y72.186 E.02477
G1 X163.521 Y72.691 E.02748
G1 X163.139 Y73.135 E.02672
G1 X162.714 Y73.511 E.0259
G1 X162.244 Y73.829 E.02589
G1 X161.715 Y74.093 E.02693
G1 X161.193 Y74.272 E.02516
G1 X160.611 Y74.395 E.02714
G1 X159.949 Y74.442 E.03029
G1 X75.61 Y74.442 E3.84649
G1 X75.209 Y74.522 E.01863
G1 X75.065 Y74.581 E.0071
G1 X74.913 Y74.672 E.00808
G1 X74.761 Y74.809 E.00934
G1 X74.667 Y74.935 E.00717
G1 X74.546 Y75.162 E.01171
G1 X74.455 Y75.493 E.01567
G1 X74.442 Y75.608 E.00529
G1 X74.442 Y159.952 E3.84672
G1 X74.399 Y160.585 E.02891
G1 X74.281 Y161.158 E.02672
G1 X74.09 Y161.706 E.02642
G1 X73.907 Y162.084 E.01916
G1 X73.54 Y162.665 E.03137
G1 X73.151 Y163.122 E.02739
G1 X72.713 Y163.512 E.0267
G1 X72.228 Y163.839 E.0267
G1 X71.699 Y164.099 E.02689
G1 X71.193 Y164.272 E.02435
G1 X70.63 Y164.392 E.02627
G1 X69.949 Y164.442 E.03115
G1 X60.048 Y164.442 E.45156
G1 X59.434 Y164.401 E.02805
G1 X58.843 Y164.281 E.02752
G1 X58.266 Y164.078 E.02788
G1 X57.891 Y163.893 E.01908
G1 X57.335 Y163.54 E.03004
G1 X56.891 Y163.164 E.02653
G1 X56.478 Y162.7 E.02835
G1 X56.153 Y162.213 E.02669
G1 X55.901 Y161.699 E.02609
G1 X55.728 Y161.193 E.02439
G1 X55.61 Y160.648 E.02543
G1 X55.558 Y159.948 E.03201
G1 X55.558 Y60.048 E4.5562
G1 X55.604 Y59.398 E.02972
G1 X55.719 Y58.843 E.02588
G1 X55.908 Y58.3 E.0262
G1 X56.15 Y57.814 E.02479
G1 X56.457 Y57.337 E.02585
G1 X56.81 Y56.922 E.02487
G1 X57.158 Y57.219 F21000
G1 F3000
G1 X57.589 Y56.835 E.02632
G1 X58.024 Y56.546 E.02383
G1 X58.484 Y56.321 E.02336
G1 X58.937 Y56.168 E.02182
G1 X59.408 Y56.066 E.02198
G1 X60.074 Y56.015 E.03045
G1 X159.94 Y56.015 E4.55463
G1 X160.548 Y56.059 E.0278
G1 X161.044 Y56.163 E.02311
G1 X161.514 Y56.327 E.02271
G1 X161.953 Y56.545 E.02236
G1 X162.381 Y56.819 E.02317
G1 X162.82 Y57.196 E.02639
G1 X163.155 Y57.575 E.02305
G1 X163.428 Y57.978 E.02224
G1 X163.687 Y58.503 E.02668
G1 X163.819 Y58.89 E.01866
G1 X163.934 Y59.412 E.02437
G1 X163.984 Y60.044 E.02893
G1 X163.985 Y69.933 E.45099
M73 P0 R84
G1 X163.948 Y70.497 E.02579
G1 X163.846 Y71.011 E.02391
G1 X163.673 Y71.514 E.02427
G1 X163.448 Y71.966 E.02298
G1 X163.16 Y72.408 E.02409
G1 X162.818 Y72.806 E.02392
G1 X162.44 Y73.144 E.02315
G1 X162.02 Y73.429 E.02312
G1 X161.546 Y73.666 E.02418
G1 X161.063 Y73.832 E.0233
G1 X160.538 Y73.942 E.02447
G1 X159.928 Y73.985 E.02791
G1 X75.622 Y73.985 E3.84497
G1 X75.128 Y74.073 E.02286
G1 X74.899 Y74.156 E.01114
G1 X74.687 Y74.275 E.01107
G1 X74.461 Y74.465 E.01346
G1 X74.305 Y74.657 E.01133
G1 X74.149 Y74.936 E.01457
G1 X74.017 Y75.365 E.02045
G1 X73.985 Y75.617 E.01158
G1 X73.985 Y159.932 E3.8454
G1 X73.943 Y160.532 E.02742
G1 X73.836 Y161.045 E.02392
G1 X73.67 Y161.523 E.02306
G1 X73.51 Y161.854 E.0168
G1 X73.176 Y162.385 E.02861
G1 X72.816 Y162.808 E.02533
G1 X72.425 Y163.155 E.02384
G1 X71.99 Y163.446 E.02388
G1 X71.515 Y163.679 E.02412
G1 X71.063 Y163.832 E.02174
G1 X70.556 Y163.939 E.02366
G1 X69.927 Y163.985 E.02876
G1 X60.067 Y163.985 E.44967
G1 X59.504 Y163.948 E.02574
G1 X58.956 Y163.836 E.02552
G1 X58.437 Y163.653 E.02512
G1 X58.109 Y163.49 E.01667
G1 X57.614 Y163.176 E.02672
G1 X57.219 Y162.842 E.02362
G1 X56.835 Y162.411 E.02631
G1 X56.546 Y161.976 E.02383
G1 X56.321 Y161.516 E.02336
G1 X56.168 Y161.063 E.02182
G1 X56.066 Y160.592 E.02198
G1 X56.015 Y159.926 E.03045
G1 X56.015 Y60.069 E4.55423
G1 X56.059 Y59.452 E.02822
G1 X56.163 Y58.956 E.0231
G1 X56.327 Y58.486 E.02271
G1 X56.545 Y58.047 E.02236
G1 X56.82 Y57.618 E.02325
G1 X57.132 Y57.249 E.02202
G1 X57.48 Y57.546 F21000
G1 F3000
G1 X57.877 Y57.192 E.02424
G1 X58.26 Y56.939 E.02093
G1 X58.667 Y56.742 E.02063
G1 X59.067 Y56.607 E.01926
G1 X59.465 Y56.521 E.01858
G1 X60.097 Y56.472 E.0289
G1 X159.918 Y56.472 E4.55262
G1 X160.493 Y56.515 E.02628
G1 X160.912 Y56.603 E.01954
G1 X161.328 Y56.747 E.02008
G1 X161.721 Y56.94 E.01994
G1 X162.099 Y57.182 E.0205
G1 X162.505 Y57.529 E.02436
G1 X162.787 Y57.848 E.01941
G1 X163.027 Y58.201 E.01945
G1 X163.267 Y58.687 E.02473
G1 X163.38 Y59.021 E.01608
G1 X163.479 Y59.47 E.02097
G1 X163.527 Y60.068 E.02734
G1 X163.528 Y69.913 E.44903
G1 X163.494 Y70.428 E.02354
G1 X163.405 Y70.883 E.02112
G1 X163.246 Y71.345 E.02233
G1 X163.046 Y71.745 E.02037
G1 X162.799 Y72.126 E.02072
G1 X162.498 Y72.478 E.02114
G1 X162.165 Y72.777 E.02039
G1 X161.796 Y73.028 E.02035
G1 X161.377 Y73.24 E.02141
G1 X160.95 Y73.388 E.02062
G1 X160.484 Y73.486 E.02172
G1 X159.906 Y73.528 E.0264
G1 X75.633 Y73.528 E3.84351
G1 X75.057 Y73.621 E.02659
G1 X74.753 Y73.723 E.01465
G1 X74.385 Y73.932 E.01928
G1 X74.101 Y74.184 E.01734
G1 X73.902 Y74.442 E.01485
G1 X73.708 Y74.814 E.01913
G1 X73.583 Y75.22 E.01937
G1 X73.528 Y75.626 E.01871
G1 X73.528 Y159.911 E3.84403
G1 X73.487 Y160.478 E.02592
G1 X73.392 Y160.931 E.02113
G1 X73.249 Y161.34 E.01975
G1 X73.113 Y161.626 E.01444
G1 X72.812 Y162.106 E.02583
G1 X72.482 Y162.494 E.02325
G1 X72.137 Y162.798 E.02095
G1 X71.753 Y163.054 E.02106
G1 X71.332 Y163.259 E.02135
G1 X70.934 Y163.392 E.01912
G1 X70.482 Y163.486 E.02106
G1 X69.905 Y163.528 E.02639
G1 X60.087 Y163.528 E.44779
G1 X59.574 Y163.494 E.02343
G1 X59.088 Y163.397 E.02264
G1 X58.608 Y163.227 E.02321
G1 X58.328 Y163.087 E.01427
G1 X57.893 Y162.812 E.02347
G1 X57.546 Y162.52 E.0207
G1 X57.192 Y162.123 E.02423
G1 X56.939 Y161.74 E.02093
G1 X56.742 Y161.333 E.02063
G1 X56.607 Y160.933 E.01926
G1 X56.521 Y160.535 E.01858
G1 X56.472 Y159.903 E.0289
G1 X56.472 Y60.09 E4.55222
G1 X56.515 Y59.507 E.02671
G1 X56.603 Y59.088 E.01952
G1 X56.747 Y58.672 E.02008
G1 X56.94 Y58.279 E.01994
G1 X57.184 Y57.898 E.02067
G1 X57.454 Y57.576 E.01914
G1 X57.802 Y57.873 F21000
G1 F3000
G1 X58.164 Y57.55 E.02213
G1 X58.494 Y57.333 E.01801
G1 X58.848 Y57.163 E.0179
G1 X59.181 Y57.051 E.01602
G1 X59.522 Y56.976 E.01593
G1 X60.12 Y56.929 E.02734
G1 X159.896 Y56.929 E4.55056
G1 X160.438 Y56.97 E.02477
G1 X160.798 Y57.047 E.01681
G1 X161.144 Y57.166 E.01668
G1 X161.489 Y57.335 E.01751
G1 X161.818 Y57.545 E.0178
G1 X162.19 Y57.863 E.02232
G1 X162.43 Y58.136 E.0166
G1 X162.625 Y58.424 E.01586
G1 X162.846 Y58.871 E.02274
G1 X162.941 Y59.151 E.01348
G1 X163.024 Y59.529 E.01763
G1 X163.07 Y60.091 E.02575
G1 X163.071 Y69.893 E.44705
G1 X163.041 Y70.36 E.02132
G1 X162.964 Y70.754 E.01832
G1 X162.827 Y71.16 E.01952
G1 X162.653 Y71.51 E.01786
G1 X162.426 Y71.858 E.01894
G1 X162.163 Y72.164 E.0184
G1 X161.889 Y72.41 E.01681
G1 X161.571 Y72.629 E.01759
G1 X161.207 Y72.814 E.01863
G1 X160.835 Y72.944 E.01794
G1 X160.429 Y73.031 E.01895
G1 X159.885 Y73.071 E.02488
G1 X75.643 Y73.071 E3.84206
G1 X74.993 Y73.169 E.02997
G1 X74.618 Y73.286 E.01792
G1 X74.169 Y73.529 E.0233
G1 X73.806 Y73.835 E.02163
G1 X73.491 Y74.241 E.02343
G1 X73.268 Y74.689 E.02284
G1 X73.129 Y75.168 E.02273
G1 X73.071 Y75.635 E.02147
G1 X73.071 Y159.89 E3.84267
G1 X73.032 Y160.423 E.0244
G1 X72.948 Y160.817 E.01835
G1 X72.828 Y161.159 E.01652
G1 X72.715 Y161.398 E.01209
G1 X72.448 Y161.826 E.02302
G1 X72.147 Y162.179 E.02113
G1 X71.85 Y162.44 E.01801
G1 X71.517 Y162.66 E.01824
G1 X71.15 Y162.838 E.01858
G1 X70.807 Y162.952 E.0165
G1 X70.41 Y163.033 E.01846
G1 X69.884 Y163.071 E.02406
G1 X60.107 Y163.071 E.44592
G1 X59.644 Y163.041 E.02115
G1 X59.2 Y162.952 E.02063
G1 X58.779 Y162.802 E.02039
G1 X58.547 Y162.685 E.01185
G1 X58.171 Y162.447 E.02029
G1 X57.872 Y162.198 E.01776
G1 X57.55 Y161.836 E.02211
G1 X57.333 Y161.506 E.01801
G1 X57.163 Y161.152 E.0179
G1 X57.051 Y160.819 E.01602
G1 X56.976 Y160.478 E.01593
G1 X56.929 Y159.88 E.02734
G1 X56.929 Y60.112 E4.55017
M73 P1 R84
G1 X56.97 Y59.561 E.02519
G1 X57.047 Y59.202 E.01678
G1 X57.166 Y58.856 E.01668
G1 X57.335 Y58.511 E.01751
G1 X57.548 Y58.177 E.01809
G1 X57.776 Y57.903 E.01624
G1 X58.145 Y58.211 F21000
G1 F3000
G1 X58.197 Y58.149 E.00369
G1 X58.634 Y57.801 E.02545
G1 X59.054 Y57.585 E.02152
G1 X59.506 Y57.449 E.02154
G1 X60.044 Y57.386 E.02471
G1 X159.951 Y57.386 E4.55653
G1 X160.453 Y57.444 E.02305
G1 X160.984 Y57.6 E.02521
G1 X161.321 Y57.778 E.01738
G1 X161.758 Y58.103 E.02484
G1 X162.056 Y58.421 E.01988
G1 X162.214 Y58.654 E.01283
G1 X162.379 Y58.966 E.01611
G1 X162.492 Y59.278 E.01515
G1 X162.586 Y59.749 E.0219
G1 X162.577 Y70.347 E.48336
G1 X162.48 Y70.763 E.01948
G1 X162.311 Y71.174 E.02023
G1 X162.114 Y71.495 E.0172
G1 X161.824 Y71.839 E.02051
G1 X161.553 Y72.072 E.01633
G1 X161.12 Y72.337 E.02315
G1 X160.784 Y72.474 E.01653
G1 X160.401 Y72.565 E.01797
G1 X72.751 Y72.613 E3.9975
G1 X72.647 Y72.661 E.00522
G1 X72.614 Y72.751 E.00435
G1 X72.614 Y159.958 E3.97734
G1 X72.548 Y160.498 E.02482
G1 X72.417 Y160.936 E.02084
G1 X72.227 Y161.319 E.01949
G1 X71.891 Y161.767 E.02556
G1 X71.579 Y162.055 E.01936
G1 X71.346 Y162.214 E.01286
G1 X71.034 Y162.379 E.0161
G1 X70.722 Y162.492 E.01515
G1 X70.251 Y162.586 E.0219
G1 X59.653 Y162.577 E.48336
G1 X59.236 Y162.479 E.01954
G1 X58.815 Y162.304 E.0208
G1 X58.465 Y162.079 E.01898
G1 X58.129 Y161.783 E.02042
G1 X57.855 Y161.448 E.01972
G1 X57.623 Y161.037 E.02153
G1 X57.508 Y160.721 E.01531
G1 X57.414 Y160.251 E.0219
G1 X57.386 Y60.05 E4.56992
G1 X57.463 Y59.456 E.02731
G1 X57.604 Y59.011 E.02129
G1 X57.847 Y58.569 E.023
G1 X58.12 Y58.242 E.01945
G1 X58.47 Y58.52 F21000
G1 F3000
G1 X58.48 Y58.508 E.00073
G1 X58.842 Y58.208 E.02142
G1 X59.185 Y58.023 E.01779
G1 X59.553 Y57.904 E.01763
G1 X60.036 Y57.843 E.02223
G1 X159.959 Y57.843 E4.55725
G1 X160.407 Y57.899 E.02058
G1 X160.859 Y58.04 E.02157
G1 X161.04 Y58.138 E.0094
G1 X161.495 Y58.477 E.02589
G1 X161.678 Y58.678 E.0124
G1 X161.806 Y58.859 E.01012
G1 X161.978 Y59.187 E.01689
G1 X162.062 Y59.432 E.0118
G1 X162.14 Y59.846 E.01919
G1 X162.132 Y70.244 E.47425
G1 X162.057 Y70.589 E.01612
G1 X161.923 Y70.932 E.01677
G1 X161.764 Y71.2 E.01424
G1 X161.527 Y71.492 E.01716
G1 X161.313 Y71.683 E.01304
G1 X160.959 Y71.91 E.01919
G1 X160.603 Y72.054 E.01752
G1 X160.298 Y72.12 E.01422
G1 X72.294 Y72.157 E4.01367
G1 X72.19 Y72.204 E.00522
G1 X72.157 Y72.294 E.00435
G1 X72.157 Y159.967 E3.99856
G1 X72.093 Y160.449 E.02218
G1 X71.979 Y160.805 E.01708
G1 X71.817 Y161.118 E.01606
G1 X71.524 Y161.495 E.02177
G1 X71.322 Y161.678 E.01245
G1 X71.141 Y161.806 E.01012
G1 X70.813 Y161.978 E.01689
G1 X70.568 Y162.062 E.0118
G1 X70.154 Y162.14 E.01919
G1 X59.756 Y162.132 E.47425
G1 X59.411 Y162.057 E.01611
G1 X59.063 Y161.92 E.01705
G1 X58.774 Y161.742 E.01546
G1 X58.422 Y161.432 E.0214
