; HEADER_BLOCK_START
; generated by OrcaSlicer 1.9.0 on 2024-02-14 at 18:53:02
; total layer number: 3
; filament_density: 1.24
; filament_diameter: 1.75
; max_z_height: 0.60
; HEADER_BLOCK_END

; THUMBNAIL_BLOCK_START

;
; THUMBNAIL_BLOCK_END

; external perimeters extrusion width = 0.40mm
; perimeters extrusion width = 0.45mm
; infill extrusion width = 0.45mm
; solid infill extrusion width = 0.40mm
; top infill extrusion width = 0.40mm
; first layer extrusion width = 0.50mm

; EXECUTABLE_BLOCK_START
EXCLUDE_OBJECT_DEFINE NAME=Z_BedLeveling.STL_id_0_copy_0 CENTER=110,110 POLYGON=[[46.1705,46.1705],[173.829,46.1705],[173.829,173.829],[46.1705,173.829],[46.1705,46.1705]]
M73 P0 R23
;TYPE:Custom
START_PRINT NOZZLE_TEMP=210  BED_TEMP=60 

G90
G21
M83 ; use relative distances for extrusion
; filament start gcode
M106 S0
;LAYER_CHANGE
;Z:0.2
;HEIGHT:0.2
;BEFORE_LAYER_CHANGE
;0.2
G92 E0

G1 E-.4 F1800
;AFTER_LAYER_CHANGE
;0.2
;_SET_FAN_SPEED_CHANGING_LAYER
SET_VELOCITY_LIMIT ACCEL=500 ACCEL_TO_DECEL=250
; printing object Z_BedLeveling.STL id:0 copy 0
EXCLUDE_OBJECT_START NAME=Z_BedLeveling.STL_id_0_copy_0
G1 X172.665 Y172.665 F21000
G1 Z.4
G1 Z.2
G1 E.4 F1800
;TYPE:Inner wall
;WIDTH:0.499999
G1 F3000
G1 X47.335 Y172.665 E4.66808
G1 X47.335 Y47.335 E4.66808
G1 X172.665 Y47.335 E4.66808
G1 X172.665 Y110 E2.33404
G1 X172.665 Y172.625 E2.33255
G1 X173.122 Y173.122 F21000
G1 F3000
G1 X46.878 Y173.122 E4.70213
M73 P1 R23
G1 X46.878 Y46.878 E4.70213
G1 X173.122 Y46.878 E4.70213
G1 X173.122 Y110 E2.35107
G1 X173.122 Y173.082 E2.34958
G1 X173.579 Y173.579 F21000
;TYPE:Outer wall
G1 F3000
G1 X46.421 Y173.579 E4.73618
G1 X46.421 Y46.421 E4.73618
G1 X173.579 Y46.421 E4.73618
M73 P2 R23
G1 X173.579 Y110 E2.36809
G1 X173.579 Y173.539 E2.3666
G1 E-.28 F1800
;WIPE_START
G1 F3000
G1 X172.579 Y173.54 E-.12
;WIPE_END
G1 X172.576 Y165.907 Z.6 F21000
G1 X172.528 Y48.396 Z.6
G1 Z.2
G1 E.4 F1800
;TYPE:Bottom surface
;WIDTH:0.50008
G1 F6300
G1 X171.81 Y47.677 E.03785
G1 X171.163 Y47.677 E.02408
G1 X172.323 Y48.837 E.06108
G1 X172.323 Y49.483 E.02408
G1 X170.517 Y47.677 E.09514
G1 X169.87 Y47.677 E.02408
G1 X172.323 Y50.13 E.1292
M73 P2 R22
G1 X172.323 Y50.776 E.02408
G1 X169.224 Y47.677 E.16326
G1 X168.577 Y47.677 E.02408
G1 X172.323 Y51.423 E.19732
G1 X172.323 Y52.069 E.02408
G1 X167.931 Y47.677 E.23138
G1 X167.284 Y47.677 E.02408
G1 X172.323 Y52.716 E.26544
G1 X172.323 Y53.362 E.02408
G1 X166.638 Y47.677 E.2995
G1 X165.991 Y47.677 E.02408
G1 X172.323 Y54.009 E.33356
G1 X172.323 Y54.655 E.02408
G1 X165.345 Y47.677 E.36762
G1 X164.698 Y47.677 E.02408
G1 X172.323 Y55.302 E.40168
G1 X172.323 Y55.949 E.02408
G1 X164.051 Y47.677 E.43575
G1 X163.405 Y47.677 E.02408
G1 X172.323 Y56.595 E.46981
G1 X172.323 Y57.242 E.02408
G1 X162.758 Y47.677 E.50387
G1 X162.112 Y47.677 E.02408
G1 X172.323 Y57.888 E.53793
G1 X172.323 Y58.535 E.02408
G1 X161.465 Y47.677 E.57199
G1 X160.819 Y47.677 E.02408
G1 X172.323 Y59.181 E.60605
G1 X172.323 Y59.828 E.02408
G1 X160.172 Y47.677 E.64011
G1 X159.526 Y47.677 E.02408
G1 X172.323 Y60.474 E.67417
G1 X172.323 Y61.121 E.02408
G1 X158.879 Y47.677 E.70823
G1 X158.233 Y47.677 E.02408
G1 X172.323 Y61.767 E.74229
G1 X172.323 Y62.414 E.02408
G1 X157.586 Y47.677 E.77636
G1 X156.94 Y47.677 E.02408
G1 X172.323 Y63.06 E.81042
G1 X172.323 Y63.707 E.02408
G1 X156.293 Y47.677 E.84448
G1 X155.647 Y47.677 E.02408
G1 X172.323 Y64.353 E.87854
G1 X172.323 Y65 E.02408
G1 X155 Y47.677 E.9126
M73 P3 R22
G1 X154.354 Y47.677 E.02408
G1 X172.323 Y65.646 E.94666
G1 X172.323 Y66.293 E.02408
G1 X153.707 Y47.677 E.98072
G1 X153.061 Y47.677 E.02408
G1 X172.323 Y66.939 E1.01478
G1 X172.323 Y67.586 E.02408
G1 X152.414 Y47.677 E1.04884
G1 X151.768 Y47.677 E.02408
G1 X172.323 Y68.232 E1.0829
G1 X172.323 Y68.879 E.02408
G1 X151.121 Y47.677 E1.11696
G1 X150.475 Y47.677 E.02408
G1 X172.323 Y69.525 E1.15103
G1 X172.323 Y70.172 E.02408
G1 X149.828 Y47.677 E1.18509
G1 X149.181 Y47.677 E.02408
G1 X172.323 Y70.819 E1.21915
G1 X172.323 Y71.465 E.02408
G1 X148.535 Y47.677 E1.25321
G1 X147.888 Y47.677 E.02408
G1 X172.323 Y72.112 E1.28727
G1 X172.323 Y72.758 E.02408
G1 X147.242 Y47.677 E1.32133
G1 X146.595 Y47.677 E.02408
G1 X172.323 Y73.405 E1.35539
G1 X172.323 Y74.051 E.02408
G1 X145.949 Y47.677 E1.38945
G1 X145.302 Y47.677 E.02408
G1 X172.323 Y74.698 E1.42351
G1 X172.323 Y75.344 E.02408
G1 X144.656 Y47.677 E1.45757
G1 X144.009 Y47.677 E.02408
G1 X172.323 Y75.991 E1.49163
G1 X172.323 Y76.637 E.02408
G1 X143.363 Y47.677 E1.5257
G1 X142.716 Y47.677 E.02408
G1 X172.323 Y77.284 E1.55976
G1 X172.323 Y77.93 E.02408
G1 X142.07 Y47.677 E1.59382
G1 X141.423 Y47.677 E.02408
G1 X172.323 Y78.577 E1.62788
G1 X172.323 Y79.223 E.02408
G1 X140.777 Y47.677 E1.66194
G1 X140.13 Y47.677 E.02408
G1 X172.323 Y79.87 E1.696
G1 X172.323 Y80.516 E.02408
G1 X139.484 Y47.677 E1.73006
G1 X138.837 Y47.677 E.02408
G1 X172.323 Y81.163 E1.76412
G1 X172.323 Y81.809 E.02408
M73 P4 R22
G1 X138.191 Y47.677 E1.79818
G1 X137.544 Y47.677 E.02408
G1 X172.323 Y82.456 E1.83224
G1 X172.323 Y83.102 E.02408
G1 X136.898 Y47.677 E1.8663
G1 X136.251 Y47.677 E.02408
G1 X172.323 Y83.749 E1.90037
G1 X172.323 Y84.395 E.02408
G1 X135.605 Y47.677 E1.93443
G1 X134.958 Y47.677 E.02408
G1 X172.323 Y85.042 E1.96849
G1 X172.323 Y85.689 E.02408
G1 X134.311 Y47.677 E2.00255
G1 X133.665 Y47.677 E.02408
G1 X172.323 Y86.335 E2.03661
G1 X172.323 Y86.982 E.02408
G1 X133.018 Y47.677 E2.07067
G1 X132.372 Y47.677 E.02408
G1 X172.323 Y87.628 E2.10473
G1 X172.323 Y88.275 E.02408
G1 X131.725 Y47.677 E2.13879
G1 X131.079 Y47.677 E.02408
G1 X172.323 Y88.921 E2.17285
G1 X172.323 Y89.568 E.02408
G1 X130.432 Y47.677 E2.20691
G1 X129.786 Y47.677 E.02408
G1 X172.323 Y90.214 E2.24098
G1 X172.323 Y90.861 E.02408
G1 X129.139 Y47.677 E2.27504
G1 X128.493 Y47.677 E.02408
G1 X172.323 Y91.507 E2.3091
G1 X172.323 Y92.154 E.02408
G1 X127.846 Y47.677 E2.34316
G1 X127.2 Y47.677 E.02408
G1 X172.323 Y92.8 E2.37722
G1 X172.323 Y93.447 E.02408
G1 X126.553 Y47.677 E2.41128
M73 P5 R22
G1 X125.907 Y47.677 E.02408
G1 X172.323 Y94.093 E2.44534
G1 X172.323 Y94.74 E.02408
G1 X125.26 Y47.677 E2.4794
G1 X124.614 Y47.677 E.02408
G1 X172.323 Y95.386 E2.51346
G1 X172.323 Y96.033 E.02408
G1 X123.967 Y47.677 E2.54752
G1 X123.321 Y47.677 E.02408
G1 X172.323 Y96.679 E2.58158
G1 X172.323 Y97.326 E.02408
G1 X122.674 Y47.677 E2.61565
G1 X122.028 Y47.677 E.02408
G1 X172.323 Y97.972 E2.64971
G1 X172.323 Y98.619 E.02408
G1 X121.381 Y47.677 E2.68377
G1 X120.735 Y47.677 E.02408
G1 X172.323 Y99.265 E2.71783
G1 X172.323 Y99.912 E.02408
G1 X120.088 Y47.677 E2.75189
G1 X119.441 Y47.677 E.02408
G1 X172.323 Y100.559 E2.78595
G1 X172.323 Y101.205 E.02408
G1 X118.795 Y47.677 E2.82001
G1 X118.148 Y47.677 E.02408
G1 X172.323 Y101.852 E2.85407
G1 X172.323 Y102.498 E.02408
G1 X117.502 Y47.677 E2.88813
G1 X116.855 Y47.677 E.02408
G1 X172.323 Y103.145 E2.92219
G1 X172.323 Y103.791 E.02408
G1 X116.209 Y47.677 E2.95625
M73 P6 R22
G1 X115.562 Y47.677 E.02408
G1 X172.323 Y104.438 E2.99032
G1 X172.323 Y105.084 E.02408
G1 X114.916 Y47.677 E3.02438
G1 X114.269 Y47.677 E.02408
G1 X172.323 Y105.731 E3.05844
G1 X172.323 Y106.377 E.02408
G1 X113.623 Y47.677 E3.0925
G1 X112.976 Y47.677 E.02408
G1 X172.323 Y107.024 E3.12656
G1 X172.323 Y107.67 E.02408
G1 X112.33 Y47.677 E3.16062
G1 X111.683 Y47.677 E.02408
G1 X172.323 Y108.317 E3.19468
G1 X172.323 Y108.963 E.02408
G1 X111.037 Y47.677 E3.22874
G1 X110.39 Y47.677 E.02408
G1 X172.323 Y109.61 E3.2628
G1 X172.323 Y110.256 E.02408
M73 P6 R21
G1 X109.744 Y47.677 E3.29686
G1 X109.097 Y47.677 E.02408
G1 X172.323 Y110.903 E3.33093
G1 X172.323 Y111.549 E.02408
G1 X108.451 Y47.677 E3.36499
G1 X107.804 Y47.677 E.02408
G1 X172.323 Y112.196 E3.39905
G1 X172.323 Y112.842 E.02408
G1 X107.158 Y47.677 E3.43311
M73 P7 R21
G1 X106.511 Y47.677 E.02408
G1 X172.323 Y113.489 E3.46717
G1 X172.323 Y114.135 E.02408
G1 X105.865 Y47.677 E3.50123
G1 X105.218 Y47.677 E.02408
G1 X172.323 Y114.782 E3.53529
G1 X172.323 Y115.429 E.02408
G1 X104.571 Y47.677 E3.56935
G1 X103.925 Y47.677 E.02408
G1 X172.323 Y116.075 E3.60341
G1 X172.323 Y116.722 E.02408
G1 X103.278 Y47.677 E3.63747
G1 X102.632 Y47.677 E.02408
G1 X172.323 Y117.368 E3.67153
G1 X172.323 Y118.015 E.02408
G1 X101.985 Y47.677 E3.7056
G1 X101.339 Y47.677 E.02408
G1 X172.323 Y118.661 E3.73966
G1 X172.323 Y119.308 E.02408
G1 X100.692 Y47.677 E3.77372
G1 X100.046 Y47.677 E.02408
G1 X172.323 Y119.954 E3.80778
G1 X172.323 Y120.601 E.02408
G1 X99.399 Y47.677 E3.84184
M73 P8 R21
G1 X98.753 Y47.677 E.02408
G1 X172.323 Y121.247 E3.8759
G1 X172.323 Y121.894 E.02408
G1 X98.106 Y47.677 E3.90996
G1 X97.46 Y47.677 E.02408
G1 X172.323 Y122.54 E3.94402
G1 X172.323 Y123.187 E.02408
G1 X96.813 Y47.677 E3.97808
G1 X96.167 Y47.677 E.02408
G1 X172.323 Y123.833 E4.01214
G1 X172.323 Y124.48 E.02408
G1 X95.52 Y47.677 E4.0462
G1 X94.874 Y47.677 E.02408
G1 X172.323 Y125.126 E4.08027
G1 X172.323 Y125.773 E.02408
G1 X94.227 Y47.677 E4.11433
G1 X93.581 Y47.677 E.02408
G1 X172.323 Y126.419 E4.14839
G1 X172.323 Y127.066 E.02408
G1 X92.934 Y47.677 E4.18245
G1 X92.288 Y47.677 E.02408
G1 X172.323 Y127.712 E4.21651
M73 P9 R21
G1 X172.323 Y128.359 E.02408
G1 X91.641 Y47.677 E4.25057
G1 X90.995 Y47.677 E.02408
G1 X172.323 Y129.005 E4.28463
G1 X172.323 Y129.652 E.02408
G1 X90.348 Y47.677 E4.31869
G1 X89.701 Y47.677 E.02408
G1 X172.323 Y130.299 E4.35275
G1 X172.323 Y130.945 E.02408
G1 X89.055 Y47.677 E4.38681
G1 X88.408 Y47.677 E.02408
G1 X172.323 Y131.592 E4.42087
G1 X172.323 Y132.238 E.02408
G1 X87.762 Y47.677 E4.45494
G1 X87.115 Y47.677 E.02408
G1 X172.323 Y132.885 E4.489
G1 X172.323 Y133.531 E.02408
G1 X86.469 Y47.677 E4.52306
G1 X85.822 Y47.677 E.02408
G1 X172.323 Y134.178 E4.55712
G1 X172.323 Y134.824 E.02408
G1 X85.176 Y47.677 E4.59118
M73 P10 R21
G1 X84.529 Y47.677 E.02408
G1 X172.323 Y135.471 E4.62524
G1 X172.323 Y136.117 E.02408
G1 X83.883 Y47.677 E4.6593
G1 X83.236 Y47.677 E.02408
G1 X172.323 Y136.764 E4.69336
G1 X172.323 Y137.41 E.02408
G1 X82.59 Y47.677 E4.72742
G1 X81.943 Y47.677 E.02408
G1 X172.323 Y138.057 E4.76148
G1 X172.323 Y138.703 E.02408
G1 X81.297 Y47.677 E4.79555
G1 X80.65 Y47.677 E.02408
G1 X172.323 Y139.35 E4.82961
G1 X172.323 Y139.996 E.02408
G1 X80.004 Y47.677 E4.86367
G1 X79.357 Y47.677 E.02408
G1 X172.323 Y140.643 E4.89773
M73 P10 R20
G1 X172.323 Y141.289 E.02408
G1 X78.711 Y47.677 E4.93179
M73 P11 R20
G1 X78.064 Y47.677 E.02408
G1 X172.323 Y141.936 E4.96585
G1 X172.323 Y142.582 E.02408
G1 X77.418 Y47.677 E4.99991
G1 X76.771 Y47.677 E.02408
G1 X172.323 Y143.229 E5.03397
G1 X172.323 Y143.875 E.02408
G1 X76.125 Y47.677 E5.06803
G1 X75.478 Y47.677 E.02408
G1 X172.323 Y144.522 E5.10209
G1 X172.323 Y145.169 E.02408
G1 X74.831 Y47.677 E5.13615
G1 X74.185 Y47.677 E.02408
G1 X172.323 Y145.815 E5.17022
G1 X172.323 Y146.462 E.02408
G1 X73.538 Y47.677 E5.20428
G1 X72.892 Y47.677 E.02408
G1 X172.323 Y147.108 E5.23834
M73 P12 R20
G1 X172.323 Y147.755 E.02408
G1 X72.245 Y47.677 E5.2724
G1 X71.599 Y47.677 E.02408
G1 X172.323 Y148.401 E5.30646
G1 X172.323 Y149.048 E.02408
G1 X70.952 Y47.677 E5.34052
G1 X70.306 Y47.677 E.02408
G1 X172.323 Y149.694 E5.37458
G1 X172.323 Y150.341 E.02408
G1 X69.659 Y47.677 E5.40864
G1 X69.013 Y47.677 E.02408
G1 X172.323 Y150.987 E5.4427
G1 X172.323 Y151.634 E.02408
G1 X68.366 Y47.677 E5.47676
G1 X67.72 Y47.677 E.02408
G1 X172.323 Y152.28 E5.51082
G1 X172.323 Y152.927 E.02408
G1 X67.073 Y47.677 E5.54489
M73 P13 R20
G1 X66.427 Y47.677 E.02408
G1 X172.323 Y153.573 E5.57895
G1 X172.323 Y154.22 E.02408
G1 X65.78 Y47.677 E5.61301
G1 X65.134 Y47.677 E.02408
G1 X172.323 Y154.866 E5.64707
G1 X172.323 Y155.513 E.02408
G1 X64.487 Y47.677 E5.68113
G1 X63.841 Y47.677 E.02408
G1 X172.323 Y156.159 E5.71519
G1 X172.323 Y156.806 E.02408
G1 X63.194 Y47.677 E5.74925
G1 X62.548 Y47.677 E.02408
G1 X172.323 Y157.452 E5.78331
G1 X172.323 Y158.099 E.02408
G1 X61.901 Y47.677 E5.81737
M73 P14 R20
G1 X61.255 Y47.677 E.02408
G1 X172.323 Y158.745 E5.85143
G1 X172.323 Y159.392 E.02408
G1 X60.608 Y47.677 E5.88549
G1 X59.961 Y47.677 E.02408
G1 X172.323 Y160.039 E5.91956
G1 X172.323 Y160.685 E.02408
G1 X59.315 Y47.677 E5.95362
G1 X58.668 Y47.677 E.02408
G1 X172.323 Y161.332 E5.98768
G1 X172.323 Y161.978 E.02408
G1 X58.022 Y47.677 E6.02174
G1 X57.375 Y47.677 E.02408
G1 X172.323 Y162.625 E6.0558
G1 X172.323 Y163.271 E.02408
G1 X56.729 Y47.677 E6.08986
G1 X56.082 Y47.677 E.02408
M73 P15 R20
G1 X172.323 Y163.918 E6.12392
G1 X172.323 Y164.564 E.02408
G1 X55.436 Y47.677 E6.15798
M73 P15 R19
G1 X54.789 Y47.677 E.02408
G1 X172.323 Y165.211 E6.19204
G1 X172.323 Y165.857 E.02408
G1 X54.143 Y47.677 E6.2261
G1 X53.496 Y47.677 E.02408
G1 X172.323 Y166.504 E6.26017
G1 X172.323 Y167.15 E.02408
G1 X52.85 Y47.677 E6.29423
G1 X52.203 Y47.677 E.02408
G1 X172.323 Y167.797 E6.32829
G1 X172.323 Y168.443 E.02408
G1 X51.557 Y47.677 E6.36235
M73 P16 R19
G1 X50.91 Y47.677 E.02408
G1 X172.323 Y169.09 E6.39641
G1 X172.323 Y169.736 E.02408
G1 X50.264 Y47.677 E6.43047
G1 X49.617 Y47.677 E.02408
G1 X172.323 Y170.383 E6.46453
G1 X172.323 Y171.029 E.02408
G1 X48.971 Y47.677 E6.49859
G1 X48.324 Y47.677 E.02408
G1 X172.323 Y171.676 E6.53265
G1 X172.323 Y172.322 E.02408
G1 X47.678 Y47.677 E6.56671
G1 X47.677 Y48.324 E.02408
G1 X171.676 Y172.323 E6.53266
G1 X171.03 Y172.323 E.02408
G1 X47.677 Y48.97 E6.4986
M73 P17 R19
G1 X47.677 Y49.617 E.02408
G1 X170.383 Y172.323 E6.46454
G1 X169.737 Y172.323 E.02408
G1 X47.677 Y50.263 E6.43048
G1 X47.677 Y50.91 E.02408
G1 X169.09 Y172.323 E6.39642
G1 X168.443 Y172.323 E.02408
G1 X47.677 Y51.557 E6.36236
G1 X47.677 Y52.203 E.02408
G1 X167.797 Y172.323 E6.32829
G1 X167.15 Y172.323 E.02408
G1 X47.677 Y52.85 E6.29423
G1 X47.677 Y53.496 E.02408
G1 X166.504 Y172.323 E6.26017
G1 X165.857 Y172.323 E.02408
M73 P18 R19
G1 X47.677 Y54.143 E6.22611
G1 X47.677 Y54.789 E.02408
G1 X165.211 Y172.323 E6.19205
G1 X164.564 Y172.323 E.02408
G1 X47.677 Y55.436 E6.15799
G1 X47.677 Y56.082 E.02408
G1 X163.918 Y172.323 E6.12393
G1 X163.271 Y172.323 E.02408
G1 X47.677 Y56.729 E6.08987
G1 X47.677 Y57.375 E.02408
G1 X162.625 Y172.323 E6.05581
G1 X161.978 Y172.323 E.02408
G1 X47.677 Y58.022 E6.02175
G1 X47.677 Y58.668 E.02408
G1 X161.332 Y172.323 E5.98769
M73 P19 R19
G1 X160.685 Y172.323 E.02408
G1 X47.677 Y59.315 E5.95362
G1 X47.677 Y59.961 E.02408
G1 X160.039 Y172.323 E5.91956
G1 X159.392 Y172.323 E.02408
G1 X47.677 Y60.608 E5.8855
G1 X47.677 Y61.254 E.02408
G1 X158.746 Y172.323 E5.85144
M73 P19 R18
G1 X158.099 Y172.323 E.02408
G1 X47.677 Y61.901 E5.81738
G1 X47.677 Y62.547 E.02408
G1 X157.453 Y172.323 E5.78332
G1 X156.806 Y172.323 E.02408
G1 X47.677 Y63.194 E5.74926
G1 X47.677 Y63.84 E.02408
G1 X156.16 Y172.323 E5.7152
G1 X155.513 Y172.323 E.02408
G1 X47.677 Y64.487 E5.68114
M73 P20 R18
G1 X47.677 Y65.133 E.02408
G1 X154.867 Y172.323 E5.64708
G1 X154.22 Y172.323 E.02408
G1 X47.677 Y65.78 E5.61301
G1 X47.677 Y66.427 E.02408
G1 X153.573 Y172.323 E5.57895
G1 X152.927 Y172.323 E.02408
G1 X47.677 Y67.073 E5.54489
G1 X47.677 Y67.72 E.02408
G1 X152.28 Y172.323 E5.51083
G1 X151.634 Y172.323 E.02408
G1 X47.677 Y68.366 E5.47677
G1 X47.677 Y69.013 E.02408
G1 X150.987 Y172.323 E5.44271
G1 X150.341 Y172.323 E.02408
G1 X47.677 Y69.659 E5.40865
M73 P21 R18
G1 X47.677 Y70.306 E.02408
G1 X149.694 Y172.323 E5.37459
G1 X149.048 Y172.323 E.02408
G1 X47.677 Y70.952 E5.34053
G1 X47.677 Y71.599 E.02408
G1 X148.401 Y172.323 E5.30647
G1 X147.755 Y172.323 E.02408
G1 X47.677 Y72.245 E5.27241
G1 X47.677 Y72.892 E.02408
G1 X147.108 Y172.323 E5.23834
G1 X146.462 Y172.323 E.02408
G1 X47.677 Y73.538 E5.20428
G1 X47.677 Y74.185 E.02408
G1 X145.815 Y172.323 E5.17022
G1 X145.169 Y172.323 E.02408
G1 X47.677 Y74.831 E5.13616
G1 X47.677 Y75.478 E.02408
G1 X144.522 Y172.323 E5.1021
M73 P22 R18
G1 X143.876 Y172.323 E.02408
G1 X47.677 Y76.124 E5.06804
G1 X47.677 Y76.771 E.02408
G1 X143.229 Y172.323 E5.03398
G1 X142.583 Y172.323 E.02408
G1 X47.677 Y77.417 E4.99992
G1 X47.677 Y78.064 E.02408
G1 X141.936 Y172.323 E4.96586
G1 X141.29 Y172.323 E.02408
G1 X47.677 Y78.71 E4.9318
G1 X47.677 Y79.357 E.02408
G1 X140.643 Y172.323 E4.89774
G1 X139.996 Y172.323 E.02408
G1 X47.677 Y80.004 E4.86367
